; generated by Slic3r Prusa Edition 1.41.2+linux64 on 2019-04-07 at 15:23:59

; 

; external perimeters extrusion width = 0.45mm
; perimeters extrusion width = 0.45mm
; infill extrusion width = 0.45mm
; solid infill extrusion width = 0.45mm
; top infill extrusion width = 0.40mm
; first layer extrusion width = 0.42mm

M73 P0 R700
M73 Q0 S351
M201 X1000 Y1000 Z1000 E5000 ; sets maximum accelerations, mm/sec^2
M203 X200 Y200 Z12 E120 ; sets maximum feedrates, mm/sec
M204 P1250 R1250 T1250 ; sets acceleration (P, T) and retract acceleration (R), mm/sec^2
M205 X8.00 Y8.00 Z0.40 E1.50 ; sets the jerk limits, mm/sec
M205 S0 T0 ; sets the minimum extruding and travel feed rate, mm/sec
M107
M83  ; extruder relative mode
M104 S240 ; set extruder temp
M140 S85 ; set bed temp
M190 S85 ; wait for bed temp
M109 S240 ; wait for extruder temp
G28 W ; home all without mesh bed level
G80 ; mesh bed leveling
G1 Y0
G1 X0
G1 X30.0 Y90.0 F1000.0
G1 Z0.15
G92 E0.0
G1 X70.0 E6.0 F1000.0
M73 Q0 S351
M73 P0 R700
G1 X110.0 E12.5 F1000.0
G92 E0.0
M221 S95
M900 K45; Filament gcode
G21 ; set units to millimeters
G90 ; use absolute coordinates
M83 ; use relative distances for extrusion
;BEFORE_LAYER_CHANGE
G92 E0.0
;0.2


G1 E-0.80000 F2100.00000
G1 Z0.600 F10800.000
;AFTER_LAYER_CHANGE
;0.2
G1 X16.756 Y23.53
G1 Z0.200
G1 E0.80000 F2100.00000
M204 S1000
G1 F1200
G1 X17.396 Y23.431 E0.02032
G1 X103.769 Y23.431 E2.70817
G1 X104.593 Y23.594 E0.02631
G1 X105.297 Y24.056 E0.02642
G1 X105.774 Y24.751 E0.02642
G1 X105.954 Y25.574 E0.02642
G1 X105.954 Y82.171 E1.77458
G1 X105.883 Y82.688 E0.01635
G1 X105.692 Y83.173 E0.01635
G1 X105.39 Y83.602 E0.01646
G1 X104.996 Y83.945 E0.01635
G1 X104.416 Y84.225 E0.02021
G1 X103.775 Y84.323 E0.02032
G1 X17.391 Y84.323 E2.70851
G1 X16.867 Y84.256 E0.01658
G1 X16.374 Y84.065 E0.01658
G1 X15.944 Y83.764 E0.01646
G1 X15.596 Y83.366 E0.01658
G1 X15.316 Y82.785 E0.02021
G1 X15.217 Y82.148 E0.02021
G1 X15.217 Y25.598 E1.77309
G1 X15.285 Y25.077 E0.01646
G1 X15.476 Y24.588 E0.01646
G1 X15.777 Y24.158 E0.01646
G1 X16.175 Y23.81 E0.01658
G1 X16.702 Y23.556 E0.01833
; PURGING FINISHED
G1 F8640
G1 X17.396 Y23.431 E-0.16296
G1 X19.982 Y23.431 E-0.59704
G1 E-0.04000 F2100.00000
G1 Z0.800 F10800.000
G1 X22.792 Y76.136
G1 Z0.200
G1 E0.80000 F2100.00000
G1 F1200
G1 X22.792 Y35.779 E1.26534
G1 X59.945 Y55.958 E1.32563
G1 X22.844 Y76.107 E1.32375
G1 X23.169 Y75.502 F10800.000
G1 F1200
G1 X23.169 Y36.413 E1.22559
G1 X59.155 Y55.958 E1.28399
G1 X23.221 Y75.473 E1.28211
G1 X23.546 Y74.868 F10800.000
G1 F1200
G1 X23.546 Y37.047 E1.18584
G1 X58.365 Y55.958 E1.24234
G1 X23.598 Y74.839 E1.24046
G1 X23.199 Y75.068 F10800.000
G1 F8640
G1 X23.594 Y71.548 E-0.76000
G1 E-0.04000 F2100.00000
G1 Z0.800 F10800.000
G1 X60.586 Y80.794
G1 Z0.200
G1 E0.80000 F2100.00000
G1 F1200
G1 X18.747 Y80.794 E1.31182
G1 X18.747 Y35.851 E1.40914
G1 X22.414 Y35.851 E0.11499
G1 X22.414 Y76.77 E1.28297
G1 X27.696 Y73.901 E0.18843
G1 X28.192 Y75.856 E0.06324
G1 X92.979 Y75.856 E2.03135
G1 X93.476 Y73.901 E0.06324
G1 X98.757 Y76.77 E0.18843
G1 X98.757 Y35.851 E1.28297
G1 X102.424 Y35.851 E0.11499
G1 X102.424 Y80.794 E1.40914
G1 X60.646 Y80.794 E1.30994
G1 F8640
G1 X57.354 Y80.794 E-0.76000
G1 E-0.04000 F2100.00000
G1 Z0.800 F10800.000
G1 X60.586 Y75.479
G1 Z0.200
G1 E0.80000 F2100.00000
G1 F1200
G1 X28.486 Y75.479 E1.00648
G1 X28.097 Y73.95 E0.04946
G1 X60.586 Y56.306 E1.15919
M73 Q0 S350
G1 X93.074 Y73.95 E1.15919
M73 P0 R699
G1 X92.686 Y75.479 E0.04946
G1 X60.646 Y75.479 E1.00460
G1 X60.586 Y75.102 F10800.000
G1 F1200
G1 X28.779 Y75.102 E0.99728
G1 X28.535 Y74.142 E0.03107
G1 X60.586 Y56.735 E1.14358
G1 X92.637 Y74.142 E1.14358
G1 X92.393 Y75.102 E0.03107
G1 X60.646 Y75.102 E0.99540
G1 X60.586 Y74.725 F10800.000
G1 F1200
G1 X29.072 Y74.725 E0.98809
G1 X28.973 Y74.333 E0.01268
G1 X60.586 Y57.164 E1.12796
G1 X92.199 Y74.333 E1.12796
G1 X92.099 Y74.725 E0.01268
G1 X60.646 Y74.725 E0.98621
G1 X60.387 Y75.072 F10800.000
G1 F8640
G1 X57.354 Y74.725 E-0.76000
G1 E-0.04000 F2100.00000
G1 Z0.800 F10800.000
G1 X98.38 Y76.136
G1 Z0.200
G1 E0.80000 F2100.00000
G1 F1200
G1 X61.227 Y55.958 E1.32563
G1 X98.38 Y35.779 E1.32563
G1 X98.38 Y76.076 E1.26346
G1 X98.003 Y75.502 F10800.000
G1 F1200
G1 X62.017 Y55.958 E1.28399
G1 X98.003 Y36.413 E1.28399
G1 X98.003 Y75.442 E1.22371
G1 X97.626 Y74.868 F10800.000
G1 F1200
G1 X62.807 Y55.958 E1.24234
G1 X97.626 Y37.047 E1.24234
G1 X97.626 Y74.808 E1.18396
G1 X97.636 Y75.268 F10800.000
G1 F8640
G1 X94.731 Y73.241 E-0.76000
G1 E-0.04000 F2100.00000
G1 Z0.800 F10800.000
G1 X60.586 Y81.171
G1 Z0.200
G1 E0.80000 F2100.00000
G1 F1200
G1 X18.37 Y81.171 E1.32365
G1 X18.37 Y26.584 E1.71153
G1 X24.062 Y26.584 E0.17846
G1 X24.062 Y27.196 E0.01918
G1 X18.982 Y27.196 E0.15928
G1 X18.982 Y35.474 E0.25956
G1 X23.511 Y35.474 E0.14201
G1 X60.586 Y55.61 E1.32284
G1 X97.661 Y35.474 E1.32284
G1 X102.19 Y35.474 E0.14201
G1 X102.19 Y27.196 E0.25956
G1 X97.11 Y27.196 E0.15928
G1 X97.11 Y26.584 E0.01918
G1 X102.802 Y26.584 E0.17846
G1 X102.802 Y81.171 E1.71153
G1 X60.646 Y81.171 E1.32177
G1 X60.586 Y81.548 F10800.000
G1 F1200
G1 X17.993 Y81.548 E1.33547
G1 X17.993 Y26.207 E1.73517
G1 X24.439 Y26.207 E0.20210
G1 X24.439 Y27.573 E0.04282
G1 X19.359 Y27.573 E0.15928
G1 X19.359 Y35.097 E0.23591
G1 X23.607 Y35.097 E0.13319
G1 X60.586 Y55.18 E1.31942
M73 Q0 S349
G1 X97.565 Y35.097 E1.31942
M73 P0 R698
G1 X101.813 Y35.097 E0.13319
G1 X101.813 Y27.573 E0.23591
G1 X96.733 Y27.573 E0.15928
G1 X96.733 Y26.207 E0.04282
G1 X103.179 Y26.207 E0.20210
G1 X103.179 Y81.548 E1.73517
G1 X60.646 Y81.548 E1.33359
G1 X60.586 Y81.925 F10800.000
G1 F1200
G1 X17.616 Y81.925 E1.34729
G1 X17.616 Y25.83 E1.75882
G1 X24.816 Y25.83 E0.22575
G1 X24.816 Y27.95 E0.06647
G1 X19.736 Y27.95 E0.15928
G1 X19.736 Y34.72 E0.21227
G1 X23.702 Y34.72 E0.12437
G1 X60.586 Y54.751 E1.31600
G1 X97.469 Y34.72 E1.31600
G1 X101.436 Y34.72 E0.12437
G1 X101.436 Y27.95 E0.21227
G1 X96.356 Y27.95 E0.15928
G1 X96.356 Y25.83 E0.06647
G1 X103.556 Y25.83 E0.22575
G1 X103.556 Y81.925 E1.75882
G1 X60.646 Y81.925 E1.34541
G1 X60.291 Y81.655 F10800.000
G1 F8640
G1 X57.354 Y81.925 E-0.76000
G1 E-0.04000 F2100.00000
G1 Z0.800 F10800.000
G1 X60.776 Y56.061
G1 Z0.200
G1 E0.80000 F2100.00000
G1 F1200
G1 X93.323 Y73.737 E0.72252
G1 F8640
G1 X90.43 Y72.166 E-0.76000
G1 E-0.04000 F2100.00000
G1 Z0.800 F10800.000
G1 X95.048 Y74.884
G1 Z0.200
G1 E0.80000 F2100.00000
G1 F1200
G1 X100.844 Y80.681 E0.25755
G1 X100.31 Y80.681 F10800.000
G1 F1200
G1 X94.301 Y74.671 E0.26700
G1 X93.66 Y74.323 E0.02290
G1 X93.611 Y74.516 E0.00625
G1 X99.606 Y80.511 E0.26635
G1 X99.072 Y80.511 E0.01679
G1 X93.503 Y74.942 E0.24742
G1 X93.395 Y75.368 E0.01381
G1 X98.537 Y80.511 E0.22849
G1 X98.003 Y80.511 E0.01679
G1 X93.287 Y75.794 E0.20956
G1 X93.199 Y76.139 E0.01117
G1 X93.097 Y76.139 E0.00321
G1 X97.469 Y80.511 E0.19425
G1 X96.934 Y80.511 E0.01679
G1 X92.562 Y76.139 E0.19425
G1 X92.028 Y76.139 E0.01679
G1 X96.4 Y80.511 E0.19425
G1 X95.866 Y80.511 E0.01679
G1 X91.494 Y76.139 E0.19425
G1 X90.959 Y76.139 E0.01679
G1 X95.331 Y80.511 E0.19425
G1 X94.797 Y80.511 E0.01679
G1 X90.425 Y76.139 E0.19425
G1 X89.891 Y76.139 E0.01679
G1 X94.263 Y80.511 E0.19425
G1 X93.728 Y80.511 E0.01679
G1 X89.356 Y76.139 E0.19425
G1 X88.822 Y76.139 E0.01679
G1 X93.194 Y80.511 E0.19425
G1 X92.66 Y80.511 E0.01679
G1 X88.288 Y76.139 E0.19425
G1 X87.753 Y76.139 E0.01679
G1 X92.125 Y80.511 E0.19425
G1 X91.591 Y80.511 E0.01679
G1 X87.219 Y76.139 E0.19425
G1 X86.685 Y76.139 E0.01679
G1 X91.057 Y80.511 E0.19425
G1 X90.522 Y80.511 E0.01679
G1 X86.15 Y76.139 E0.19425
G1 X85.616 Y76.139 E0.01679
G1 X89.988 Y80.511 E0.19425
G1 X89.454 Y80.511 E0.01679
G1 X85.082 Y76.139 E0.19425
G1 X84.547 Y76.139 E0.01679
G1 X88.919 Y80.511 E0.19425
G1 X88.385 Y80.511 E0.01679
G1 X84.013 Y76.139 E0.19425
G1 X83.479 Y76.139 E0.01679
G1 X87.851 Y80.511 E0.19425
G1 X87.316 Y80.511 E0.01679
G1 X82.944 Y76.139 E0.19425
G1 X82.41 Y76.139 E0.01679
G1 X86.782 Y80.511 E0.19425
G1 X86.247 Y80.511 E0.01679
G1 X81.876 Y76.139 E0.19425
G1 X81.341 Y76.139 E0.01679
G1 X85.713 Y80.511 E0.19425
G1 X85.179 Y80.511 E0.01679
G1 X80.807 Y76.139 E0.19425
G1 X80.273 Y76.139 E0.01679
G1 X84.644 Y80.511 E0.19425
G1 X84.11 Y80.511 E0.01679
G1 X79.738 Y76.139 E0.19425
G1 X79.204 Y76.139 E0.01679
G1 X83.576 Y80.511 E0.19425
G1 X83.041 Y80.511 E0.01679
G1 X78.669 Y76.139 E0.19425
G1 X78.135 Y76.139 E0.01679
G1 X82.507 Y80.511 E0.19425
G1 X81.973 Y80.511 E0.01679
G1 X77.601 Y76.139 E0.19425
G1 X77.066 Y76.139 E0.01679
G1 X81.438 Y80.511 E0.19425
G1 X80.904 Y80.511 E0.01679
G1 X76.532 Y76.139 E0.19425
G1 X75.998 Y76.139 E0.01679
G1 X80.37 Y80.511 E0.19425
G1 X79.835 Y80.511 E0.01679
G1 X75.463 Y76.139 E0.19425
G1 X74.929 Y76.139 E0.01679
G1 X79.301 Y80.511 E0.19425
G1 X78.767 Y80.511 E0.01679
G1 X74.395 Y76.139 E0.19425
G1 X73.86 Y76.139 E0.01679
G1 X78.232 Y80.511 E0.19425
G1 X77.698 Y80.511 E0.01679
G1 X73.326 Y76.139 E0.19425
G1 X72.792 Y76.139 E0.01679
G1 X77.164 Y80.511 E0.19425
G1 X76.629 Y80.511 E0.01679
G1 X72.257 Y76.139 E0.19425
G1 X71.723 Y76.139 E0.01679
G1 X76.095 Y80.511 E0.19425
G1 X75.561 Y80.511 E0.01679
G1 X71.189 Y76.139 E0.19425
G1 X70.654 Y76.139 E0.01679
G1 X75.026 Y80.511 E0.19425
G1 X74.492 Y80.511 E0.01679
G1 X70.12 Y76.139 E0.19425
G1 X69.586 Y76.139 E0.01679
G1 X73.958 Y80.511 E0.19425
G1 X73.423 Y80.511 E0.01679
G1 X69.051 Y76.139 E0.19425
G1 X68.517 Y76.139 E0.01679
G1 X72.889 Y80.511 E0.19425
G1 X72.355 Y80.511 E0.01679
G1 X67.983 Y76.139 E0.19425
G1 X67.448 Y76.139 E0.01679
G1 X71.82 Y80.511 E0.19425
G1 X71.286 Y80.511 E0.01679
G1 X66.914 Y76.139 E0.19425
G1 X66.38 Y76.139 E0.01679
G1 X70.751 Y80.511 E0.19425
G1 X70.217 Y80.511 E0.01679
G1 X65.845 Y76.139 E0.19425
G1 X65.311 Y76.139 E0.01679
G1 X69.683 Y80.511 E0.19425
G1 X69.148 Y80.511 E0.01679
G1 X64.776 Y76.139 E0.19425
G1 X64.242 Y76.139 E0.01679
G1 X68.614 Y80.511 E0.19425
G1 X68.08 Y80.511 E0.01679
G1 X63.708 Y76.139 E0.19425
G1 X63.173 Y76.139 E0.01679
G1 X67.545 Y80.511 E0.19425
G1 X67.011 Y80.511 E0.01679
G1 X62.639 Y76.139 E0.19425
G1 X62.105 Y76.139 E0.01679
G1 X66.477 Y80.511 E0.19425
G1 X65.942 Y80.511 E0.01679
G1 X61.57 Y76.139 E0.19425
G1 X61.036 Y76.139 E0.01679
G1 X65.408 Y80.511 E0.19425
G1 X64.874 Y80.511 E0.01679
G1 X60.502 Y76.139 E0.19425
G1 X59.967 Y76.139 E0.01679
G1 X64.339 Y80.511 E0.19425
G1 X63.805 Y80.511 E0.01679
G1 X59.433 Y76.139 E0.19425
G1 X58.899 Y76.139 E0.01679
G1 X63.271 Y80.511 E0.19425
G1 X62.736 Y80.511 E0.01679
G1 X58.364 Y76.139 E0.19425
G1 X57.83 Y76.139 E0.01679
G1 X62.202 Y80.511 E0.19425
G1 X61.668 Y80.511 E0.01679
G1 X57.296 Y76.139 E0.19425
G1 X56.761 Y76.139 E0.01679
G1 X61.133 Y80.511 E0.19425
G1 X60.599 Y80.511 E0.01679
G1 X56.227 Y76.139 E0.19425
G1 X55.693 Y76.139 E0.01679
G1 X60.065 Y80.511 E0.19425
G1 X59.53 Y80.511 E0.01679
G1 X55.158 Y76.139 E0.19425
G1 X54.624 Y76.139 E0.01679
G1 X58.996 Y80.511 E0.19425
G1 X58.462 Y80.511 E0.01679
G1 X54.09 Y76.139 E0.19425
G1 X53.555 Y76.139 E0.01679
G1 X57.927 Y80.511 E0.19425
G1 X57.393 Y80.511 E0.01679
G1 X53.021 Y76.139 E0.19425
G1 X52.487 Y76.139 E0.01679
G1 X56.859 Y80.511 E0.19425
G1 X56.324 Y80.511 E0.01679
G1 X51.952 Y76.139 E0.19425
G1 X51.418 Y76.139 E0.01679
G1 X55.79 Y80.511 E0.19425
G1 X55.255 Y80.511 E0.01679
G1 X50.884 Y76.139 E0.19425
G1 X50.349 Y76.139 E0.01679
G1 X54.721 Y80.511 E0.19425
G1 X54.187 Y80.511 E0.01679
G1 X49.815 Y76.139 E0.19425
G1 X49.28 Y76.139 E0.01679
G1 X53.652 Y80.511 E0.19425
G1 X53.118 Y80.511 E0.01679
G1 X48.746 Y76.139 E0.19425
G1 X48.212 Y76.139 E0.01679
G1 X52.584 Y80.511 E0.19425
M73 Q0 S348
G1 X52.049 Y80.511 E0.01679
G1 X47.677 Y76.139 E0.19425
G1 X47.143 Y76.139 E0.01679
G1 X51.515 Y80.511 E0.19425
G1 X50.981 Y80.511 E0.01679
G1 X46.609 Y76.139 E0.19425
G1 X46.074 Y76.139 E0.01679
G1 X50.446 Y80.511 E0.19425
G1 X49.912 Y80.511 E0.01679
G1 X45.54 Y76.139 E0.19425
G1 X45.006 Y76.139 E0.01679
G1 X49.378 Y80.511 E0.19425
G1 X48.843 Y80.511 E0.01679
G1 X44.471 Y76.139 E0.19425
M73 P0 R697
G1 X43.937 Y76.139 E0.01679
G1 X48.309 Y80.511 E0.19425
G1 X47.775 Y80.511 E0.01679
G1 X43.403 Y76.139 E0.19425
G1 X42.868 Y76.139 E0.01679
G1 X47.24 Y80.511 E0.19425
G1 X46.706 Y80.511 E0.01679
G1 X42.334 Y76.139 E0.19425
G1 X41.8 Y76.139 E0.01679
G1 X46.172 Y80.511 E0.19425
G1 X45.637 Y80.511 E0.01679
G1 X41.265 Y76.139 E0.19425
G1 X40.731 Y76.139 E0.01679
G1 X45.103 Y80.511 E0.19425
G1 X44.569 Y80.511 E0.01679
G1 X40.197 Y76.139 E0.19425
G1 X39.662 Y76.139 E0.01679
G1 X44.034 Y80.511 E0.19425
G1 X43.5 Y80.511 E0.01679
G1 X39.128 Y76.139 E0.19425
G1 X38.594 Y76.139 E0.01679
G1 X42.966 Y80.511 E0.19425
G1 X42.431 Y80.511 E0.01679
G1 X38.059 Y76.139 E0.19425
G1 X37.525 Y76.139 E0.01679
G1 X41.897 Y80.511 E0.19425
G1 X41.363 Y80.511 E0.01679
G1 X36.991 Y76.139 E0.19425
G1 X36.456 Y76.139 E0.01679
G1 X40.828 Y80.511 E0.19425
G1 X40.294 Y80.511 E0.01679
G1 X35.922 Y76.139 E0.19425
G1 X35.388 Y76.139 E0.01679
G1 X39.759 Y80.511 E0.19425
G1 X39.225 Y80.511 E0.01679
G1 X34.853 Y76.139 E0.19425
G1 X34.319 Y76.139 E0.01679
G1 X38.691 Y80.511 E0.19425
G1 X38.156 Y80.511 E0.01679
G1 X33.784 Y76.139 E0.19425
G1 X33.25 Y76.139 E0.01679
G1 X37.622 Y80.511 E0.19425
G1 X37.088 Y80.511 E0.01679
G1 X32.716 Y76.139 E0.19425
G1 X32.181 Y76.139 E0.01679
G1 X36.553 Y80.511 E0.19425
G1 X36.019 Y80.511 E0.01679
G1 X31.647 Y76.139 E0.19425
G1 X31.113 Y76.139 E0.01679
G1 X35.485 Y80.511 E0.19425
G1 X34.95 Y80.511 E0.01679
G1 X30.578 Y76.139 E0.19425
G1 X30.044 Y76.139 E0.01679
G1 X34.416 Y80.511 E0.19425
G1 X33.882 Y80.511 E0.01679
G1 X29.51 Y76.139 E0.19425
G1 X28.975 Y76.139 E0.01679
G1 X33.347 Y80.511 E0.19425
G1 X32.813 Y80.511 E0.01679
G1 X28.441 Y76.139 E0.19425
G1 X27.972 Y76.139 E0.01472
G1 X27.813 Y75.511 E0.02037
G1 X26.937 Y74.635 E0.03890
G1 X27.283 Y74.447 E0.01238
G1 X27.865 Y75.029 E0.02586
G1 F8640
G1 X27.283 Y74.447 E-0.19005
G1 X26.937 Y74.635 E-0.09099
G1 X27.813 Y75.511 E-0.28591
G1 X27.972 Y76.139 E-0.14968
G1 X28.16 Y76.139 E-0.04338
G1 E-0.04000 F2100.00000
G1 Z0.800 F10800.000
G1 X27.849 Y73.737
G1 Z0.200
G1 E0.80000 F2100.00000
G1 F1200
G1 X60.396 Y56.061 E0.72252
G1 X60.447 Y56.009 E0.00167
G1 X60.499 Y55.958 E0.00192
G1 X60.447 Y55.906 E0.00192
G1 X60.396 Y55.855 E0.00167
G1 X23.217 Y35.663 E0.82534
G1 F8640
G1 X26.11 Y37.233 E-0.76000
G1 E-0.04000 F2100.00000
G1 Z0.800 F10800.000
G1 X22.301 Y36.336
G1 Z0.200
G1 E0.80000 F2100.00000
G1 F1200
G1 X22.1 Y36.134 E0.00896
G1 X21.565 Y36.134 E0.01679
G1 X22.132 Y36.7 E0.02516
G1 X22.132 Y37.235 E0.01679
G1 X21.031 Y36.134 E0.04890
G1 X20.497 Y36.134 E0.01679
G1 X22.132 Y37.769 E0.07264
G1 X22.132 Y38.303 E0.01679
G1 X19.962 Y36.134 E0.09638
G1 X19.428 Y36.134 E0.01679
G1 X22.132 Y38.838 E0.12013
G1 X22.132 Y39.372 E0.01679
G1 X19.03 Y36.27 E0.13782
G1 X19.03 Y36.804 E0.01679
G1 X22.132 Y39.906 E0.13782
G1 X22.132 Y40.441 E0.01679
G1 X19.03 Y37.339 E0.13782
G1 X19.03 Y37.873 E0.01679
G1 X22.132 Y40.975 E0.13782
G1 X22.132 Y41.509 E0.01679
G1 X19.03 Y38.407 E0.13782
G1 X19.03 Y38.942 E0.01679
G1 X22.132 Y42.044 E0.13782
G1 X22.132 Y42.578 E0.01679
G1 X19.03 Y39.476 E0.13782
G1 X19.03 Y40.01 E0.01679
G1 X22.132 Y43.112 E0.13782
G1 X22.132 Y43.647 E0.01679
G1 X19.03 Y40.545 E0.13782
G1 X19.03 Y41.079 E0.01679
G1 X22.132 Y44.181 E0.13782
G1 X22.132 Y44.715 E0.01679
G1 X19.03 Y41.613 E0.13782
G1 X19.03 Y42.148 E0.01679
G1 X22.132 Y45.25 E0.13782
G1 X22.132 Y45.784 E0.01679
G1 X19.03 Y42.682 E0.13782
G1 X19.03 Y43.216 E0.01679
G1 X22.132 Y46.318 E0.13782
G1 X22.132 Y46.853 E0.01679
G1 X19.03 Y43.751 E0.13782
G1 X19.03 Y44.285 E0.01679
G1 X22.132 Y47.387 E0.13782
G1 X22.132 Y47.921 E0.01679
G1 X19.03 Y44.819 E0.13782
G1 X19.03 Y45.354 E0.01679
G1 X22.132 Y48.456 E0.13782
G1 X22.132 Y48.99 E0.01679
G1 X19.03 Y45.888 E0.13782
G1 X19.03 Y46.422 E0.01679
G1 X22.132 Y49.524 E0.13782
G1 X22.132 Y50.059 E0.01679
G1 X19.03 Y46.957 E0.13782
G1 X19.03 Y47.491 E0.01679
G1 X22.132 Y50.593 E0.13782
G1 X22.132 Y51.127 E0.01679
G1 X19.03 Y48.026 E0.13782
G1 X19.03 Y48.56 E0.01679
G1 X22.132 Y51.662 E0.13782
G1 X22.132 Y52.196 E0.01679
G1 X19.03 Y49.094 E0.13782
G1 X19.03 Y49.629 E0.01679
