; generated by PrusaSlicer 2.2.0+linux-x64 on 2020-06-09 at 02:26:01 UTC

; 

; external perimeters extrusion width = 0.45mm
; perimeters extrusion width = 0.45mm
; infill extrusion width = 0.45mm
; solid infill extrusion width = 0.45mm
; top infill extrusion width = 0.40mm
; first layer extrusion width = 0.42mm

M73 P0 R311
M73 Q0 S312
M201 X1000 Y1000 Z1000 E5000 ; sets maximum accelerations, mm/sec^2
M203 X200 Y200 Z12 E120 ; sets maximum feedrates, mm/sec
M204 P1250 R1250 T1250 ; sets acceleration (P, T) and retract acceleration (R), mm/sec^2
M205 X8.00 Y8.00 Z0.40 E4.50 ; sets the jerk limits, mm/sec
M205 S0 T0 ; sets the minimum extruding and travel feed rate, mm/sec
M107
M862.3 P "MK3S" ; printer model check
M862.1 P0.4 ; nozzle diameter check
M115 U3.8.1 ; tell printer latest fw version
G90 ; use absolute coordinates
M83 ; extruder relative mode
M104 S240 ; set extruder temp
M140 S85 ; set bed temp
M190 S85 ; wait for bed temp
M109 S240 ; wait for extruder temp
G28 W ; home all without mesh bed level
G80 ; mesh bed leveling
G1 Y-3.0 F1000.0 ; go outside print area
G92 E0.0
G1 X60.0 E9.0 F1000.0 ; intro line
M73 Q0 S312
M73 P0 R311
G1 X100.0 E12.5 F1000.0 ; intro line
G92 E0.0
M221 S95
G21 ; set units to millimeters
G90 ; use absolute coordinates
M83 ; use relative distances for extrusion
M900 K45 ; Filament gcode
;BEFORE_LAYER_CHANGE
G92 E0.0
;0.2


G1 E-1.40000 F2100.00000
G1 Z0.200 F10800.000
;AFTER_LAYER_CHANGE
;0.2
G1 Z0.400
G1 X81.114 Y74.473
G1 Z0.200
G1 E1.40000 F2100.00000
M204 S1000
G1 F1200.000
G1 X81.807 Y74.365 E0.02201
G1 X168.184 Y74.365 E2.70827
G1 X169.082 Y74.543 E0.02872
G1 X169.844 Y75.045 E0.02860
G1 X170.361 Y75.797 E0.02860
G1 X170.557 Y76.692 E0.02872
G1 X170.557 Y133.299 E1.77489
G1 X170.479 Y133.860 E0.01775
G1 X170.272 Y134.387 E0.01775
G1 X169.945 Y134.850 E0.01775
G1 X169.519 Y135.222 E0.01775
G1 X168.886 Y135.527 E0.02201
G1 X168.193 Y135.635 E0.02201
G1 X81.805 Y135.635 E2.70863
G1 X81.236 Y135.562 E0.01799
G1 X80.701 Y135.355 E0.01799
G1 X80.234 Y135.028 E0.01787
G1 X79.856 Y134.596 E0.01799
G1 X79.550 Y133.964 E0.02201
G1 X79.443 Y133.274 E0.02190
G1 X79.443 Y76.716 E1.77334
G1 X79.518 Y76.151 E0.01787
G1 X79.725 Y75.620 E0.01787
G1 X80.052 Y75.153 E0.01787
G1 X80.481 Y74.778 E0.01787
G1 X81.060 Y74.499 E0.02013
G1 F8640.000
G1 X81.807 Y74.365 E-0.17541
G1 X86.808 Y74.365 E-1.15459
G1 E-0.07000 F2100.00000
G1 Z0.400 F10800.000
G1 X162.617 Y126.961
G1 Z0.200
G1 E1.40000 F2100.00000
G1 F1200.000
G1 X126.874 Y107.548 E1.27532
G1 X126.874 Y106.612 E0.02936
G1 X162.617 Y87.200 E1.27532
G1 X162.617 Y126.901 E1.24479
G1 X162.240 Y126.327 F10800.000
G1 F1200.000
G1 X127.251 Y107.324 E1.24841
G1 X127.251 Y106.836 E0.01529
G1 X162.240 Y87.834 E1.24841
G1 X162.240 Y126.267 E1.20504
G1 X162.249 Y126.727 F10800.000
G1 F8640.000
G1 X157.175 Y123.524 E-1.33000
G1 E-0.07000 F2100.00000
G1 Z0.400 F10800.000
G1 X123.880 Y107.380
G1 Z0.200
G1 E1.40000 F2100.00000
G1 F1200.000
G1 X123.880 Y106.781 E0.01878
G1 X124.432 Y107.080 E0.01968
G1 X123.933 Y107.351 E0.01780
G1 F8640.000
G1 X123.880 Y106.781 E-0.13228
G1 X124.432 Y107.080 E-0.14492
G1 X123.933 Y107.351 E-0.13107
G1 E-0.99174 F2100.00000
G1 Z0.400 F10800.000
G1 X125.000 Y126.802
G1 Z0.200
G1 E1.40000 F2100.00000
G1 F1200.000
G1 X92.741 Y126.802 E1.01144
G1 X92.277 Y124.973 E0.05917
G1 X125.000 Y107.201 E1.16756
G1 X157.723 Y124.973 E1.16756
G1 X157.259 Y126.802 E0.05917
G1 X125.060 Y126.802 E1.00956
G1 X125.000 Y126.425 F10800.000
G1 F1200.000
G1 X93.035 Y126.425 E1.00225
G1 X92.715 Y125.164 E0.04077
G1 X125.000 Y107.630 E1.15195
G1 X157.285 Y125.164 E1.15195
G1 X156.965 Y126.425 E0.04077
G1 X125.060 Y126.425 E1.00037
G1 X125.000 Y126.047 F10800.000
G1 F1200.000
G1 X93.328 Y126.047 E0.99305
G1 X93.152 Y125.356 E0.02238
G1 X125.000 Y108.059 E1.13633
G1 X156.848 Y125.356 E1.13633
G1 X156.672 Y126.047 E0.02238
G1 X125.060 Y126.047 E0.99117
G1 X124.803 Y126.395 F10800.000
G1 F8640.000
G1 X119.300 Y126.047 E-1.33000
G1 E-0.07000 F2100.00000
G1 Z0.400 F10800.000
G1 X126.120 Y107.380
G1 Z0.200
G1 E1.40000 F2100.00000
G1 F1200.000
G1 X125.568 Y107.080 E0.01968
G1 X126.120 Y106.781 E0.01968
G1 X126.120 Y107.320 E0.01690
G1 F8640.000
G1 X125.568 Y107.080 E-0.13884
G1 X126.120 Y106.781 E-0.14492
G1 X126.120 Y107.320 E-0.12447
G1 E-0.99176 F2100.00000
G1 Z0.400 F10800.000
G1 X125.000 Y131.716
G1 Z0.200
G1 E1.40000 F2100.00000
G1 F1200.000
G1 X83.361 Y131.716 E1.30555
G1 X83.361 Y87.174 E1.39660
G1 X86.629 Y87.174 E0.10245
M73 Q0 S311
G1 X86.629 Y128.228 E1.28724
M73 P0 R310
G1 X91.977 Y125.324 E0.19082
G1 X92.448 Y127.179 E0.06001
G1 X157.552 Y127.179 E2.04128
G1 X158.023 Y125.324 E0.06001
G1 X163.371 Y128.228 E0.19082
G1 X163.371 Y87.174 E1.28724
G1 X166.639 Y87.174 E0.10245
G1 X166.639 Y131.716 E1.39660
G1 X125.060 Y131.716 E1.30367
G1 X125.000 Y132.093 F10800.000
G1 F1200.000
G1 X82.984 Y132.093 E1.31738
G1 X82.984 Y77.907 E1.69899
G1 X88.276 Y77.907 E0.16592
G1 X88.276 Y78.118 E0.00664
G1 X83.196 Y78.118 E0.15928
G1 X83.196 Y86.797 E0.27210
G1 X87.006 Y86.797 E0.11946
G1 X87.006 Y127.594 E1.27919
G1 X123.503 Y107.773 E1.30222
G1 X123.503 Y106.388 E0.04343
G1 X87.431 Y86.797 E1.28707
G1 X87.874 Y86.797 E0.01391
G1 X125.000 Y106.960 E1.32465
G1 X162.126 Y86.797 E1.32465
G1 X162.569 Y86.797 E0.01391
G1 X126.497 Y106.388 E1.28707
G1 X126.497 Y107.773 E0.04343
G1 X162.994 Y127.594 E1.30222
G1 X162.994 Y86.797 E1.27919
G1 X166.804 Y86.797 E0.11946
G1 X166.804 Y78.118 E0.27210
G1 X161.724 Y78.118 E0.15928
G1 X161.724 Y77.907 E0.00664
G1 X167.016 Y77.907 E0.16592
G1 X167.016 Y132.093 E1.69899
G1 X125.060 Y132.093 E1.31550
G1 F8640.000
G1 X119.300 Y132.093 E-1.33000
G1 E-0.07000 F2100.00000
G1 Z0.400 F10800.000
G1 X87.383 Y126.961
G1 Z0.200
G1 E1.40000 F2100.00000
G1 F1200.000
G1 X87.383 Y87.200 E1.24667
G1 X123.126 Y106.612 E1.27532
G1 X123.126 Y107.548 E0.02936
G1 X87.436 Y126.932 E1.27343
G1 X87.760 Y126.327 F10800.000
G1 F1200.000
G1 X87.760 Y87.834 E1.20692
G1 X122.749 Y106.836 E1.24841
G1 X122.749 Y107.324 E0.01529
G1 X87.813 Y126.298 E1.24653
G1 X87.366 Y126.394 F10800.000
G1 F8640.000
G1 X87.805 Y120.538 E-1.33000
G1 E-0.07000 F2100.00000
G1 Z0.400 F10800.000
G1 X125.000 Y132.470
G1 Z0.200
G1 E1.40000 F2100.00000
G1 F1200.000
G1 X82.607 Y132.470 E1.32920
G1 X82.607 Y77.530 E1.72263
M73 Q0 S310
G1 X88.653 Y77.530 E0.18956
G1 X88.653 Y78.495 E0.03028
G1 X83.573 Y78.495 E0.15928
G1 X83.573 Y86.420 E0.24846
G1 X87.970 Y86.420 E0.13787
G1 X125.000 Y106.531 E1.32123
M73 P0 R309
G1 X162.030 Y86.420 E1.32123
G1 X166.427 Y86.420 E0.13787
G1 X166.427 Y78.495 E0.24846
G1 X161.347 Y78.495 E0.15928
G1 X161.347 Y77.530 E0.03028
G1 X167.393 Y77.530 E0.18956
G1 X167.393 Y132.470 E1.72263
G1 X125.060 Y132.470 E1.32732
G1 X125.000 Y132.848 F10800.000
G1 F1200.000
G1 X82.230 Y132.848 E1.34102
G1 X82.230 Y77.152 E1.74628
G1 X89.030 Y77.152 E0.21321
G1 X89.030 Y78.873 E0.05393
G1 X83.950 Y78.873 E0.15928
G1 X83.950 Y86.042 E0.22481
G1 X88.066 Y86.042 E0.12905
G1 X125.000 Y106.102 E1.31781
G1 X161.934 Y86.042 E1.31781
G1 X166.050 Y86.042 E0.12905
G1 X166.050 Y78.873 E0.22481
G1 X160.970 Y78.873 E0.15928
G1 X160.970 Y77.152 E0.05393
G1 X167.770 Y77.152 E0.21321
G1 X167.770 Y132.848 E1.74628
G1 X125.060 Y132.848 E1.33914
G1 X124.705 Y132.577 F10800.000
G1 F8640.000
G1 X119.300 Y132.848 E-1.33000
G1 E-0.07000 F2100.00000
G1 Z0.400 F10800.000
G1 X96.020 Y131.603
G1 Z0.200
G1 E1.40000 F2100.00000
G1 F1200.000
G1 X90.736 Y126.319 E0.23526
G1 X90.389 Y126.508 E0.01243
G1 X95.315 Y131.433 E0.21932
G1 X94.780 Y131.433 E0.01686
G1 X90.042 Y126.696 E0.21092
G1 X89.695 Y126.885 E0.01243
G1 X94.244 Y131.433 E0.20253
G1 X93.709 Y131.433 E0.01686
G1 X89.348 Y127.073 E0.19414
G1 X89.001 Y127.262 E0.01243
G1 X93.173 Y131.433 E0.18575
G1 X92.638 Y131.433 E0.01686
G1 X88.654 Y127.450 E0.17736
G1 X88.307 Y127.639 E0.01243
G1 X92.102 Y131.433 E0.16897
G1 X91.567 Y131.433 E0.01686
G1 X87.960 Y127.827 E0.16058
G1 X87.613 Y128.016 E0.01243
G1 X91.031 Y131.433 E0.15219
G1 X90.496 Y131.433 E0.01686
G1 X87.266 Y128.204 E0.14379
G1 X86.919 Y128.392 E0.01243
G1 X89.960 Y131.433 E0.13540
G1 X89.425 Y131.433 E0.01686
G1 X83.644 Y125.653 E0.25739
G1 X83.644 Y126.188 E0.01686
G1 X88.889 Y131.433 E0.23355
G1 X88.354 Y131.433 E0.01686
G1 X83.644 Y126.724 E0.20971
G1 X83.644 Y127.259 E0.01686
G1 X87.818 Y131.433 E0.18587
G1 X87.283 Y131.433 E0.01686
G1 X83.644 Y127.795 E0.16202
G1 X83.644 Y128.330 E0.01686
G1 X86.747 Y131.433 E0.13818
G1 X86.212 Y131.433 E0.01686
G1 X83.644 Y128.865 E0.11434
G1 X83.644 Y129.401 E0.01686
G1 X85.677 Y131.433 E0.09050
G1 X85.141 Y131.433 E0.01686
G1 X83.644 Y129.936 E0.06666
G1 X83.644 Y130.472 E0.01686
G1 X84.606 Y131.433 E0.04281
G1 X84.070 Y131.433 E0.01686
G1 X83.474 Y130.838 E0.02653
G1 F8640.000
G1 X84.070 Y131.433 E-0.19455
G1 X84.606 Y131.433 E-0.12364
G1 X83.644 Y130.472 E-0.31400
G1 X83.644 Y129.936 E-0.12364
G1 X85.141 Y131.433 E-0.48886
G1 X85.510 Y131.433 E-0.08530
G1 E-0.07000 F2100.00000
G1 Z0.400 F10800.000
G1 X86.516 Y127.989
G1 Z0.200
G1 E1.40000 F2100.00000
G1 F1200.000
G1 X83.644 Y125.117 E0.12786
G1 X83.644 Y124.582 E0.01686
G1 X86.346 Y127.284 E0.12031
G1 X86.346 Y126.748 E0.01686
G1 X83.644 Y124.046 E0.12031
G1 X83.644 Y123.511 E0.01686
G1 X86.346 Y126.213 E0.12031
G1 X86.346 Y125.677 E0.01686
G1 X83.644 Y122.975 E0.12031
G1 X83.644 Y122.440 E0.01686
G1 X86.346 Y125.142 E0.12031
G1 X86.346 Y124.606 E0.01686
G1 X83.644 Y121.904 E0.12031
G1 X83.644 Y121.369 E0.01686
G1 X86.346 Y124.071 E0.12031
G1 X86.346 Y123.535 E0.01686
G1 X83.644 Y120.833 E0.12031
G1 X83.644 Y120.298 E0.01686
G1 X86.346 Y123.000 E0.12031
G1 X86.346 Y122.464 E0.01686
G1 X83.644 Y119.762 E0.12031
G1 X83.644 Y119.227 E0.01686
G1 X86.346 Y121.929 E0.12031
G1 X86.346 Y121.393 E0.01686
G1 X83.644 Y118.691 E0.12031
G1 X83.644 Y118.156 E0.01686
G1 X86.346 Y120.858 E0.12031
G1 X86.346 Y120.322 E0.01686
G1 X83.644 Y117.620 E0.12031
G1 X83.644 Y117.085 E0.01686
G1 X86.346 Y119.787 E0.12031
G1 X86.346 Y119.252 E0.01686
G1 X83.644 Y116.550 E0.12031
G1 X83.644 Y116.014 E0.01686
G1 X86.346 Y118.716 E0.12031
G1 X86.346 Y118.181 E0.01686
G1 X83.644 Y115.479 E0.12031
G1 X83.644 Y114.943 E0.01686
G1 X86.346 Y117.645 E0.12031
G1 X86.346 Y117.110 E0.01686
G1 X83.644 Y114.408 E0.12031
G1 X83.644 Y113.872 E0.01686
G1 X86.346 Y116.574 E0.12031
G1 X86.346 Y116.039 E0.01686
G1 X83.644 Y113.337 E0.12031
G1 X83.644 Y112.801 E0.01686
G1 X86.346 Y115.503 E0.12031
G1 X86.346 Y114.968 E0.01686
G1 X83.644 Y112.266 E0.12031
G1 X83.644 Y111.730 E0.01686
G1 X86.346 Y114.432 E0.12031
G1 X86.346 Y113.897 E0.01686
G1 X83.644 Y111.195 E0.12031
G1 X83.644 Y110.659 E0.01686
G1 X86.346 Y113.361 E0.12031
G1 X86.346 Y112.826 E0.01686
G1 X83.644 Y110.124 E0.12031
G1 X83.644 Y109.588 E0.01686
G1 X86.346 Y112.290 E0.12031
G1 X86.346 Y111.755 E0.01686
G1 X83.644 Y109.053 E0.12030
G1 X83.644 Y108.517 E0.01686
G1 X86.346 Y111.219 E0.12030
G1 X86.346 Y110.684 E0.01686
G1 X83.644 Y107.982 E0.12030
G1 X83.644 Y107.446 E0.01686
G1 X86.346 Y110.148 E0.12030
G1 X86.346 Y109.613 E0.01686
G1 X83.644 Y106.911 E0.12030
G1 X83.644 Y106.376 E0.01686
G1 X86.346 Y109.077 E0.12030
G1 X86.346 Y108.542 E0.01686
G1 X83.644 Y105.840 E0.12030
G1 X83.644 Y105.305 E0.01686
G1 X86.346 Y108.007 E0.12031
G1 X86.346 Y107.471 E0.01686
G1 X83.644 Y104.769 E0.12031
G1 X83.644 Y104.234 E0.01686
G1 X86.346 Y106.936 E0.12031
G1 X86.346 Y106.400 E0.01686
G1 X83.644 Y103.698 E0.12031
G1 X83.644 Y103.163 E0.01686
G1 X86.346 Y105.865 E0.12031
G1 X86.346 Y105.329 E0.01686
G1 X83.644 Y102.627 E0.12031
G1 X83.644 Y102.092 E0.01686
G1 X86.346 Y104.794 E0.12031
G1 X86.346 Y104.258 E0.01686
G1 X83.644 Y101.556 E0.12031
G1 X83.644 Y101.021 E0.01686
G1 X86.346 Y103.723 E0.12031
G1 X86.346 Y103.187 E0.01686
G1 X83.644 Y100.485 E0.12031
G1 X83.644 Y99.950 E0.01686
G1 X86.346 Y102.652 E0.12031
G1 X86.346 Y102.116 E0.01686
G1 X83.644 Y99.414 E0.12031
G1 X83.644 Y98.879 E0.01686
G1 X86.346 Y101.581 E0.12031
G1 X86.346 Y101.045 E0.01686
G1 X83.644 Y98.343 E0.12031
G1 X83.644 Y97.808 E0.01686
G1 X86.346 Y100.510 E0.12031
G1 X86.346 Y99.974 E0.01686
G1 X83.644 Y97.272 E0.12031
G1 X83.644 Y96.737 E0.01686
G1 X86.346 Y99.439 E0.12031
G1 X86.346 Y98.903 E0.01686
G1 X83.644 Y96.201 E0.12031
G1 X83.644 Y95.666 E0.01686
G1 X86.346 Y98.368 E0.12031
G1 X86.346 Y97.833 E0.01686
G1 X83.644 Y95.131 E0.12031
G1 X83.644 Y94.595 E0.01686
G1 X86.346 Y97.297 E0.12031
G1 X86.346 Y96.762 E0.01686
G1 X83.644 Y94.060 E0.12031
G1 X83.644 Y93.524 E0.01686
G1 X86.346 Y96.226 E0.12031
G1 X86.346 Y95.691 E0.01686
G1 X83.644 Y92.989 E0.12031
G1 X83.644 Y92.453 E0.01686
G1 X86.346 Y95.155 E0.12031
G1 X86.346 Y94.620 E0.01686
G1 X83.644 Y91.918 E0.12031
G1 X83.644 Y91.382 E0.01686
G1 X86.346 Y94.084 E0.12031
G1 X86.346 Y93.549 E0.01686
G1 X83.644 Y90.847 E0.12031
G1 X83.644 Y90.311 E0.01686
G1 X86.346 Y93.013 E0.12031
G1 X86.346 Y92.478 E0.01686
G1 X83.644 Y89.776 E0.12031
G1 X83.644 Y89.240 E0.01686
G1 X86.346 Y91.942 E0.12031
G1 X86.346 Y91.407 E0.01686
G1 X83.644 Y88.705 E0.12031
G1 X83.644 Y88.169 E0.01686
G1 X86.346 Y90.871 E0.12031
G1 X86.346 Y90.336 E0.01686
G1 X83.644 Y87.634 E0.12031
G1 X83.644 Y87.457 E0.00558
G1 X84.002 Y87.457 E0.01127
G1 X86.346 Y89.800 E0.10436
G1 X86.346 Y89.265 E0.01686
G1 X84.538 Y87.457 E0.08052
G1 X85.073 Y87.457 E0.01686
G1 X86.346 Y88.729 E0.05668
G1 X86.346 Y88.194 E0.01686
G1 X85.609 Y87.457 E0.03284
G1 X86.144 Y87.457 E0.01686
G1 X86.516 Y87.828 E0.01655
G1 F8640.000
G1 X86.144 Y87.457 E-0.12137
G1 X85.609 Y87.457 E-0.12364
G1 X86.346 Y88.194 E-0.24081
G1 X86.346 Y88.729 E-0.12364
G1 X85.073 Y87.457 E-0.41567
G1 X84.538 Y87.457 E-0.12364
G1 X85.093 Y88.011 E-0.18122
G1 E-0.07000 F2100.00000
G1 Z0.400 F10800.000
G1 X87.216 Y86.784
G1 Z0.200
G1 E1.40000 F2100.00000
G1 F1200.000
G1 X87.239 Y86.608 E0.00116
G1 F8640.000
G1 X87.216 Y86.784 E-0.04099
G1 E-1.35901 F2100.00000
G1 Z0.400 F10800.000
G1 X91.652 Y125.629
G1 Z0.200
G1 E1.40000 F2100.00000
G1 F1200.000
G1 X91.800 Y125.777 E0.00659
G1 X91.983 Y126.495 E0.02332
G1 X91.430 Y125.942 E0.02459
G1 X91.083 Y126.131 E0.01243
G1 X96.386 Y131.433 E0.23610
G1 X96.922 Y131.433 E0.01686
G1 X92.950 Y127.462 E0.17685
G1 X93.485 Y127.462 E0.01686
G1 X97.457 Y131.433 E0.17685
G1 X97.992 Y131.433 E0.01686
G1 X94.021 Y127.462 E0.17685
G1 X94.556 Y127.462 E0.01686
G1 X98.528 Y131.433 E0.17685
G1 X99.063 Y131.433 E0.01686
G1 X95.091 Y127.462 E0.17685
G1 X95.627 Y127.462 E0.01686
G1 X99.599 Y131.433 E0.17685
G1 X100.134 Y131.433 E0.01686
G1 X96.162 Y127.462 E0.17685
G1 X96.698 Y127.462 E0.01686
G1 X100.670 Y131.433 E0.17685
G1 X101.205 Y131.433 E0.01686
G1 X97.233 Y127.462 E0.17685
G1 X97.769 Y127.462 E0.01686
G1 X101.741 Y131.433 E0.17685
G1 X102.276 Y131.433 E0.01686
G1 X98.304 Y127.462 E0.17685
G1 X98.840 Y127.462 E0.01686
G1 X102.812 Y131.433 E0.17685
G1 X103.347 Y131.433 E0.01686
G1 X99.375 Y127.462 E0.17685
G1 X99.911 Y127.462 E0.01686
G1 X103.883 Y131.433 E0.17685
G1 X104.418 Y131.433 E0.01686
G1 X100.446 Y127.462 E0.17685
G1 X100.982 Y127.462 E0.01686
G1 X104.954 Y131.433 E0.17685
G1 X105.489 Y131.433 E0.01686
G1 X101.517 Y127.462 E0.17685
M73 Q0 S309
G1 X102.053 Y127.462 E0.01686
G1 X106.025 Y131.433 E0.17685
G1 X106.560 Y131.433 E0.01686
G1 X102.588 Y127.462 E0.17685
G1 X103.124 Y127.462 E0.01686
G1 X107.096 Y131.433 E0.17685
G1 X107.631 Y131.433 E0.01686
G1 X103.659 Y127.462 E0.17685
G1 X104.195 Y127.462 E0.01686
G1 X108.166 Y131.433 E0.17685
G1 X108.702 Y131.433 E0.01686
G1 X104.730 Y127.462 E0.17685
G1 X105.265 Y127.462 E0.01686
G1 X109.237 Y131.433 E0.17685
G1 X109.773 Y131.433 E0.01686
G1 X105.801 Y127.462 E0.17685
G1 X106.336 Y127.462 E0.01686
G1 X110.308 Y131.433 E0.17685
G1 X110.844 Y131.433 E0.01686
G1 X106.872 Y127.462 E0.17685
G1 X107.407 Y127.462 E0.01686
G1 X111.379 Y131.433 E0.17685
M73 P1 R308
G1 X111.915 Y131.433 E0.01686
G1 X107.943 Y127.462 E0.17685
G1 X108.478 Y127.462 E0.01686
G1 X112.450 Y131.433 E0.17685
G1 X112.986 Y131.433 E0.01686
G1 X109.014 Y127.462 E0.17685
G1 X109.549 Y127.462 E0.01686
G1 X113.521 Y131.433 E0.17685
G1 X114.057 Y131.433 E0.01686
G1 X110.085 Y127.462 E0.17685
