; generated by Slic3r Prusa Edition 1.41.2+linux64 on 2019-04-07 at 15:23:59

; 

; external perimeters extrusion width = 0.45mm
; perimeters extrusion width = 0.45mm
; infill extrusion width = 0.45mm
; solid infill extrusion width = 0.45mm
; top infill extrusion width = 0.40mm
; first layer extrusion width = 0.42mm

M73 P0 R700
M73 Q0 S351
M201 X1000 Y1000 Z1000 E5000 ; sets maximum accelerations, mm/sec^2
M203 X200 Y200 Z12 E120 ; sets maximum feedrates, mm/sec
M204 P1250 R1250 T1250 ; sets acceleration (P, T) and retract acceleration (R), mm/sec^2
M205 X8.00 Y8.00 Z0.40 E1.50 ; sets the jerk limits, mm/sec
M205 S0 T0 ; sets the minimum extruding and travel feed rate, mm/sec
M107
M83  ; extruder relative mode
M104 S240 ; set extruder temp
M140 S85 ; set bed temp
M190 S85 ; wait for bed temp
M109 S240 ; wait for extruder temp
G28 W ; home all without mesh bed level
G80 ; mesh bed leveling
G1 Y0
G1 X145
G1 X165.0 Y90.0 F1000.0
G1 Z0.15
G92 E0.0
G1 X205.0 E6.0 F1000.0
M73 Q0 S351
M73 P0 R700
G1 X245.0 E12.5 F1000.0
G92 E0.0
M221 S95
M900 K45; Filament gcode
G21 ; set units to millimeters
G90 ; use absolute coordinates
M83 ; use relative distances for extrusion
;BEFORE_LAYER_CHANGE
G92 E0.0
;0.2


G1 E-0.80000 F2100.00000
G1 Z0.600 F10800.000
;AFTER_LAYER_CHANGE
;0.2
G1 X151.756 Y23.53
G1 Z0.200
G1 E0.80000 F2100.00000
M204 S1000
G1 F1200
G1 X152.396 Y23.431 E0.02032
G1 X238.769 Y23.431 E2.70817
G1 X239.593 Y23.594 E0.02631
G1 X240.297 Y24.056 E0.02642
G1 X240.774 Y24.751 E0.02642
G1 X240.954 Y25.574 E0.02642
G1 X240.954 Y82.171 E1.77458
G1 X240.883 Y82.688 E0.01635
G1 X240.692 Y83.173 E0.01635
G1 X240.39 Y83.602 E0.01646
G1 X239.996 Y83.945 E0.01635
G1 X239.416 Y84.225 E0.02021
G1 X238.775 Y84.323 E0.02032
G1 X152.391 Y84.323 E2.70851
G1 X151.867 Y84.256 E0.01658
G1 X151.374 Y84.065 E0.01658
G1 X150.944 Y83.764 E0.01646
G1 X150.596 Y83.366 E0.01658
G1 X150.316 Y82.785 E0.02021
G1 X150.217 Y82.148 E0.02021
G1 X150.217 Y25.598 E1.77309
G1 X150.285 Y25.077 E0.01646
G1 X150.476 Y24.588 E0.01646
G1 X150.777 Y24.158 E0.01646
G1 X151.175 Y23.81 E0.01658
G1 X151.702 Y23.556 E0.01833
; PURGING FINISHED
G1 F8640
G1 X152.396 Y23.431 E-0.16296
G1 X154.982 Y23.431 E-0.59704
G1 E-0.04000 F2100.00000
G1 Z0.800 F10800.000
G1 X157.792 Y76.136
G1 Z0.200
G1 E0.80000 F2100.00000
G1 F1200
G1 X157.792 Y35.779 E1.26534
G1 X194.945 Y55.958 E1.32563
G1 X157.844 Y76.107 E1.32375
G1 X158.169 Y75.502 F10800.000
G1 F1200
G1 X158.169 Y36.413 E1.22559
G1 X194.155 Y55.958 E1.28399
G1 X158.221 Y75.473 E1.28211
G1 X158.546 Y74.868 F10800.000
G1 F1200
G1 X158.546 Y37.047 E1.18584
G1 X193.365 Y55.958 E1.24234
G1 X158.598 Y74.839 E1.24046
G1 X158.199 Y75.068 F10800.000
G1 F8640
G1 X158.594 Y71.548 E-0.76000
G1 E-0.04000 F2100.00000
G1 Z0.800 F10800.000
G1 X195.586 Y80.794
G1 Z0.200
G1 E0.80000 F2100.00000
G1 F1200
G1 X153.747 Y80.794 E1.31182
G1 X153.747 Y35.851 E1.40914
G1 X157.414 Y35.851 E0.11499
G1 X157.414 Y76.77 E1.28297
G1 X162.696 Y73.901 E0.18843
G1 X163.192 Y75.856 E0.06324
G1 X227.979 Y75.856 E2.03135
G1 X228.476 Y73.901 E0.06324
G1 X233.757 Y76.77 E0.18843
G1 X233.757 Y35.851 E1.28297
G1 X237.424 Y35.851 E0.11499
G1 X237.424 Y80.794 E1.40914
G1 X195.646 Y80.794 E1.30994
G1 F8640
G1 X192.354 Y80.794 E-0.76000
G1 E-0.04000 F2100.00000
G1 Z0.800 F10800.000
G1 X195.586 Y75.479
G1 Z0.200
G1 E0.80000 F2100.00000
G1 F1200
G1 X163.486 Y75.479 E1.00648
G1 X163.097 Y73.95 E0.04946
G1 X195.586 Y56.306 E1.15919
M73 Q0 S350
G1 X228.074 Y73.95 E1.15919
M73 P0 R699
G1 X227.686 Y75.479 E0.04946
G1 X195.646 Y75.479 E1.00460
G1 X195.586 Y75.102 F10800.000
G1 F1200
G1 X163.779 Y75.102 E0.99728
G1 X163.535 Y74.142 E0.03107
G1 X195.586 Y56.735 E1.14358
G1 X227.637 Y74.142 E1.14358
G1 X227.393 Y75.102 E0.03107
G1 X195.646 Y75.102 E0.99540
G1 X195.586 Y74.725 F10800.000
G1 F1200
G1 X164.072 Y74.725 E0.98809
G1 X163.973 Y74.333 E0.01268
G1 X195.586 Y57.164 E1.12796
G1 X227.199 Y74.333 E1.12796
G1 X227.099 Y74.725 E0.01268
G1 X195.646 Y74.725 E0.98621
G1 X195.387 Y75.072 F10800.000
G1 F8640
G1 X192.354 Y74.725 E-0.76000
G1 E-0.04000 F2100.00000
G1 Z0.800 F10800.000
G1 X233.38 Y76.136
G1 Z0.200
G1 E0.80000 F2100.00000
G1 F1200
G1 X196.227 Y55.958 E1.32563
G1 X233.38 Y35.779 E1.32563
G1 X233.38 Y76.076 E1.26346
G1 X233.003 Y75.502 F10800.000
G1 F1200
G1 X197.017 Y55.958 E1.28399
G1 X233.003 Y36.413 E1.28399
G1 X233.003 Y75.442 E1.22371
G1 X232.626 Y74.868 F10800.000
G1 F1200
G1 X197.807 Y55.958 E1.24234
G1 X232.626 Y37.047 E1.24234
G1 X232.626 Y74.808 E1.18396
G1 X232.636 Y75.268 F10800.000
G1 F8640
G1 X229.731 Y73.241 E-0.76000
G1 E-0.04000 F2100.00000
G1 Z0.800 F10800.000
G1 X195.586 Y81.171
G1 Z0.200
G1 E0.80000 F2100.00000
G1 F1200
G1 X153.37 Y81.171 E1.32365
G1 X153.37 Y26.584 E1.71153
G1 X159.062 Y26.584 E0.17846
G1 X159.062 Y27.196 E0.01918
G1 X153.982 Y27.196 E0.15928
G1 X153.982 Y35.474 E0.25956
G1 X158.511 Y35.474 E0.14201
G1 X195.586 Y55.61 E1.32284
G1 X232.661 Y35.474 E1.32284
G1 X237.19 Y35.474 E0.14201
G1 X237.19 Y27.196 E0.25956
G1 X232.11 Y27.196 E0.15928
G1 X232.11 Y26.584 E0.01918
G1 X237.802 Y26.584 E0.17846
G1 X237.802 Y81.171 E1.71153
G1 X195.646 Y81.171 E1.32177
G1 X195.586 Y81.548 F10800.000
G1 F1200
G1 X152.993 Y81.548 E1.33547
G1 X152.993 Y26.207 E1.73517
G1 X159.439 Y26.207 E0.20210
G1 X159.439 Y27.573 E0.04282
G1 X154.359 Y27.573 E0.15928
G1 X154.359 Y35.097 E0.23591
G1 X158.607 Y35.097 E0.13319
G1 X195.586 Y55.18 E1.31942
M73 Q0 S349
G1 X232.565 Y35.097 E1.31942
M73 P0 R698
G1 X236.813 Y35.097 E0.13319
G1 X236.813 Y27.573 E0.23591
G1 X231.733 Y27.573 E0.15928
G1 X231.733 Y26.207 E0.04282
G1 X238.179 Y26.207 E0.20210
G1 X238.179 Y81.548 E1.73517
G1 X195.646 Y81.548 E1.33359
G1 X195.586 Y81.925 F10800.000
G1 F1200
G1 X152.616 Y81.925 E1.34729
G1 X152.616 Y25.83 E1.75882
G1 X159.816 Y25.83 E0.22575
G1 X159.816 Y27.95 E0.06647
G1 X154.736 Y27.95 E0.15928
G1 X154.736 Y34.72 E0.21227
G1 X158.702 Y34.72 E0.12437
G1 X195.586 Y54.751 E1.31600
G1 X232.469 Y34.72 E1.31600
G1 X236.436 Y34.72 E0.12437
G1 X236.436 Y27.95 E0.21227
G1 X231.356 Y27.95 E0.15928
G1 X231.356 Y25.83 E0.06647
G1 X238.556 Y25.83 E0.22575
G1 X238.556 Y81.925 E1.75882
G1 X195.646 Y81.925 E1.34541
G1 X195.291 Y81.655 F10800.000
G1 F8640
G1 X192.354 Y81.925 E-0.76000
G1 E-0.04000 F2100.00000
G1 Z0.800 F10800.000
G1 X195.776 Y56.061
G1 Z0.200
G1 E0.80000 F2100.00000
G1 F1200
G1 X228.323 Y73.737 E0.72252
G1 F8640
G1 X225.43 Y72.166 E-0.76000
G1 E-0.04000 F2100.00000
G1 Z0.800 F10800.000
G1 X230.048 Y74.884
G1 Z0.200
G1 E0.80000 F2100.00000
G1 F1200
G1 X235.844 Y80.681 E0.25755
G1 X235.31 Y80.681 F10800.000
G1 F1200
G1 X229.301 Y74.671 E0.26700
G1 X228.66 Y74.323 E0.02290
G1 X228.611 Y74.516 E0.00625
G1 X234.606 Y80.511 E0.26635
G1 X234.072 Y80.511 E0.01679
G1 X228.503 Y74.942 E0.24742
G1 X228.395 Y75.368 E0.01381
G1 X233.537 Y80.511 E0.22849
G1 X233.003 Y80.511 E0.01679
G1 X228.287 Y75.794 E0.20956
G1 X228.199 Y76.139 E0.01117
G1 X228.097 Y76.139 E0.00321
G1 X232.469 Y80.511 E0.19425
G1 X231.934 Y80.511 E0.01679
G1 X227.562 Y76.139 E0.19425
G1 X227.028 Y76.139 E0.01679
G1 X231.4 Y80.511 E0.19425
G1 X230.866 Y80.511 E0.01679
G1 X226.494 Y76.139 E0.19425
G1 X225.959 Y76.139 E0.01679
G1 X230.331 Y80.511 E0.19425
G1 X229.797 Y80.511 E0.01679
G1 X225.425 Y76.139 E0.19425
G1 X224.891 Y76.139 E0.01679
G1 X229.263 Y80.511 E0.19425
G1 X228.728 Y80.511 E0.01679
G1 X224.356 Y76.139 E0.19425
G1 X223.822 Y76.139 E0.01679
G1 X228.194 Y80.511 E0.19425
G1 X227.66 Y80.511 E0.01679
G1 X223.288 Y76.139 E0.19425
G1 X222.753 Y76.139 E0.01679
G1 X227.125 Y80.511 E0.19425
G1 X226.591 Y80.511 E0.01679
G1 X222.219 Y76.139 E0.19425
G1 X221.685 Y76.139 E0.01679
G1 X226.057 Y80.511 E0.19425
G1 X225.522 Y80.511 E0.01679
G1 X221.15 Y76.139 E0.19425
G1 X220.616 Y76.139 E0.01679
G1 X224.988 Y80.511 E0.19425
G1 X224.454 Y80.511 E0.01679
G1 X220.082 Y76.139 E0.19425
G1 X219.547 Y76.139 E0.01679
G1 X223.919 Y80.511 E0.19425
G1 X223.385 Y80.511 E0.01679
G1 X219.013 Y76.139 E0.19425
G1 X218.479 Y76.139 E0.01679
G1 X222.851 Y80.511 E0.19425
G1 X222.316 Y80.511 E0.01679
G1 X217.944 Y76.139 E0.19425
G1 X217.41 Y76.139 E0.01679
G1 X221.782 Y80.511 E0.19425
G1 X221.247 Y80.511 E0.01679
G1 X216.876 Y76.139 E0.19425
G1 X216.341 Y76.139 E0.01679
G1 X220.713 Y80.511 E0.19425
G1 X220.179 Y80.511 E0.01679
G1 X215.807 Y76.139 E0.19425
G1 X215.273 Y76.139 E0.01679
G1 X219.644 Y80.511 E0.19425
G1 X219.11 Y80.511 E0.01679
G1 X214.738 Y76.139 E0.19425
G1 X214.204 Y76.139 E0.01679
G1 X218.576 Y80.511 E0.19425
G1 X218.041 Y80.511 E0.01679
G1 X213.669 Y76.139 E0.19425
G1 X213.135 Y76.139 E0.01679
G1 X217.507 Y80.511 E0.19425
G1 X216.973 Y80.511 E0.01679
G1 X212.601 Y76.139 E0.19425
G1 X212.066 Y76.139 E0.01679
G1 X216.438 Y80.511 E0.19425
G1 X215.904 Y80.511 E0.01679
G1 X211.532 Y76.139 E0.19425
G1 X210.998 Y76.139 E0.01679
G1 X215.37 Y80.511 E0.19425
G1 X214.835 Y80.511 E0.01679
G1 X210.463 Y76.139 E0.19425
G1 X209.929 Y76.139 E0.01679
G1 X214.301 Y80.511 E0.19425
G1 X213.767 Y80.511 E0.01679
G1 X209.395 Y76.139 E0.19425
G1 X208.86 Y76.139 E0.01679
G1 X213.232 Y80.511 E0.19425
G1 X212.698 Y80.511 E0.01679
G1 X208.326 Y76.139 E0.19425
G1 X207.792 Y76.139 E0.01679
G1 X212.164 Y80.511 E0.19425
G1 X211.629 Y80.511 E0.01679
G1 X207.257 Y76.139 E0.19425
G1 X206.723 Y76.139 E0.01679
G1 X211.095 Y80.511 E0.19425
G1 X210.561 Y80.511 E0.01679
G1 X206.189 Y76.139 E0.19425
G1 X205.654 Y76.139 E0.01679
G1 X210.026 Y80.511 E0.19425
G1 X209.492 Y80.511 E0.01679
G1 X205.12 Y76.139 E0.19425
G1 X204.586 Y76.139 E0.01679
G1 X208.958 Y80.511 E0.19425
G1 X208.423 Y80.511 E0.01679
G1 X204.051 Y76.139 E0.19425
G1 X203.517 Y76.139 E0.01679
G1 X207.889 Y80.511 E0.19425
G1 X207.355 Y80.511 E0.01679
G1 X202.983 Y76.139 E0.19425
G1 X202.448 Y76.139 E0.01679
G1 X206.82 Y80.511 E0.19425
G1 X206.286 Y80.511 E0.01679
G1 X201.914 Y76.139 E0.19425
G1 X201.38 Y76.139 E0.01679
G1 X205.751 Y80.511 E0.19425
G1 X205.217 Y80.511 E0.01679
G1 X200.845 Y76.139 E0.19425
G1 X200.311 Y76.139 E0.01679
G1 X204.683 Y80.511 E0.19425
G1 X204.148 Y80.511 E0.01679
G1 X199.776 Y76.139 E0.19425
G1 X199.242 Y76.139 E0.01679
G1 X203.614 Y80.511 E0.19425
G1 X203.08 Y80.511 E0.01679
G1 X198.708 Y76.139 E0.19425
G1 X198.173 Y76.139 E0.01679
G1 X202.545 Y80.511 E0.19425
G1 X202.011 Y80.511 E0.01679
G1 X197.639 Y76.139 E0.19425
G1 X197.105 Y76.139 E0.01679
G1 X201.477 Y80.511 E0.19425
G1 X200.942 Y80.511 E0.01679
G1 X196.57 Y76.139 E0.19425
G1 X196.036 Y76.139 E0.01679
G1 X200.408 Y80.511 E0.19425
G1 X199.874 Y80.511 E0.01679
G1 X195.502 Y76.139 E0.19425
G1 X194.967 Y76.139 E0.01679
G1 X199.339 Y80.511 E0.19425
G1 X198.805 Y80.511 E0.01679
G1 X194.433 Y76.139 E0.19425
G1 X193.899 Y76.139 E0.01679
G1 X198.271 Y80.511 E0.19425
G1 X197.736 Y80.511 E0.01679
G1 X193.364 Y76.139 E0.19425
G1 X192.83 Y76.139 E0.01679
G1 X197.202 Y80.511 E0.19425
G1 X196.668 Y80.511 E0.01679
G1 X192.296 Y76.139 E0.19425
G1 X191.761 Y76.139 E0.01679
G1 X196.133 Y80.511 E0.19425
G1 X195.599 Y80.511 E0.01679
G1 X191.227 Y76.139 E0.19425
G1 X190.693 Y76.139 E0.01679
G1 X195.065 Y80.511 E0.19425
G1 X194.53 Y80.511 E0.01679
G1 X190.158 Y76.139 E0.19425
G1 X189.624 Y76.139 E0.01679
G1 X193.996 Y80.511 E0.19425
G1 X193.462 Y80.511 E0.01679
G1 X189.09 Y76.139 E0.19425
G1 X188.555 Y76.139 E0.01679
G1 X192.927 Y80.511 E0.19425
G1 X192.393 Y80.511 E0.01679
G1 X188.021 Y76.139 E0.19425
G1 X187.487 Y76.139 E0.01679
G1 X191.859 Y80.511 E0.19425
G1 X191.324 Y80.511 E0.01679
G1 X186.952 Y76.139 E0.19425
G1 X186.418 Y76.139 E0.01679
G1 X190.79 Y80.511 E0.19425
G1 X190.255 Y80.511 E0.01679
G1 X185.884 Y76.139 E0.19425
G1 X185.349 Y76.139 E0.01679
G1 X189.721 Y80.511 E0.19425
G1 X189.187 Y80.511 E0.01679
G1 X184.815 Y76.139 E0.19425
G1 X184.28 Y76.139 E0.01679
G1 X188.652 Y80.511 E0.19425
G1 X188.118 Y80.511 E0.01679
G1 X183.746 Y76.139 E0.19425
G1 X183.212 Y76.139 E0.01679
G1 X187.584 Y80.511 E0.19425
M73 Q0 S348
G1 X187.049 Y80.511 E0.01679
G1 X182.677 Y76.139 E0.19425
G1 X182.143 Y76.139 E0.01679
G1 X186.515 Y80.511 E0.19425
G1 X185.981 Y80.511 E0.01679
G1 X181.609 Y76.139 E0.19425
G1 X181.074 Y76.139 E0.01679
G1 X185.446 Y80.511 E0.19425
G1 X184.912 Y80.511 E0.01679
G1 X180.54 Y76.139 E0.19425
G1 X180.006 Y76.139 E0.01679
G1 X184.378 Y80.511 E0.19425
G1 X183.843 Y80.511 E0.01679
G1 X179.471 Y76.139 E0.19425
M73 P0 R697
G1 X178.937 Y76.139 E0.01679
G1 X183.309 Y80.511 E0.19425
G1 X182.775 Y80.511 E0.01679
G1 X178.403 Y76.139 E0.19425
G1 X177.868 Y76.139 E0.01679
G1 X182.24 Y80.511 E0.19425
G1 X181.706 Y80.511 E0.01679
G1 X177.334 Y76.139 E0.19425
G1 X176.8 Y76.139 E0.01679
G1 X181.172 Y80.511 E0.19425
G1 X180.637 Y80.511 E0.01679
G1 X176.265 Y76.139 E0.19425
G1 X175.731 Y76.139 E0.01679
G1 X180.103 Y80.511 E0.19425
G1 X179.569 Y80.511 E0.01679
G1 X175.197 Y76.139 E0.19425
G1 X174.662 Y76.139 E0.01679
G1 X179.034 Y80.511 E0.19425
G1 X178.5 Y80.511 E0.01679
G1 X174.128 Y76.139 E0.19425
G1 X173.594 Y76.139 E0.01679
G1 X177.966 Y80.511 E0.19425
G1 X177.431 Y80.511 E0.01679
G1 X173.059 Y76.139 E0.19425
G1 X172.525 Y76.139 E0.01679
G1 X176.897 Y80.511 E0.19425
G1 X176.363 Y80.511 E0.01679
G1 X171.991 Y76.139 E0.19425
G1 X171.456 Y76.139 E0.01679
G1 X175.828 Y80.511 E0.19425
G1 X175.294 Y80.511 E0.01679
G1 X170.922 Y76.139 E0.19425
G1 X170.388 Y76.139 E0.01679
G1 X174.759 Y80.511 E0.19425
G1 X174.225 Y80.511 E0.01679
G1 X169.853 Y76.139 E0.19425
G1 X169.319 Y76.139 E0.01679
G1 X173.691 Y80.511 E0.19425
G1 X173.156 Y80.511 E0.01679
G1 X168.784 Y76.139 E0.19425
G1 X168.25 Y76.139 E0.01679
G1 X172.622 Y80.511 E0.19425
G1 X172.088 Y80.511 E0.01679
G1 X167.716 Y76.139 E0.19425
G1 X167.181 Y76.139 E0.01679
G1 X171.553 Y80.511 E0.19425
G1 X171.019 Y80.511 E0.01679
G1 X166.647 Y76.139 E0.19425
G1 X166.113 Y76.139 E0.01679
G1 X170.485 Y80.511 E0.19425
G1 X169.95 Y80.511 E0.01679
G1 X165.578 Y76.139 E0.19425
G1 X165.044 Y76.139 E0.01679
G1 X169.416 Y80.511 E0.19425
G1 X168.882 Y80.511 E0.01679
G1 X164.51 Y76.139 E0.19425
G1 X163.975 Y76.139 E0.01679
G1 X168.347 Y80.511 E0.19425
G1 X167.813 Y80.511 E0.01679
G1 X163.441 Y76.139 E0.19425
G1 X162.972 Y76.139 E0.01472
G1 X162.813 Y75.511 E0.02037
G1 X161.937 Y74.635 E0.03890
G1 X162.283 Y74.447 E0.01238
G1 X162.865 Y75.029 E0.02586
G1 F8640
G1 X162.283 Y74.447 E-0.19005
G1 X161.937 Y74.635 E-0.09099
G1 X162.813 Y75.511 E-0.28591
G1 X162.972 Y76.139 E-0.14968
G1 X163.16 Y76.139 E-0.04338
G1 E-0.04000 F2100.00000
G1 Z0.800 F10800.000
G1 X162.849 Y73.737
G1 Z0.200
G1 E0.80000 F2100.00000
G1 F1200
G1 X195.396 Y56.061 E0.72252
G1 X195.447 Y56.009 E0.00167
G1 X195.499 Y55.958 E0.00192
G1 X195.447 Y55.906 E0.00192
G1 X195.396 Y55.855 E0.00167
G1 X158.217 Y35.663 E0.82534
G1 F8640
G1 X161.11 Y37.233 E-0.76000
G1 E-0.04000 F2100.00000
G1 Z0.800 F10800.000
G1 X157.301 Y36.336
G1 Z0.200
G1 E0.80000 F2100.00000
G1 F1200
G1 X157.1 Y36.134 E0.00896
G1 X156.565 Y36.134 E0.01679
G1 X157.132 Y36.7 E0.02516
G1 X157.132 Y37.235 E0.01679
G1 X156.031 Y36.134 E0.04890
G1 X155.497 Y36.134 E0.01679
G1 X157.132 Y37.769 E0.07264
G1 X157.132 Y38.303 E0.01679
G1 X154.962 Y36.134 E0.09638
G1 X154.428 Y36.134 E0.01679
G1 X157.132 Y38.838 E0.12013
G1 X157.132 Y39.372 E0.01679
G1 X154.03 Y36.27 E0.13782
G1 X154.03 Y36.804 E0.01679
G1 X157.132 Y39.906 E0.13782
G1 X157.132 Y40.441 E0.01679
G1 X154.03 Y37.339 E0.13782
G1 X154.03 Y37.873 E0.01679
G1 X157.132 Y40.975 E0.13782
G1 X157.132 Y41.509 E0.01679
G1 X154.03 Y38.407 E0.13782
G1 X154.03 Y38.942 E0.01679
G1 X157.132 Y42.044 E0.13782
G1 X157.132 Y42.578 E0.01679
G1 X154.03 Y39.476 E0.13782
G1 X154.03 Y40.01 E0.01679
G1 X157.132 Y43.112 E0.13782
G1 X157.132 Y43.647 E0.01679
G1 X154.03 Y40.545 E0.13782
G1 X154.03 Y41.079 E0.01679
G1 X157.132 Y44.181 E0.13782
G1 X157.132 Y44.715 E0.01679
G1 X154.03 Y41.613 E0.13782
G1 X154.03 Y42.148 E0.01679
G1 X157.132 Y45.25 E0.13782
G1 X157.132 Y45.784 E0.01679
G1 X154.03 Y42.682 E0.13782
G1 X154.03 Y43.216 E0.01679
G1 X157.132 Y46.318 E0.13782
G1 X157.132 Y46.853 E0.01679
G1 X154.03 Y43.751 E0.13782
G1 X154.03 Y44.285 E0.01679
G1 X157.132 Y47.387 E0.13782
G1 X157.132 Y47.921 E0.01679
G1 X154.03 Y44.819 E0.13782
