; generated by PrusaSlicer 2.2.0+linux-x64 on 2020-06-09 at 15:39:47 UTC

; 

; external perimeters extrusion width = 0.45mm
; perimeters extrusion width = 0.45mm
; infill extrusion width = 0.45mm
; solid infill extrusion width = 0.45mm
; top infill extrusion width = 0.40mm
; first layer extrusion width = 0.42mm

M73 P0 R621
M73 Q0 S624
M201 X1000 Y1000 Z1000 E5000 ; sets maximum accelerations, mm/sec^2
M203 X200 Y200 Z12 E120 ; sets maximum feedrates, mm/sec
M204 P1250 R1250 T1250 ; sets acceleration (P, T) and retract acceleration (R), mm/sec^2
M205 X8.00 Y8.00 Z0.40 E4.50 ; sets the jerk limits, mm/sec
M205 S0 T0 ; sets the minimum extruding and travel feed rate, mm/sec
M107
M862.3 P "MK3S" ; printer model check
M862.1 P0.4 ; nozzle diameter check
M115 U3.8.1 ; tell printer latest fw version
G90 ; use absolute coordinates
M83 ; extruder relative mode
M104 S240 ; set extruder temp
M140 S85 ; set bed temp
M190 S85 ; wait for bed temp
M109 S240 ; wait for extruder temp
G28 W ; home all without mesh bed level
G80 ; mesh bed leveling
G1 Y-3.0 F1000.0 ; go outside print area
G92 E0.0
G1 X60.0 E9.0 F1000.0 ; intro line
M73 Q0 S624
M73 P0 R621
G1 X100.0 E12.5 F1000.0 ; intro line
G92 E0.0
M221 S95
G21 ; set units to millimeters
G90 ; use absolute coordinates
M83 ; use relative distances for extrusion
M900 K45 ; Filament gcode
;BEFORE_LAYER_CHANGE
G92 E0.0
;0.2


G1 E-1.40000 F2100.00000
G1 Z0.200 F10800.000
;AFTER_LAYER_CHANGE
;0.2
G1 Z0.400
G1 X239.075 Y19.540
G1 Z0.200
G1 E1.40000 F2100.00000
M204 S1000
G1 F1200.000
G1 X239.836 Y20.037 E0.02849
G1 X240.355 Y20.783 E0.02849
G1 X240.556 Y21.669 E0.02849
G1 X240.557 Y78.280 E1.77501
G1 X240.417 Y79.060 E0.02484
G1 X240.027 Y79.754 E0.02496
G1 X239.649 Y80.127 E0.01665
G1 X99.600 Y190.164 E5.58438
G1 X98.935 Y190.512 E0.02355
G1 X98.194 Y190.635 E0.02355
G1 X11.809 Y190.635 E2.70855
G1 X11.265 Y190.569 E0.01716
G1 X10.748 Y190.379 E0.01728
G1 X10.291 Y190.078 E0.01716
G1 X9.915 Y189.680 E0.01716
G1 X9.568 Y189.018 E0.02343
G1 X9.443 Y188.278 E0.02355
G1 X9.443 Y131.739 E1.77274
G1 X9.584 Y130.936 E0.02555
G1 X9.988 Y130.228 E0.02555
G1 X10.351 Y129.873 E0.01593
G1 X150.400 Y19.836 E5.58438
G1 X151.065 Y19.488 E0.02355
G1 X151.806 Y19.365 E0.02355
G1 X238.184 Y19.365 E2.70831
G1 X239.016 Y19.529 E0.02661
G1 F8640.000
G1 X239.836 Y20.037 E-0.22269
G1 X240.355 Y20.783 E-0.20978
G1 X240.556 Y21.669 E-0.20978
G1 X240.556 Y24.648 E-0.68774
G1 E-0.07000 F2100.00000
G1 Z0.400 F10800.000
G1 X232.617 Y71.961
G1 Z0.200
G1 E1.40000 F2100.00000
G1 F1200.000
G1 X196.874 Y52.548 E1.27532
G1 X196.874 Y51.612 E0.02936
G1 X232.617 Y32.200 E1.27532
G1 X232.617 Y71.901 E1.24479
G1 X232.240 Y71.327 F10800.000
G1 F1200.000
G1 X197.251 Y52.324 E1.24841
G1 X197.251 Y51.836 E0.01529
G1 X232.240 Y32.834 E1.24841
G1 X232.240 Y71.267 E1.20504
G1 X232.249 Y71.727 F10800.000
G1 F8640.000
G1 X227.175 Y68.524 E-1.33000
G1 E-0.07000 F2100.00000
G1 Z0.400 F10800.000
G1 X193.880 Y52.380
G1 Z0.200
G1 E1.40000 F2100.00000
G1 F1200.000
G1 X193.880 Y51.781 E0.01878
G1 X194.432 Y52.080 E0.01968
G1 X193.933 Y52.351 E0.01780
G1 F8640.000
G1 X193.880 Y51.781 E-0.13228
G1 X194.432 Y52.080 E-0.14492
G1 X193.933 Y52.351 E-0.13107
G1 E-0.99174 F2100.00000
G1 Z0.400 F10800.000
G1 X195.000 Y71.802
G1 Z0.200
G1 E1.40000 F2100.00000
G1 F1200.000
G1 X162.741 Y71.802 E1.01144
G1 X162.277 Y69.973 E0.05917
G1 X195.000 Y52.201 E1.16756
G1 X227.723 Y69.973 E1.16756
G1 X227.259 Y71.802 E0.05917
G1 X195.060 Y71.802 E1.00956
G1 X195.000 Y71.425 F10800.000
G1 F1200.000
G1 X163.035 Y71.425 E1.00225
M73 Q0 S623
G1 X162.715 Y70.164 E0.04077
G1 X195.000 Y52.630 E1.15195
M73 P0 R620
G1 X227.285 Y70.164 E1.15195
G1 X226.965 Y71.425 E0.04077
G1 X195.060 Y71.425 E1.00037
G1 X195.000 Y71.047 F10800.000
G1 F1200.000
G1 X163.328 Y71.047 E0.99305
G1 X163.152 Y70.356 E0.02238
G1 X195.000 Y53.059 E1.13633
G1 X226.848 Y70.356 E1.13633
G1 X226.672 Y71.047 E0.02238
G1 X195.060 Y71.047 E0.99117
G1 X194.803 Y71.395 F10800.000
G1 F8640.000
G1 X189.300 Y71.047 E-1.33000
G1 E-0.07000 F2100.00000
G1 Z0.400 F10800.000
G1 X196.120 Y52.380
G1 Z0.200
G1 E1.40000 F2100.00000
G1 F1200.000
G1 X195.568 Y52.080 E0.01968
G1 X196.120 Y51.781 E0.01968
G1 X196.120 Y52.320 E0.01690
G1 F8640.000
G1 X195.568 Y52.080 E-0.13884
G1 X196.120 Y51.781 E-0.14492
G1 X196.120 Y52.320 E-0.12447
G1 E-0.99176 F2100.00000
G1 Z0.400 F10800.000
G1 X195.000 Y76.716
G1 Z0.200
G1 E1.40000 F2100.00000
G1 F1200.000
G1 X153.361 Y76.716 E1.30555
G1 X153.361 Y32.174 E1.39660
G1 X156.629 Y32.174 E0.10245
G1 X156.629 Y73.228 E1.28724
G1 X161.977 Y70.324 E0.19082
G1 X162.448 Y72.179 E0.06001
G1 X227.552 Y72.179 E2.04128
G1 X228.023 Y70.324 E0.06001
G1 X233.371 Y73.228 E0.19082
G1 X233.371 Y32.174 E1.28724
G1 X236.639 Y32.174 E0.10245
G1 X236.639 Y76.716 E1.39660
G1 X195.060 Y76.716 E1.30367
G1 X195.000 Y77.093 F10800.000
G1 F1200.000
G1 X152.984 Y77.093 E1.31738
G1 X152.984 Y22.907 E1.69899
G1 X158.276 Y22.907 E0.16592
G1 X158.276 Y23.118 E0.00664
G1 X153.196 Y23.118 E0.15928
G1 X153.196 Y31.797 E0.27210
G1 X157.006 Y31.797 E0.11946
G1 X157.006 Y72.594 E1.27919
G1 X193.503 Y52.773 E1.30222
G1 X193.503 Y51.388 E0.04343
G1 X157.431 Y31.797 E1.28707
G1 X157.874 Y31.797 E0.01391
G1 X195.000 Y51.960 E1.32465
G1 X232.126 Y31.797 E1.32465
G1 X232.569 Y31.797 E0.01391
G1 X196.497 Y51.388 E1.28707
G1 X196.497 Y52.773 E0.04343
G1 X232.994 Y72.594 E1.30222
G1 X232.994 Y31.797 E1.27919
G1 X236.804 Y31.797 E0.11946
G1 X236.804 Y23.118 E0.27210
G1 X231.724 Y23.118 E0.15928
G1 X231.724 Y22.907 E0.00664
G1 X237.016 Y22.907 E0.16592
G1 X237.016 Y77.093 E1.69899
G1 X195.060 Y77.093 E1.31550
G1 F8640.000
G1 X189.300 Y77.093 E-1.33000
G1 E-0.07000 F2100.00000
G1 Z0.400 F10800.000
G1 X157.383 Y71.961
G1 Z0.200
G1 E1.40000 F2100.00000
M73 Q0 S622
G1 F1200.000
G1 X157.383 Y32.200 E1.24667
M73 P0 R619
G1 X193.126 Y51.612 E1.27532
G1 X193.126 Y52.548 E0.02936
G1 X157.436 Y71.932 E1.27343
G1 X157.760 Y71.327 F10800.000
G1 F1200.000
G1 X157.760 Y32.834 E1.20692
G1 X192.749 Y51.836 E1.24841
G1 X192.749 Y52.324 E0.01529
G1 X157.813 Y71.298 E1.24653
G1 X157.366 Y71.394 F10800.000
G1 F8640.000
G1 X157.805 Y65.538 E-1.33000
G1 E-0.07000 F2100.00000
G1 Z0.400 F10800.000
G1 X195.000 Y77.470
G1 Z0.200
G1 E1.40000 F2100.00000
G1 F1200.000
G1 X152.607 Y77.470 E1.32920
G1 X152.607 Y22.530 E1.72263
G1 X158.653 Y22.530 E0.18956
G1 X158.653 Y23.495 E0.03028
G1 X153.573 Y23.495 E0.15928
G1 X153.573 Y31.420 E0.24846
G1 X157.970 Y31.420 E0.13787
G1 X195.000 Y51.531 E1.32123
G1 X232.030 Y31.420 E1.32123
G1 X236.427 Y31.420 E0.13787
G1 X236.427 Y23.495 E0.24846
G1 X231.347 Y23.495 E0.15928
G1 X231.347 Y22.530 E0.03028
G1 X237.393 Y22.530 E0.18956
G1 X237.393 Y77.470 E1.72263
G1 X195.060 Y77.470 E1.32732
G1 X195.000 Y77.848 F10800.000
G1 F1200.000
G1 X152.230 Y77.848 E1.34102
G1 X152.230 Y22.152 E1.74628
G1 X159.030 Y22.152 E0.21321
G1 X159.030 Y23.873 E0.05393
G1 X153.950 Y23.873 E0.15928
G1 X153.950 Y31.042 E0.22481
G1 X158.066 Y31.042 E0.12905
G1 X195.000 Y51.102 E1.31781
G1 X231.934 Y31.042 E1.31781
G1 X236.050 Y31.042 E0.12905
G1 X236.050 Y23.873 E0.22481
G1 X230.970 Y23.873 E0.15928
G1 X230.970 Y22.152 E0.05393
G1 X237.770 Y22.152 E0.21321
G1 X237.770 Y77.848 E1.74628
G1 X195.060 Y77.848 E1.33914
G1 X194.705 Y77.577 F10800.000
G1 F8640.000
G1 X189.300 Y77.848 E-1.33000
G1 E-0.07000 F2100.00000
G1 Z0.400 F10800.000
G1 X166.020 Y76.603
G1 Z0.200
G1 E1.40000 F2100.00000
G1 F1200.000
G1 X160.736 Y71.319 E0.23526
G1 X160.389 Y71.508 E0.01243
G1 X165.315 Y76.433 E0.21932
G1 X164.780 Y76.433 E0.01686
G1 X160.042 Y71.696 E0.21092
G1 X159.695 Y71.885 E0.01243
G1 X164.244 Y76.433 E0.20253
G1 X163.709 Y76.433 E0.01686
G1 X159.348 Y72.073 E0.19414
G1 X159.001 Y72.262 E0.01243
G1 X163.173 Y76.433 E0.18575
G1 X162.638 Y76.433 E0.01686
G1 X158.654 Y72.450 E0.17736
G1 X158.307 Y72.639 E0.01243
G1 X162.102 Y76.433 E0.16897
G1 X161.567 Y76.433 E0.01686
G1 X157.960 Y72.827 E0.16058
G1 X157.613 Y73.016 E0.01243
G1 X161.031 Y76.433 E0.15219
G1 X160.496 Y76.433 E0.01686
G1 X157.266 Y73.204 E0.14379
G1 X156.919 Y73.392 E0.01243
G1 X159.960 Y76.433 E0.13540
G1 X159.425 Y76.433 E0.01686
G1 X153.644 Y70.653 E0.25739
G1 X153.644 Y71.188 E0.01686
G1 X158.889 Y76.433 E0.23355
G1 X158.354 Y76.433 E0.01686
G1 X153.644 Y71.724 E0.20971
G1 X153.644 Y72.259 E0.01686
G1 X157.818 Y76.433 E0.18587
G1 X157.283 Y76.433 E0.01686
G1 X153.644 Y72.795 E0.16202
G1 X153.644 Y73.330 E0.01686
G1 X156.747 Y76.433 E0.13818
G1 X156.212 Y76.433 E0.01686
G1 X153.644 Y73.865 E0.11434
G1 X153.644 Y74.401 E0.01686
G1 X155.677 Y76.433 E0.09050
G1 X155.141 Y76.433 E0.01686
G1 X153.644 Y74.936 E0.06666
G1 X153.644 Y75.472 E0.01686
G1 X154.606 Y76.433 E0.04281
G1 X154.070 Y76.433 E0.01686
G1 X153.474 Y75.838 E0.02653
G1 F8640.000
G1 X154.070 Y76.433 E-0.19455
G1 X154.606 Y76.433 E-0.12364
G1 X153.644 Y75.472 E-0.31400
G1 X153.644 Y74.936 E-0.12364
G1 X155.141 Y76.433 E-0.48886
G1 X155.510 Y76.433 E-0.08530
G1 E-0.07000 F2100.00000
G1 Z0.400 F10800.000
G1 X156.516 Y72.989
G1 Z0.200
G1 E1.40000 F2100.00000
G1 F1200.000
G1 X153.644 Y70.117 E0.12786
G1 X153.644 Y69.582 E0.01686
G1 X156.346 Y72.284 E0.12031
G1 X156.346 Y71.748 E0.01686
G1 X153.644 Y69.046 E0.12031
G1 X153.644 Y68.511 E0.01686
G1 X156.346 Y71.213 E0.12031
G1 X156.346 Y70.677 E0.01686
G1 X153.644 Y67.975 E0.12031
G1 X153.644 Y67.440 E0.01686
G1 X156.346 Y70.142 E0.12031
G1 X156.346 Y69.606 E0.01686
G1 X153.644 Y66.904 E0.12031
G1 X153.644 Y66.369 E0.01686
G1 X156.346 Y69.071 E0.12031
G1 X156.346 Y68.535 E0.01686
G1 X153.644 Y65.833 E0.12031
G1 X153.644 Y65.298 E0.01686
G1 X156.346 Y68.000 E0.12031
G1 X156.346 Y67.464 E0.01686
G1 X153.644 Y64.762 E0.12031
G1 X153.644 Y64.227 E0.01686
G1 X156.346 Y66.929 E0.12031
G1 X156.346 Y66.393 E0.01686
G1 X153.644 Y63.691 E0.12031
G1 X153.644 Y63.156 E0.01686
G1 X156.346 Y65.858 E0.12031
G1 X156.346 Y65.322 E0.01686
G1 X153.644 Y62.620 E0.12031
G1 X153.644 Y62.085 E0.01686
G1 X156.346 Y64.787 E0.12031
G1 X156.346 Y64.252 E0.01686
G1 X153.644 Y61.550 E0.12031
G1 X153.644 Y61.014 E0.01686
G1 X156.346 Y63.716 E0.12031
G1 X156.346 Y63.181 E0.01686
G1 X153.644 Y60.479 E0.12031
G1 X153.644 Y59.943 E0.01686
G1 X156.346 Y62.645 E0.12031
G1 X156.346 Y62.110 E0.01686
G1 X153.644 Y59.408 E0.12031
G1 X153.644 Y58.872 E0.01686
G1 X156.346 Y61.574 E0.12031
G1 X156.346 Y61.039 E0.01686
G1 X153.644 Y58.337 E0.12031
G1 X153.644 Y57.801 E0.01686
G1 X156.346 Y60.503 E0.12031
G1 X156.346 Y59.968 E0.01686
G1 X153.644 Y57.266 E0.12031
G1 X153.644 Y56.730 E0.01686
G1 X156.346 Y59.432 E0.12031
G1 X156.346 Y58.897 E0.01686
G1 X153.644 Y56.195 E0.12031
G1 X153.644 Y55.659 E0.01686
M73 Q0 S621
G1 X156.346 Y58.361 E0.12031
G1 X156.346 Y57.826 E0.01686
G1 X153.644 Y55.124 E0.12031
G1 X153.644 Y54.588 E0.01686
G1 X156.346 Y57.290 E0.12031
G1 X156.346 Y56.755 E0.01686
G1 X153.644 Y54.053 E0.12030
G1 X153.644 Y53.517 E0.01686
G1 X156.346 Y56.219 E0.12030
G1 X156.346 Y55.684 E0.01686
G1 X153.644 Y52.982 E0.12030
G1 X153.644 Y52.446 E0.01686
G1 X156.346 Y55.148 E0.12030
G1 X156.346 Y54.613 E0.01686
G1 X153.644 Y51.911 E0.12030
G1 X153.644 Y51.376 E0.01686
G1 X156.346 Y54.077 E0.12030
G1 X156.346 Y53.542 E0.01686
G1 X153.644 Y50.840 E0.12030
M73 P0 R618
G1 X153.644 Y50.305 E0.01686
G1 X156.346 Y53.007 E0.12031
G1 X156.346 Y52.471 E0.01686
G1 X153.644 Y49.769 E0.12031
G1 X153.644 Y49.234 E0.01686
G1 X156.346 Y51.936 E0.12031
G1 X156.346 Y51.400 E0.01686
G1 X153.644 Y48.698 E0.12031
G1 X153.644 Y48.163 E0.01686
G1 X156.346 Y50.865 E0.12031
G1 X156.346 Y50.329 E0.01686
G1 X153.644 Y47.627 E0.12031
G1 X153.644 Y47.092 E0.01686
G1 X156.346 Y49.794 E0.12031
G1 X156.346 Y49.258 E0.01686
G1 X153.644 Y46.556 E0.12031
G1 X153.644 Y46.021 E0.01686
G1 X156.346 Y48.723 E0.12031
G1 X156.346 Y48.187 E0.01686
G1 X153.644 Y45.485 E0.12031
G1 X153.644 Y44.950 E0.01686
G1 X156.346 Y47.652 E0.12031
G1 X156.346 Y47.116 E0.01686
G1 X153.644 Y44.414 E0.12031
G1 X153.644 Y43.879 E0.01686
G1 X156.346 Y46.581 E0.12031
G1 X156.346 Y46.045 E0.01686
G1 X153.644 Y43.343 E0.12031
G1 X153.644 Y42.808 E0.01686
G1 X156.346 Y45.510 E0.12031
G1 X156.346 Y44.974 E0.01686
G1 X153.644 Y42.272 E0.12031
G1 X153.644 Y41.737 E0.01686
G1 X156.346 Y44.439 E0.12031
G1 X156.346 Y43.903 E0.01686
G1 X153.644 Y41.202 E0.12031
G1 X153.644 Y40.666 E0.01686
G1 X156.346 Y43.368 E0.12031
G1 X156.346 Y42.833 E0.01686
G1 X153.644 Y40.131 E0.12031
G1 X153.644 Y39.595 E0.01686
G1 X156.346 Y42.297 E0.12031
G1 X156.346 Y41.762 E0.01686
G1 X153.644 Y39.060 E0.12031
G1 X153.644 Y38.524 E0.01686
G1 X156.346 Y41.226 E0.12031
G1 X156.346 Y40.691 E0.01686
G1 X153.644 Y37.989 E0.12031
G1 X153.644 Y37.453 E0.01686
G1 X156.346 Y40.155 E0.12031
G1 X156.346 Y39.620 E0.01686
G1 X153.644 Y36.918 E0.12031
G1 X153.644 Y36.382 E0.01686
G1 X156.346 Y39.084 E0.12031
G1 X156.346 Y38.549 E0.01686
G1 X153.644 Y35.847 E0.12031
G1 X153.644 Y35.311 E0.01686
G1 X156.346 Y38.013 E0.12031
G1 X156.346 Y37.478 E0.01686
G1 X153.644 Y34.776 E0.12031
G1 X153.644 Y34.240 E0.01686
G1 X156.346 Y36.942 E0.12031
G1 X156.346 Y36.407 E0.01686
G1 X153.644 Y33.705 E0.12031
G1 X153.644 Y33.169 E0.01686
G1 X156.346 Y35.871 E0.12031
G1 X156.346 Y35.336 E0.01686
G1 X153.644 Y32.634 E0.12031
G1 X153.644 Y32.457 E0.00558
G1 X154.002 Y32.457 E0.01127
G1 X156.346 Y34.800 E0.10436
G1 X156.346 Y34.265 E0.01686
G1 X154.538 Y32.457 E0.08052
G1 X155.073 Y32.457 E0.01686
G1 X156.346 Y33.729 E0.05668
G1 X156.346 Y33.194 E0.01686
G1 X155.609 Y32.457 E0.03284
G1 X156.144 Y32.457 E0.01686
G1 X156.516 Y32.828 E0.01655
G1 F8640.000
G1 X156.144 Y32.457 E-0.12137
G1 X155.609 Y32.457 E-0.12364
G1 X156.346 Y33.194 E-0.24081
G1 X156.346 Y33.729 E-0.12364
G1 X155.073 Y32.457 E-0.41567
G1 X154.538 Y32.457 E-0.12364
G1 X155.093 Y33.011 E-0.18122
G1 E-0.07000 F2100.00000
G1 Z0.400 F10800.000
G1 X157.216 Y31.784
G1 Z0.200
G1 E1.40000 F2100.00000
G1 F1200.000
G1 X157.239 Y31.608 E0.00116
G1 F8640.000
G1 X157.216 Y31.784 E-0.04099
G1 E-1.35901 F2100.00000
G1 Z0.400 F10800.000
G1 X161.652 Y70.629
G1 Z0.200
G1 E1.40000 F2100.00000
G1 F1200.000
G1 X161.800 Y70.777 E0.00659
G1 X161.983 Y71.495 E0.02332
G1 X161.430 Y70.942 E0.02459
G1 X161.083 Y71.131 E0.01243
G1 X166.386 Y76.433 E0.23610
G1 X166.922 Y76.433 E0.01686
G1 X162.950 Y72.462 E0.17685
G1 X163.485 Y72.462 E0.01686
G1 X167.457 Y76.433 E0.17685
G1 X167.992 Y76.433 E0.01686
G1 X164.021 Y72.462 E0.17685
G1 X164.556 Y72.462 E0.01686
G1 X168.528 Y76.433 E0.17685
G1 X169.063 Y76.433 E0.01686
G1 X165.091 Y72.462 E0.17685
G1 X165.627 Y72.462 E0.01686
G1 X169.599 Y76.433 E0.17685
G1 X170.134 Y76.433 E0.01686
G1 X166.162 Y72.462 E0.17685
G1 X166.698 Y72.462 E0.01686
G1 X170.670 Y76.433 E0.17685
G1 X171.205 Y76.433 E0.01686
G1 X167.233 Y72.462 E0.17685
G1 X167.769 Y72.462 E0.01686
G1 X171.741 Y76.433 E0.17685
G1 X172.276 Y76.433 E0.01686
G1 X168.304 Y72.462 E0.17685
G1 X168.840 Y72.462 E0.01686
G1 X172.812 Y76.433 E0.17685
G1 X173.347 Y76.433 E0.01686
G1 X169.375 Y72.462 E0.17685
G1 X169.911 Y72.462 E0.01686
G1 X173.883 Y76.433 E0.17685
G1 X174.418 Y76.433 E0.01686
G1 X170.446 Y72.462 E0.17685
G1 X170.982 Y72.462 E0.01686
G1 X174.954 Y76.433 E0.17685
G1 X175.489 Y76.433 E0.01686
G1 X171.517 Y72.462 E0.17685
G1 X172.053 Y72.462 E0.01686
G1 X176.025 Y76.433 E0.17685
G1 X176.560 Y76.433 E0.01686
G1 X172.588 Y72.462 E0.17685
G1 X173.124 Y72.462 E0.01686
G1 X177.096 Y76.433 E0.17685
G1 X177.631 Y76.433 E0.01686
G1 X173.659 Y72.462 E0.17685
G1 X174.195 Y72.462 E0.01686
G1 X178.166 Y76.433 E0.17685
G1 X178.702 Y76.433 E0.01686
G1 X174.730 Y72.462 E0.17685
G1 X175.265 Y72.462 E0.01686
G1 X179.237 Y76.433 E0.17685
G1 X179.773 Y76.433 E0.01686
G1 X175.801 Y72.462 E0.17685
G1 X176.336 Y72.462 E0.01686
G1 X180.308 Y76.433 E0.17685
G1 X180.844 Y76.433 E0.01686
G1 X176.872 Y72.462 E0.17685
G1 X177.407 Y72.462 E0.01686
G1 X181.379 Y76.433 E0.17685
G1 X181.915 Y76.433 E0.01686
G1 X177.943 Y72.462 E0.17685
G1 X178.478 Y72.462 E0.01686
G1 X182.450 Y76.433 E0.17685
G1 X182.986 Y76.433 E0.01686
G1 X179.014 Y72.462 E0.17685
G1 X179.549 Y72.462 E0.01686
G1 X183.521 Y76.433 E0.17685
G1 X184.057 Y76.433 E0.01686
