; generated by Slic3r Prusa Edition 1.41.2+linux64 on 2019-04-07 at 15:23:59

; 

; external perimeters extrusion width = 0.45mm
; perimeters extrusion width = 0.45mm
; infill extrusion width = 0.45mm
; solid infill extrusion width = 0.45mm
; top infill extrusion width = 0.40mm
; first layer extrusion width = 0.42mm

M73 P0 R350
M73 Q0 S351
M201 X1000 Y1000 Z1000 E5000 ; sets maximum accelerations, mm/sec^2
M203 X200 Y200 Z12 E120 ; sets maximum feedrates, mm/sec
M204 P1250 R1250 T1250 ; sets acceleration (P, T) and retract acceleration (R), mm/sec^2
M205 X8.00 Y8.00 Z0.40 E1.50 ; sets the jerk limits, mm/sec
M205 S0 T0 ; sets the minimum extruding and travel feed rate, mm/sec
M107
M115 U3.6.0 ; tell printer latest fw version
M83  ; extruder relative mode
M104 S240 ; set extruder temp
M140 S85 ; set bed temp
M190 S85 ; wait for bed temp
M109 S240 ; wait for extruder temp
G28 W ; home all without mesh bed level
G80 ; mesh bed leveling
G1 Y-3.0 F1000.0 ; go outside print area
G92 E0.0
G1 X60.0 E9.0  F1000.0 ; intro line
M73 Q0 S351
M73 P0 R350
G1 X100.0 E12.5  F1000.0 ; intro line
G92 E0.0
M221 S95
M900 K45; Filament gcode
G21 ; set units to millimeters
G90 ; use absolute coordinates
M83 ; use relative distances for extrusion
;BEFORE_LAYER_CHANGE
G92 E0.0
;0.2


G1 E-0.80000 F2100.00000
G1 Z0.600 F10800.000
;AFTER_LAYER_CHANGE
;0.2
G1 X126.756 Y113.530
G1 Z0.200
G1 E0.80000 F2100.00000
M204 S1000
G1 F1200
G1 X127.396 Y113.431 E0.02032
G1 X213.769 Y113.431 E2.70817
G1 X214.593 Y113.594 E0.02631
G1 X215.297 Y114.056 E0.02642
G1 X215.774 Y114.751 E0.02642
G1 X215.954 Y115.574 E0.02642
G1 X215.954 Y172.171 E1.77458
G1 X215.883 Y172.688 E0.01635
G1 X215.692 Y173.173 E0.01635
G1 X215.390 Y173.602 E0.01646
G1 X214.996 Y173.945 E0.01635
G1 X214.416 Y174.225 E0.02021
G1 X213.775 Y174.323 E0.02032
G1 X127.391 Y174.323 E2.70851
G1 X126.867 Y174.256 E0.01658
G1 X126.374 Y174.065 E0.01658
G1 X125.944 Y173.764 E0.01646
G1 X125.596 Y173.366 E0.01658
G1 X125.316 Y172.785 E0.02021
G1 X125.217 Y172.148 E0.02021
G1 X125.217 Y115.598 E1.77309
G1 X125.285 Y115.077 E0.01646
G1 X125.476 Y114.588 E0.01646
G1 X125.777 Y114.158 E0.01646
G1 X126.175 Y113.810 E0.01658
G1 X126.702 Y113.556 E0.01833
; PURGING FINISHED
G1 F8640
G1 X127.396 Y113.431 E-0.16296
G1 X129.982 Y113.431 E-0.59704
G1 E-0.04000 F2100.00000
G1 Z0.800 F10800.000
G1 X132.792 Y166.136
G1 Z0.200
G1 E0.80000 F2100.00000
G1 F1200
G1 X132.792 Y125.779 E1.26534
G1 X169.945 Y145.958 E1.32563
G1 X132.844 Y166.107 E1.32375
G1 X133.169 Y165.502 F10800.000
G1 F1200
G1 X133.169 Y126.413 E1.22559
G1 X169.155 Y145.958 E1.28399
G1 X133.221 Y165.473 E1.28211
G1 X133.546 Y164.868 F10800.000
G1 F1200
G1 X133.546 Y127.047 E1.18584
G1 X168.365 Y145.958 E1.24234
G1 X133.598 Y164.839 E1.24046
G1 X133.199 Y165.068 F10800.000
G1 F8640
G1 X133.594 Y161.548 E-0.76000
G1 E-0.04000 F2100.00000
G1 Z0.800 F10800.000
G1 X170.586 Y170.794
G1 Z0.200
G1 E0.80000 F2100.00000
G1 F1200
G1 X128.747 Y170.794 E1.31182
G1 X128.747 Y125.851 E1.40914
G1 X132.414 Y125.851 E0.11499
G1 X132.414 Y166.770 E1.28297
G1 X137.696 Y163.901 E0.18843
G1 X138.192 Y165.856 E0.06324
G1 X202.979 Y165.856 E2.03135
G1 X203.476 Y163.901 E0.06324
G1 X208.757 Y166.770 E0.18843
G1 X208.757 Y125.851 E1.28297
G1 X212.424 Y125.851 E0.11499
G1 X212.424 Y170.794 E1.40914
G1 X170.646 Y170.794 E1.30994
G1 F8640
G1 X167.354 Y170.794 E-0.76000
G1 E-0.04000 F2100.00000
G1 Z0.800 F10800.000
G1 X170.586 Y165.479
G1 Z0.200
G1 E0.80000 F2100.00000
G1 F1200
G1 X138.486 Y165.479 E1.00648
G1 X138.097 Y163.950 E0.04946
G1 X170.586 Y146.306 E1.15919
M73 Q0 S350
G1 X203.074 Y163.950 E1.15919
M73 P0 R349
G1 X202.686 Y165.479 E0.04946
G1 X170.646 Y165.479 E1.00460
G1 X170.586 Y165.102 F10800.000
G1 F1200
G1 X138.779 Y165.102 E0.99728
G1 X138.535 Y164.142 E0.03107
G1 X170.586 Y146.735 E1.14358
G1 X202.637 Y164.142 E1.14358
G1 X202.393 Y165.102 E0.03107
G1 X170.646 Y165.102 E0.99540
G1 X170.586 Y164.725 F10800.000
G1 F1200
G1 X139.072 Y164.725 E0.98809
G1 X138.973 Y164.333 E0.01268
G1 X170.586 Y147.164 E1.12796
G1 X202.199 Y164.333 E1.12796
G1 X202.099 Y164.725 E0.01268
G1 X170.646 Y164.725 E0.98621
G1 X170.387 Y165.072 F10800.000
G1 F8640
G1 X167.354 Y164.725 E-0.76000
G1 E-0.04000 F2100.00000
G1 Z0.800 F10800.000
G1 X208.380 Y166.136
G1 Z0.200
G1 E0.80000 F2100.00000
G1 F1200
G1 X171.227 Y145.958 E1.32563
G1 X208.380 Y125.779 E1.32563
G1 X208.380 Y166.076 E1.26346
G1 X208.003 Y165.502 F10800.000
G1 F1200
G1 X172.017 Y145.958 E1.28399
G1 X208.003 Y126.413 E1.28399
G1 X208.003 Y165.442 E1.22371
G1 X207.626 Y164.868 F10800.000
G1 F1200
G1 X172.807 Y145.958 E1.24234
G1 X207.626 Y127.047 E1.24234
G1 X207.626 Y164.808 E1.18396
G1 X207.636 Y165.268 F10800.000
G1 F8640
G1 X204.731 Y163.241 E-0.76000
G1 E-0.04000 F2100.00000
G1 Z0.800 F10800.000
G1 X170.586 Y171.171
G1 Z0.200
G1 E0.80000 F2100.00000
G1 F1200
G1 X128.370 Y171.171 E1.32365
G1 X128.370 Y116.584 E1.71153
G1 X134.062 Y116.584 E0.17846
G1 X134.062 Y117.196 E0.01918
G1 X128.982 Y117.196 E0.15928
G1 X128.982 Y125.474 E0.25956
G1 X133.511 Y125.474 E0.14201
G1 X170.586 Y145.610 E1.32284
G1 X207.661 Y125.474 E1.32284
G1 X212.190 Y125.474 E0.14201
G1 X212.190 Y117.196 E0.25956
G1 X207.110 Y117.196 E0.15928
G1 X207.110 Y116.584 E0.01918
G1 X212.802 Y116.584 E0.17846
G1 X212.802 Y171.171 E1.71153
G1 X170.646 Y171.171 E1.32177
G1 X170.586 Y171.548 F10800.000
G1 F1200
G1 X127.993 Y171.548 E1.33547
G1 X127.993 Y116.207 E1.73517
G1 X134.439 Y116.207 E0.20210
G1 X134.439 Y117.573 E0.04282
G1 X129.359 Y117.573 E0.15928
G1 X129.359 Y125.097 E0.23591
G1 X133.607 Y125.097 E0.13319
G1 X170.586 Y145.180 E1.31942
M73 Q0 S349
G1 X207.565 Y125.097 E1.31942
M73 P0 R348
G1 X211.813 Y125.097 E0.13319
G1 X211.813 Y117.573 E0.23591
G1 X206.733 Y117.573 E0.15928
G1 X206.733 Y116.207 E0.04282
G1 X213.179 Y116.207 E0.20210
G1 X213.179 Y171.548 E1.73517
G1 X170.646 Y171.548 E1.33359
G1 X170.586 Y171.925 F10800.000
G1 F1200
G1 X127.616 Y171.925 E1.34729
G1 X127.616 Y115.830 E1.75882
G1 X134.816 Y115.830 E0.22575
G1 X134.816 Y117.950 E0.06647
G1 X129.736 Y117.950 E0.15928
G1 X129.736 Y124.720 E0.21227
G1 X133.702 Y124.720 E0.12437
G1 X170.586 Y144.751 E1.31600
G1 X207.469 Y124.720 E1.31600
G1 X211.436 Y124.720 E0.12437
G1 X211.436 Y117.950 E0.21227
G1 X206.356 Y117.950 E0.15928
G1 X206.356 Y115.830 E0.06647
G1 X213.556 Y115.830 E0.22575
G1 X213.556 Y171.925 E1.75882
G1 X170.646 Y171.925 E1.34541
G1 X170.291 Y171.655 F10800.000
G1 F8640
G1 X167.354 Y171.925 E-0.76000
G1 E-0.04000 F2100.00000
G1 Z0.800 F10800.000
G1 X170.776 Y146.061
G1 Z0.200
G1 E0.80000 F2100.00000
G1 F1200
G1 X203.323 Y163.737 E0.72252
G1 F8640
G1 X200.430 Y162.166 E-0.76000
G1 E-0.04000 F2100.00000
G1 Z0.800 F10800.000
G1 X205.048 Y164.884
G1 Z0.200
G1 E0.80000 F2100.00000
G1 F1200
G1 X210.844 Y170.681 E0.25755
G1 X210.310 Y170.681 F10800.000
G1 F1200
G1 X204.301 Y164.671 E0.26700
G1 X203.660 Y164.323 E0.02290
G1 X203.611 Y164.516 E0.00625
G1 X209.606 Y170.511 E0.26635
G1 X209.072 Y170.511 E0.01679
G1 X203.503 Y164.942 E0.24742
G1 X203.395 Y165.368 E0.01381
G1 X208.537 Y170.511 E0.22849
G1 X208.003 Y170.511 E0.01679
G1 X203.287 Y165.794 E0.20956
G1 X203.199 Y166.139 E0.01117
G1 X203.097 Y166.139 E0.00321
G1 X207.469 Y170.511 E0.19425
G1 X206.934 Y170.511 E0.01679
G1 X202.562 Y166.139 E0.19425
G1 X202.028 Y166.139 E0.01679
G1 X206.400 Y170.511 E0.19425
G1 X205.866 Y170.511 E0.01679
G1 X201.494 Y166.139 E0.19425
G1 X200.959 Y166.139 E0.01679
G1 X205.331 Y170.511 E0.19425
G1 X204.797 Y170.511 E0.01679
G1 X200.425 Y166.139 E0.19425
G1 X199.891 Y166.139 E0.01679
G1 X204.263 Y170.511 E0.19425
G1 X203.728 Y170.511 E0.01679
G1 X199.356 Y166.139 E0.19425
G1 X198.822 Y166.139 E0.01679
G1 X203.194 Y170.511 E0.19425
G1 X202.660 Y170.511 E0.01679
G1 X198.288 Y166.139 E0.19425
G1 X197.753 Y166.139 E0.01679
G1 X202.125 Y170.511 E0.19425
G1 X201.591 Y170.511 E0.01679
G1 X197.219 Y166.139 E0.19425
G1 X196.685 Y166.139 E0.01679
G1 X201.057 Y170.511 E0.19425
G1 X200.522 Y170.511 E0.01679
G1 X196.150 Y166.139 E0.19425
G1 X195.616 Y166.139 E0.01679
G1 X199.988 Y170.511 E0.19425
G1 X199.454 Y170.511 E0.01679
G1 X195.082 Y166.139 E0.19425
G1 X194.547 Y166.139 E0.01679
G1 X198.919 Y170.511 E0.19425
G1 X198.385 Y170.511 E0.01679
G1 X194.013 Y166.139 E0.19425
G1 X193.479 Y166.139 E0.01679
G1 X197.851 Y170.511 E0.19425
G1 X197.316 Y170.511 E0.01679
G1 X192.944 Y166.139 E0.19425
G1 X192.410 Y166.139 E0.01679
G1 X196.782 Y170.511 E0.19425
G1 X196.247 Y170.511 E0.01679
G1 X191.876 Y166.139 E0.19425
G1 X191.341 Y166.139 E0.01679
G1 X195.713 Y170.511 E0.19425
G1 X195.179 Y170.511 E0.01679
G1 X190.807 Y166.139 E0.19425
G1 X190.273 Y166.139 E0.01679
G1 X194.644 Y170.511 E0.19425
G1 X194.110 Y170.511 E0.01679
G1 X189.738 Y166.139 E0.19425
G1 X189.204 Y166.139 E0.01679
G1 X193.576 Y170.511 E0.19425
G1 X193.041 Y170.511 E0.01679
G1 X188.669 Y166.139 E0.19425
G1 X188.135 Y166.139 E0.01679
G1 X192.507 Y170.511 E0.19425
G1 X191.973 Y170.511 E0.01679
G1 X187.601 Y166.139 E0.19425
G1 X187.066 Y166.139 E0.01679
G1 X191.438 Y170.511 E0.19425
G1 X190.904 Y170.511 E0.01679
G1 X186.532 Y166.139 E0.19425
G1 X185.998 Y166.139 E0.01679
G1 X190.370 Y170.511 E0.19425
G1 X189.835 Y170.511 E0.01679
G1 X185.463 Y166.139 E0.19425
G1 X184.929 Y166.139 E0.01679
G1 X189.301 Y170.511 E0.19425
G1 X188.767 Y170.511 E0.01679
G1 X184.395 Y166.139 E0.19425
G1 X183.860 Y166.139 E0.01679
G1 X188.232 Y170.511 E0.19425
G1 X187.698 Y170.511 E0.01679
G1 X183.326 Y166.139 E0.19425
G1 X182.792 Y166.139 E0.01679
G1 X187.164 Y170.511 E0.19425
G1 X186.629 Y170.511 E0.01679
G1 X182.257 Y166.139 E0.19425
G1 X181.723 Y166.139 E0.01679
G1 X186.095 Y170.511 E0.19425
G1 X185.561 Y170.511 E0.01679
G1 X181.189 Y166.139 E0.19425
G1 X180.654 Y166.139 E0.01679
G1 X185.026 Y170.511 E0.19425
G1 X184.492 Y170.511 E0.01679
G1 X180.120 Y166.139 E0.19425
G1 X179.586 Y166.139 E0.01679
G1 X183.958 Y170.511 E0.19425
G1 X183.423 Y170.511 E0.01679
G1 X179.051 Y166.139 E0.19425
G1 X178.517 Y166.139 E0.01679
G1 X182.889 Y170.511 E0.19425
G1 X182.355 Y170.511 E0.01679
G1 X177.983 Y166.139 E0.19425
G1 X177.448 Y166.139 E0.01679
G1 X181.820 Y170.511 E0.19425
G1 X181.286 Y170.511 E0.01679
G1 X176.914 Y166.139 E0.19425
G1 X176.380 Y166.139 E0.01679
G1 X180.751 Y170.511 E0.19425
G1 X180.217 Y170.511 E0.01679
G1 X175.845 Y166.139 E0.19425
G1 X175.311 Y166.139 E0.01679
G1 X179.683 Y170.511 E0.19425
G1 X179.148 Y170.511 E0.01679
G1 X174.776 Y166.139 E0.19425
G1 X174.242 Y166.139 E0.01679
G1 X178.614 Y170.511 E0.19425
G1 X178.080 Y170.511 E0.01679
G1 X173.708 Y166.139 E0.19425
G1 X173.173 Y166.139 E0.01679
G1 X177.545 Y170.511 E0.19425
G1 X177.011 Y170.511 E0.01679
G1 X172.639 Y166.139 E0.19425
G1 X172.105 Y166.139 E0.01679
G1 X176.477 Y170.511 E0.19425
G1 X175.942 Y170.511 E0.01679
G1 X171.570 Y166.139 E0.19425
G1 X171.036 Y166.139 E0.01679
G1 X175.408 Y170.511 E0.19425
G1 X174.874 Y170.511 E0.01679
G1 X170.502 Y166.139 E0.19425
G1 X169.967 Y166.139 E0.01679
G1 X174.339 Y170.511 E0.19425
G1 X173.805 Y170.511 E0.01679
G1 X169.433 Y166.139 E0.19425
G1 X168.899 Y166.139 E0.01679
G1 X173.271 Y170.511 E0.19425
G1 X172.736 Y170.511 E0.01679
G1 X168.364 Y166.139 E0.19425
G1 X167.830 Y166.139 E0.01679
G1 X172.202 Y170.511 E0.19425
G1 X171.668 Y170.511 E0.01679
G1 X167.296 Y166.139 E0.19425
G1 X166.761 Y166.139 E0.01679
G1 X171.133 Y170.511 E0.19425
G1 X170.599 Y170.511 E0.01679
G1 X166.227 Y166.139 E0.19425
G1 X165.693 Y166.139 E0.01679
G1 X170.065 Y170.511 E0.19425
G1 X169.530 Y170.511 E0.01679
G1 X165.158 Y166.139 E0.19425
G1 X164.624 Y166.139 E0.01679
G1 X168.996 Y170.511 E0.19425
G1 X168.462 Y170.511 E0.01679
G1 X164.090 Y166.139 E0.19425
G1 X163.555 Y166.139 E0.01679
G1 X167.927 Y170.511 E0.19425
G1 X167.393 Y170.511 E0.01679
G1 X163.021 Y166.139 E0.19425
G1 X162.487 Y166.139 E0.01679
G1 X166.859 Y170.511 E0.19425
G1 X166.324 Y170.511 E0.01679
G1 X161.952 Y166.139 E0.19425
G1 X161.418 Y166.139 E0.01679
G1 X165.790 Y170.511 E0.19425
G1 X165.255 Y170.511 E0.01679
G1 X160.884 Y166.139 E0.19425
G1 X160.349 Y166.139 E0.01679
G1 X164.721 Y170.511 E0.19425
G1 X164.187 Y170.511 E0.01679
G1 X159.815 Y166.139 E0.19425
G1 X159.280 Y166.139 E0.01679
G1 X163.652 Y170.511 E0.19425
G1 X163.118 Y170.511 E0.01679
G1 X158.746 Y166.139 E0.19425
G1 X158.212 Y166.139 E0.01679
G1 X162.584 Y170.511 E0.19425
M73 Q0 S348
G1 X162.049 Y170.511 E0.01679
G1 X157.677 Y166.139 E0.19425
G1 X157.143 Y166.139 E0.01679
G1 X161.515 Y170.511 E0.19425
G1 X160.981 Y170.511 E0.01679
G1 X156.609 Y166.139 E0.19425
G1 X156.074 Y166.139 E0.01679
G1 X160.446 Y170.511 E0.19425
G1 X159.912 Y170.511 E0.01679
G1 X155.540 Y166.139 E0.19425
G1 X155.006 Y166.139 E0.01679
G1 X159.378 Y170.511 E0.19425
G1 X158.843 Y170.511 E0.01679
G1 X154.471 Y166.139 E0.19425
M73 P0 R347
G1 X153.937 Y166.139 E0.01679
G1 X158.309 Y170.511 E0.19425
G1 X157.775 Y170.511 E0.01679
G1 X153.403 Y166.139 E0.19425
G1 X152.868 Y166.139 E0.01679
G1 X157.240 Y170.511 E0.19425
G1 X156.706 Y170.511 E0.01679
G1 X152.334 Y166.139 E0.19425
G1 X151.800 Y166.139 E0.01679
G1 X156.172 Y170.511 E0.19425
G1 X155.637 Y170.511 E0.01679
G1 X151.265 Y166.139 E0.19425
G1 X150.731 Y166.139 E0.01679
G1 X155.103 Y170.511 E0.19425
G1 X154.569 Y170.511 E0.01679
G1 X150.197 Y166.139 E0.19425
G1 X149.662 Y166.139 E0.01679
G1 X154.034 Y170.511 E0.19425
G1 X153.500 Y170.511 E0.01679
G1 X149.128 Y166.139 E0.19425
G1 X148.594 Y166.139 E0.01679
G1 X152.966 Y170.511 E0.19425
G1 X152.431 Y170.511 E0.01679
G1 X148.059 Y166.139 E0.19425
G1 X147.525 Y166.139 E0.01679
G1 X151.897 Y170.511 E0.19425
G1 X151.363 Y170.511 E0.01679
G1 X146.991 Y166.139 E0.19425
G1 X146.456 Y166.139 E0.01679
G1 X150.828 Y170.511 E0.19425
G1 X150.294 Y170.511 E0.01679
G1 X145.922 Y166.139 E0.19425
G1 X145.388 Y166.139 E0.01679
G1 X149.759 Y170.511 E0.19425
G1 X149.225 Y170.511 E0.01679
G1 X144.853 Y166.139 E0.19425
G1 X144.319 Y166.139 E0.01679
G1 X148.691 Y170.511 E0.19425
G1 X148.156 Y170.511 E0.01679
G1 X143.784 Y166.139 E0.19425
G1 X143.250 Y166.139 E0.01679
G1 X147.622 Y170.511 E0.19425
G1 X147.088 Y170.511 E0.01679
G1 X142.716 Y166.139 E0.19425
G1 X142.181 Y166.139 E0.01679
G1 X146.553 Y170.511 E0.19425
G1 X146.019 Y170.511 E0.01679
G1 X141.647 Y166.139 E0.19425
G1 X141.113 Y166.139 E0.01679
G1 X145.485 Y170.511 E0.19425
G1 X144.950 Y170.511 E0.01679
G1 X140.578 Y166.139 E0.19425
G1 X140.044 Y166.139 E0.01679
G1 X144.416 Y170.511 E0.19425
G1 X143.882 Y170.511 E0.01679
G1 X139.510 Y166.139 E0.19425
G1 X138.975 Y166.139 E0.01679
G1 X143.347 Y170.511 E0.19425
G1 X142.813 Y170.511 E0.01679
G1 X138.441 Y166.139 E0.19425
G1 X137.972 Y166.139 E0.01472
G1 X137.813 Y165.511 E0.02037
G1 X136.937 Y164.635 E0.03890
G1 X137.283 Y164.447 E0.01238
G1 X137.865 Y165.029 E0.02586
G1 F8640
G1 X137.283 Y164.447 E-0.19005
G1 X136.937 Y164.635 E-0.09099
G1 X137.813 Y165.511 E-0.28591
G1 X137.972 Y166.139 E-0.14968
G1 X138.160 Y166.139 E-0.04338
G1 E-0.04000 F2100.00000
G1 Z0.800 F10800.000
G1 X137.849 Y163.737
G1 Z0.200
G1 E0.80000 F2100.00000
G1 F1200
G1 X170.396 Y146.061 E0.72252
G1 X170.447 Y146.009 E0.00167
G1 X170.499 Y145.958 E0.00192
G1 X170.447 Y145.906 E0.00192
G1 X170.396 Y145.855 E0.00167
G1 X133.217 Y125.663 E0.82534
G1 F8640
G1 X136.110 Y127.233 E-0.76000
G1 E-0.04000 F2100.00000
G1 Z0.800 F10800.000
G1 X132.301 Y126.336
G1 Z0.200
G1 E0.80000 F2100.00000
G1 F1200
G1 X132.100 Y126.134 E0.00896
G1 X131.565 Y126.134 E0.01679
G1 X132.132 Y126.700 E0.02516
G1 X132.132 Y127.235 E0.01679
G1 X131.031 Y126.134 E0.04890
G1 X130.497 Y126.134 E0.01679
G1 X132.132 Y127.769 E0.07264
G1 X132.132 Y128.303 E0.01679
G1 X129.962 Y126.134 E0.09638
G1 X129.428 Y126.134 E0.01679
G1 X132.132 Y128.838 E0.12013
G1 X132.132 Y129.372 E0.01679
G1 X129.030 Y126.270 E0.13782
G1 X129.030 Y126.804 E0.01679
G1 X132.132 Y129.906 E0.13782
G1 X132.132 Y130.441 E0.01679
G1 X129.030 Y127.339 E0.13782
G1 X129.030 Y127.873 E0.01679
G1 X132.132 Y130.975 E0.13782
G1 X132.132 Y131.509 E0.01679
G1 X129.030 Y128.407 E0.13782
G1 X129.030 Y128.942 E0.01679
G1 X132.132 Y132.044 E0.13782
G1 X132.132 Y132.578 E0.01679
G1 X129.030 Y129.476 E0.13782
