; generated by PrusaSlicer 2.1.0+linux64 on 2019-10-24 at 00:43:43 UTC

; 

; external perimeters extrusion width = 0.45mm
; perimeters extrusion width = 0.45mm
; infill extrusion width = 0.45mm
; solid infill extrusion width = 0.45mm
; top infill extrusion width = 0.40mm
; first layer extrusion width = 0.42mm

M73 P0 R86
M73 Q0 S89
M201 X1000 Y1000 Z1000 E5000 ; sets maximum accelerations, mm/sec^2
M203 X200 Y200 Z12 E120 ; sets maximum feedrates, mm/sec
M204 P1250 R1250 T1250 ; sets acceleration (P, T) and retract acceleration (R), mm/sec^2
M205 X8.00 Y8.00 Z0.40 E1.50 ; sets the jerk limits, mm/sec
M205 S0 T0 ; sets the minimum extruding and travel feed rate, mm/sec
M107
M862.3 P "MK3S" ; printer model check
M862.1 P0.4 ; nozzle diameter check
M115 U3.8.0 ; tell printer latest fw version
G90 ; use absolute coordinates
M83 ; extruder relative mode
M104 S215 ; set extruder temp
M140 S60 ; set bed temp
M190 S60 ; wait for bed temp
M109 S215 ; wait for extruder temp
G28 W ; home all without mesh bed level
G80 ; mesh bed leveling
G1 Y-3.0 F1000.0 ; go outside print area
G92 E0.0
G1 X60.0 E9.0 F1000.0 ; intro line
M73 Q0 S89
M73 P0 R86
G1 X100.0 E12.5 F1000.0 ; intro line
G92 E0.0
M221 S95
G21 ; set units to millimeters
G90 ; use absolute coordinates
M83 ; use relative distances for extrusion
M900 K30 ; Filament gcode
;BEFORE_LAYER_CHANGE
G92 E0.0
;0.2


G1 E-0.80000 F2100.00000
G1 Z0.600 F10800.000
;AFTER_LAYER_CHANGE
;0.2
G1 X69.840 Y87.378
G1 Z0.200
G1 E0.80000 F2100.00000
M204 S1000
G1 F1200
G1 X70.470 Y87.101 E0.02157
G1 X71.023 Y87.030 E0.01749
G1 X178.979 Y87.030 E3.38488
G1 X179.805 Y87.193 E0.02642
G1 X180.511 Y87.660 E0.02653
G1 X180.986 Y88.356 E0.02642
G1 X181.163 Y89.179 E0.02642
G1 X181.160 Y115.420 E0.82275
G1 X181.014 Y116.088 E0.02146
G1 X180.668 Y116.679 E0.02146
G1 X180.157 Y117.134 E0.02146
G1 X179.530 Y117.409 E0.02146
G1 X178.977 Y117.481 E0.01749
G1 X70.992 Y117.480 E3.38580
G1 X70.297 Y117.356 E0.02213
G1 X69.675 Y117.015 E0.02225
G1 X69.195 Y116.492 E0.02225
G1 X68.908 Y115.847 E0.02213
G1 X68.836 Y115.298 E0.01737
G1 X68.840 Y89.098 E0.82149
G1 X68.985 Y88.425 E0.02157
G1 X69.330 Y87.834 E0.02146
G1 X69.795 Y87.418 E0.01957
G1 F8640
G1 X70.470 Y87.101 E-0.17206
G1 X71.023 Y87.030 E-0.12877
G1 X73.011 Y87.030 E-0.45917
G1 E-0.04000 F2100.00000
G1 Z0.800 F10800.000
G1 X152.595 Y103.223
G1 Z0.200
G1 E0.80000 F2100.00000
G1 F1200
G1 X152.082 Y103.223 E0.01607
G1 X151.975 Y103.489 E0.00902
G1 X151.825 Y103.750 E0.00943
G1 X151.587 Y104.051 E0.01205
G1 X151.361 Y104.254 E0.00951
G1 X151.151 Y104.479 E0.00966
G1 X150.849 Y104.712 E0.01195
G1 X150.523 Y104.888 E0.01160
G1 X150.183 Y105.009 E0.01134
G1 X149.833 Y105.077 E0.01116
G1 X149.462 Y105.093 E0.01165
G1 X148.810 Y104.983 E0.02072
G1 X148.299 Y104.759 E0.01752
G1 X147.981 Y104.544 E0.01202
G1 X147.708 Y104.294 E0.01161
G1 X147.473 Y104.011 E0.01153
G1 X147.296 Y103.725 E0.01056
G1 X147.127 Y103.353 E0.01279
G1 X147.035 Y102.967 E0.01244
G1 X147.021 Y102.536 E0.01354
G1 X147.049 Y102.244 E0.00920
G1 X147.157 Y101.775 E0.01509
G1 X147.372 Y101.303 E0.01625
G1 X147.584 Y100.972 E0.01232
G1 X147.954 Y100.566 E0.01723
G1 X148.401 Y100.254 E0.01708
G1 X148.568 Y100.160 E0.00600
G1 X149.097 Y99.969 E0.01764
G1 X149.362 Y99.923 E0.00845
G1 X149.932 Y99.888 E0.01789
G1 X150.542 Y99.995 E0.01941
G1 X151.189 Y100.281 E0.02219
G1 X151.660 Y100.654 E0.01886
G1 X151.816 Y100.812 E0.00695
G1 X152.199 Y101.367 E0.02113
G1 X152.429 Y101.962 E0.02001
G1 X152.587 Y103.163 E0.03798
G1 X152.165 Y102.845 F10800.000
G1 F1200
G1 X151.795 Y102.845 E0.01161
G1 X151.760 Y103.014 E0.00541
G1 X151.635 Y103.324 E0.01047
G1 X151.512 Y103.538 E0.00773
G1 X151.311 Y103.792 E0.01017
G1 X151.096 Y103.984 E0.00903
G1 X150.896 Y104.200 E0.00922
G1 X150.643 Y104.394 E0.01002
G1 X150.370 Y104.542 E0.00974
G1 X150.083 Y104.644 E0.00954
G1 X149.788 Y104.701 E0.00941
G1 X149.485 Y104.715 E0.00953
G1 X148.919 Y104.619 E0.01800
G1 X148.482 Y104.428 E0.01497
G1 X148.215 Y104.247 E0.01009
G1 X147.981 Y104.034 E0.00992
G1 X147.780 Y103.790 E0.00990
G1 X147.629 Y103.547 E0.00900
G1 X147.485 Y103.230 E0.01089
G1 X147.410 Y102.917 E0.01011
G1 X147.398 Y102.548 E0.01158
G1 X147.422 Y102.305 E0.00766
G1 X147.516 Y101.896 E0.01313
G1 X147.704 Y101.484 E0.01421
G1 X147.884 Y101.203 E0.01048
G1 X148.205 Y100.851 E0.01492
G1 X148.726 Y100.504 E0.01962
G1 X149.194 Y100.335 E0.01561
G1 X149.406 Y100.298 E0.00676
G1 X149.911 Y100.267 E0.01585
G1 X150.431 Y100.358 E0.01657
G1 X150.993 Y100.606 E0.01924
G1 X151.408 Y100.935 E0.01662
G1 X151.524 Y101.054 E0.00519
G1 X151.863 Y101.545 E0.01871
G1 X152.061 Y102.056 E0.01720
G1 X152.157 Y102.786 E0.02308
G1 X152.193 Y103.215 F10800.000
G1 F8640
G1 X151.795 Y102.845 E-0.08481
G1 X151.760 Y103.014 E-0.03984
G1 X151.635 Y103.324 E-0.07708
G1 X151.512 Y103.538 E-0.05695
G1 X151.311 Y103.792 E-0.07488
G1 X151.096 Y103.984 E-0.06649
G1 X150.896 Y104.200 E-0.06786
G1 X150.643 Y104.394 E-0.07380
G1 X150.370 Y104.542 E-0.07170
G1 X150.083 Y104.644 E-0.07024
G1 X149.788 Y104.701 E-0.06929
G1 X149.758 Y104.702 E-0.00705
G1 E-0.04000 F2100.00000
G1 Z0.800 F10800.000
G1 X169.105 Y103.223
G1 Z0.200
G1 E0.80000 F2100.00000
G1 F1200
G1 X168.592 Y103.223 E0.01607
G1 X168.485 Y103.489 E0.00902
G1 X168.335 Y103.750 E0.00943
G1 X168.097 Y104.051 E0.01205
G1 X167.871 Y104.254 E0.00951
G1 X167.661 Y104.479 E0.00966
G1 X167.359 Y104.712 E0.01195
G1 X167.033 Y104.888 E0.01160
G1 X166.693 Y105.009 E0.01134
G1 X166.343 Y105.077 E0.01116
G1 X165.972 Y105.093 E0.01165
G1 X165.320 Y104.983 E0.02072
G1 X164.809 Y104.759 E0.01752
G1 X164.491 Y104.544 E0.01202
G1 X164.218 Y104.294 E0.01160
G1 X163.983 Y104.011 E0.01153
G1 X163.806 Y103.725 E0.01056
G1 X163.637 Y103.353 E0.01279
G1 X163.545 Y102.967 E0.01244
G1 X163.531 Y102.536 E0.01354
G1 X163.559 Y102.244 E0.00920
G1 X163.667 Y101.775 E0.01509
G1 X163.882 Y101.303 E0.01625
G1 X164.094 Y100.972 E0.01232
G1 X164.464 Y100.566 E0.01723
G1 X164.911 Y100.254 E0.01708
G1 X165.078 Y100.160 E0.00600
G1 X165.607 Y99.969 E0.01764
G1 X165.872 Y99.923 E0.00845
G1 X166.442 Y99.888 E0.01789
G1 X167.052 Y99.995 E0.01941
G1 X167.699 Y100.281 E0.02219
G1 X168.170 Y100.654 E0.01886
G1 X168.326 Y100.812 E0.00695
G1 X168.709 Y101.367 E0.02113
G1 X168.939 Y101.962 E0.02001
G1 X169.097 Y103.163 E0.03798
G1 X168.675 Y102.845 F10800.000
G1 F1200
G1 X168.305 Y102.845 E0.01161
G1 X168.270 Y103.014 E0.00541
G1 X168.145 Y103.324 E0.01047
G1 X168.022 Y103.538 E0.00773
G1 X167.821 Y103.792 E0.01017
G1 X167.606 Y103.984 E0.00903
G1 X167.406 Y104.200 E0.00921
G1 X167.153 Y104.394 E0.01002
G1 X166.880 Y104.542 E0.00974
G1 X166.593 Y104.644 E0.00954
G1 X166.298 Y104.701 E0.00941
G1 X165.995 Y104.715 E0.00953
G1 X165.429 Y104.619 E0.01800
G1 X164.992 Y104.428 E0.01497
G1 X164.725 Y104.247 E0.01009
G1 X164.491 Y104.034 E0.00992
G1 X164.290 Y103.790 E0.00990
G1 X164.139 Y103.547 E0.00900
G1 X163.995 Y103.230 E0.01089
G1 X163.920 Y102.917 E0.01011
G1 X163.908 Y102.548 E0.01158
G1 X163.932 Y102.305 E0.00766
G1 X164.026 Y101.896 E0.01313
G1 X164.214 Y101.484 E0.01421
G1 X164.394 Y101.203 E0.01048
G1 X164.715 Y100.851 E0.01492
G1 X165.236 Y100.504 E0.01962
G1 X165.704 Y100.335 E0.01561
G1 X165.916 Y100.298 E0.00676
G1 X166.421 Y100.267 E0.01585
G1 X166.941 Y100.358 E0.01657
G1 X167.503 Y100.606 E0.01924
G1 X167.918 Y100.935 E0.01662
G1 X168.034 Y101.054 E0.00520
G1 X168.373 Y101.545 E0.01871
G1 X168.571 Y102.056 E0.01720
G1 X168.667 Y102.786 E0.02308
G1 X168.703 Y103.215 F10800.000
G1 F8640
G1 X168.305 Y102.845 E-0.08481
G1 X168.270 Y103.014 E-0.03984
G1 X168.145 Y103.324 E-0.07708
G1 X168.022 Y103.538 E-0.05696
G1 X167.821 Y103.792 E-0.07488
G1 X167.606 Y103.984 E-0.06649
G1 X167.406 Y104.200 E-0.06786
G1 X167.153 Y104.394 E-0.07380
G1 X166.880 Y104.542 E-0.07170
G1 X166.593 Y104.644 E-0.07024
G1 X166.298 Y104.701 E-0.06929
G1 X166.268 Y104.702 E-0.00704
G1 E-0.04000 F2100.00000
G1 Z0.800 F10800.000
G1 X136.085 Y103.223
G1 Z0.200
G1 E0.80000 F2100.00000
G1 F1200
G1 X135.572 Y103.223 E0.01607
G1 X135.465 Y103.489 E0.00902
G1 X135.315 Y103.750 E0.00943
G1 X135.077 Y104.051 E0.01205
G1 X134.851 Y104.254 E0.00951
G1 X134.641 Y104.479 E0.00966
G1 X134.339 Y104.712 E0.01195
G1 X134.013 Y104.888 E0.01160
G1 X133.673 Y105.009 E0.01134
G1 X133.323 Y105.077 E0.01116
G1 X132.952 Y105.093 E0.01165
G1 X132.300 Y104.983 E0.02072
G1 X131.789 Y104.759 E0.01752
G1 X131.471 Y104.544 E0.01202
G1 X131.198 Y104.294 E0.01160
G1 X130.963 Y104.011 E0.01153
G1 X130.786 Y103.725 E0.01056
G1 X130.617 Y103.353 E0.01279
G1 X130.525 Y102.967 E0.01244
G1 X130.511 Y102.536 E0.01354
G1 X130.539 Y102.244 E0.00920
G1 X130.647 Y101.775 E0.01509
G1 X130.862 Y101.303 E0.01625
G1 X131.074 Y100.972 E0.01232
G1 X131.444 Y100.566 E0.01723
G1 X131.891 Y100.254 E0.01708
G1 X132.058 Y100.160 E0.00600
G1 X132.587 Y99.969 E0.01764
G1 X132.852 Y99.923 E0.00845
G1 X133.422 Y99.888 E0.01789
G1 X134.032 Y99.995 E0.01941
G1 X134.679 Y100.281 E0.02219
G1 X135.150 Y100.654 E0.01886
G1 X135.306 Y100.812 E0.00695
G1 X135.689 Y101.367 E0.02113
G1 X135.919 Y101.962 E0.02001
G1 X136.077 Y103.163 E0.03798
G1 X135.655 Y102.845 F10800.000
G1 F1200
G1 X135.285 Y102.845 E0.01161
G1 X135.250 Y103.014 E0.00541
G1 X135.125 Y103.324 E0.01047
G1 X135.002 Y103.538 E0.00773
G1 X134.801 Y103.792 E0.01017
G1 X134.586 Y103.984 E0.00903
G1 X134.386 Y104.200 E0.00922
G1 X134.133 Y104.394 E0.01002
G1 X133.860 Y104.542 E0.00974
G1 X133.573 Y104.644 E0.00954
G1 X133.278 Y104.701 E0.00941
G1 X132.975 Y104.715 E0.00953
G1 X132.409 Y104.619 E0.01800
G1 X131.972 Y104.428 E0.01497
G1 X131.705 Y104.247 E0.01009
G1 X131.471 Y104.034 E0.00992
G1 X131.270 Y103.790 E0.00990
G1 X131.119 Y103.547 E0.00900
G1 X130.975 Y103.230 E0.01089
G1 X130.900 Y102.917 E0.01011
G1 X130.888 Y102.548 E0.01158
G1 X130.912 Y102.305 E0.00766
G1 X131.006 Y101.896 E0.01313
G1 X131.194 Y101.484 E0.01421
G1 X131.374 Y101.203 E0.01048
G1 X131.695 Y100.851 E0.01492
G1 X132.216 Y100.504 E0.01962
G1 X132.684 Y100.335 E0.01561
G1 X132.896 Y100.298 E0.00676
G1 X133.401 Y100.267 E0.01585
G1 X133.921 Y100.358 E0.01657
G1 X134.483 Y100.606 E0.01924
G1 X134.898 Y100.935 E0.01662
G1 X135.014 Y101.054 E0.00519
G1 X135.353 Y101.545 E0.01871
G1 X135.551 Y102.056 E0.01720
G1 X135.647 Y102.786 E0.02308
G1 X135.683 Y103.215 F10800.000
G1 F8640
G1 X135.285 Y102.845 E-0.08481
G1 X135.250 Y103.014 E-0.03984
G1 X135.125 Y103.324 E-0.07708
G1 X135.002 Y103.538 E-0.05696
G1 X134.801 Y103.792 E-0.07488
G1 X134.586 Y103.984 E-0.06649
G1 X134.386 Y104.200 E-0.06786
G1 X134.133 Y104.394 E-0.07380
G1 X133.860 Y104.542 E-0.07170
G1 X133.573 Y104.644 E-0.07024
G1 X133.278 Y104.701 E-0.06929
G1 X133.248 Y104.702 E-0.00704
G1 E-0.04000 F2100.00000
G1 Z0.800 F10800.000
G1 X119.575 Y103.223
G1 Z0.200
G1 E0.80000 F2100.00000
G1 F1200
G1 X119.062 Y103.223 E0.01607
G1 X118.955 Y103.489 E0.00902
G1 X118.805 Y103.750 E0.00943
G1 X118.567 Y104.051 E0.01205
G1 X118.341 Y104.254 E0.00951
G1 X118.131 Y104.479 E0.00966
G1 X117.829 Y104.712 E0.01195
G1 X117.503 Y104.888 E0.01160
G1 X117.163 Y105.009 E0.01134
G1 X116.813 Y105.077 E0.01116
G1 X116.442 Y105.093 E0.01165
G1 X115.790 Y104.983 E0.02072
G1 X115.279 Y104.759 E0.01752
G1 X114.961 Y104.544 E0.01202
G1 X114.688 Y104.294 E0.01160
G1 X114.453 Y104.011 E0.01153
G1 X114.276 Y103.725 E0.01056
G1 X114.107 Y103.353 E0.01279
G1 X114.015 Y102.967 E0.01244
G1 X114.001 Y102.536 E0.01354
G1 X114.029 Y102.244 E0.00920
G1 X114.137 Y101.775 E0.01509
G1 X114.352 Y101.303 E0.01625
G1 X114.564 Y100.972 E0.01232
G1 X114.934 Y100.566 E0.01723
G1 X115.381 Y100.254 E0.01708
G1 X115.548 Y100.160 E0.00600
G1 X116.077 Y99.969 E0.01764
G1 X116.342 Y99.923 E0.00845
G1 X116.912 Y99.888 E0.01789
G1 X117.522 Y99.995 E0.01941
G1 X118.169 Y100.281 E0.02219
G1 X118.640 Y100.654 E0.01886
G1 X118.796 Y100.812 E0.00695
G1 X119.179 Y101.367 E0.02113
G1 X119.409 Y101.962 E0.02001
G1 X119.567 Y103.163 E0.03798
G1 X119.145 Y102.845 F10800.000
G1 F1200
G1 X118.775 Y102.845 E0.01161
G1 X118.740 Y103.014 E0.00541
G1 X118.615 Y103.324 E0.01047
G1 X118.492 Y103.538 E0.00773
G1 X118.291 Y103.792 E0.01017
G1 X118.076 Y103.984 E0.00903
G1 X117.876 Y104.200 E0.00922
G1 X117.623 Y104.394 E0.01002
G1 X117.350 Y104.542 E0.00974
G1 X117.063 Y104.644 E0.00954
G1 X116.768 Y104.701 E0.00941
G1 X116.465 Y104.715 E0.00953
G1 X115.899 Y104.619 E0.01800
G1 X115.462 Y104.428 E0.01497
G1 X115.195 Y104.247 E0.01009
G1 X114.961 Y104.034 E0.00992
G1 X114.760 Y103.790 E0.00990
G1 X114.609 Y103.547 E0.00900
G1 X114.465 Y103.230 E0.01089
G1 X114.390 Y102.917 E0.01011
G1 X114.378 Y102.548 E0.01158
G1 X114.402 Y102.305 E0.00766
G1 X114.496 Y101.896 E0.01313
G1 X114.684 Y101.484 E0.01421
G1 X114.864 Y101.203 E0.01048
G1 X115.185 Y100.851 E0.01492
G1 X115.706 Y100.504 E0.01962
G1 X116.174 Y100.335 E0.01561
G1 X116.386 Y100.298 E0.00676
G1 X116.891 Y100.267 E0.01585
G1 X117.411 Y100.358 E0.01657
G1 X117.973 Y100.606 E0.01924
G1 X118.388 Y100.935 E0.01662
G1 X118.504 Y101.054 E0.00520
G1 X118.843 Y101.545 E0.01871
G1 X119.041 Y102.056 E0.01720
G1 X119.137 Y102.786 E0.02308
G1 X119.173 Y103.215 F10800.000
G1 F8640
G1 X118.775 Y102.845 E-0.08481
G1 X118.740 Y103.014 E-0.03984
G1 X118.615 Y103.324 E-0.07708
G1 X118.492 Y103.538 E-0.05696
G1 X118.291 Y103.792 E-0.07488
G1 X118.076 Y103.984 E-0.06649
G1 X117.876 Y104.200 E-0.06786
G1 X117.623 Y104.394 E-0.07380
G1 X117.350 Y104.542 E-0.07170
G1 X117.063 Y104.644 E-0.07024
G1 X116.768 Y104.701 E-0.06929
G1 X116.738 Y104.702 E-0.00704
G1 E-0.04000 F2100.00000
G1 Z0.800 F10800.000
G1 X103.065 Y103.223
G1 Z0.200
G1 E0.80000 F2100.00000
G1 F1200
G1 X102.552 Y103.223 E0.01607
G1 X102.445 Y103.489 E0.00902
G1 X102.295 Y103.750 E0.00943
G1 X102.057 Y104.051 E0.01205
G1 X101.831 Y104.254 E0.00951
G1 X101.621 Y104.479 E0.00966
G1 X101.319 Y104.712 E0.01195
G1 X100.993 Y104.888 E0.01160
G1 X100.653 Y105.009 E0.01134
G1 X100.303 Y105.077 E0.01116
G1 X99.932 Y105.093 E0.01165
G1 X99.280 Y104.983 E0.02072
G1 X98.769 Y104.759 E0.01752
G1 X98.451 Y104.544 E0.01202
G1 X98.178 Y104.294 E0.01160
G1 X97.943 Y104.011 E0.01153
G1 X97.766 Y103.725 E0.01056
G1 X97.597 Y103.353 E0.01279
G1 X97.505 Y102.967 E0.01244
G1 X97.491 Y102.536 E0.01354
G1 X97.519 Y102.244 E0.00920
G1 X97.627 Y101.775 E0.01509
G1 X97.842 Y101.303 E0.01625
G1 X98.054 Y100.972 E0.01232
G1 X98.424 Y100.566 E0.01723
G1 X98.871 Y100.254 E0.01708
G1 X99.038 Y100.160 E0.00600
G1 X99.567 Y99.969 E0.01764
G1 X99.832 Y99.923 E0.00845
G1 X100.402 Y99.888 E0.01789
G1 X101.012 Y99.995 E0.01941
G1 X101.659 Y100.281 E0.02219
G1 X102.130 Y100.654 E0.01886
G1 X102.286 Y100.812 E0.00695
G1 X102.669 Y101.367 E0.02113
G1 X102.899 Y101.962 E0.02001
G1 X103.057 Y103.163 E0.03798
G1 X102.635 Y102.845 F10800.000
G1 F1200
G1 X102.265 Y102.845 E0.01161
G1 X102.230 Y103.014 E0.00541
G1 X102.105 Y103.324 E0.01047
G1 X101.982 Y103.538 E0.00773
G1 X101.781 Y103.792 E0.01017
G1 X101.566 Y103.984 E0.00903
G1 X101.366 Y104.200 E0.00922
G1 X101.113 Y104.394 E0.01002
G1 X100.840 Y104.542 E0.00974
G1 X100.553 Y104.644 E0.00954
G1 X100.258 Y104.701 E0.00941
G1 X99.955 Y104.715 E0.00953
G1 X99.389 Y104.619 E0.01800
G1 X98.952 Y104.428 E0.01497
G1 X98.685 Y104.247 E0.01009
G1 X98.451 Y104.034 E0.00992
G1 X98.250 Y103.790 E0.00990
G1 X98.099 Y103.547 E0.00900
G1 X97.955 Y103.230 E0.01089
G1 X97.880 Y102.917 E0.01011
G1 X97.868 Y102.548 E0.01158
G1 X97.892 Y102.305 E0.00766
G1 X97.986 Y101.896 E0.01313
G1 X98.174 Y101.484 E0.01421
G1 X98.354 Y101.203 E0.01048
G1 X98.675 Y100.851 E0.01492
G1 X99.196 Y100.504 E0.01962
G1 X99.664 Y100.335 E0.01561
G1 X99.876 Y100.298 E0.00676
G1 X100.381 Y100.267 E0.01585
G1 X100.901 Y100.358 E0.01657
G1 X101.463 Y100.606 E0.01924
G1 X101.878 Y100.935 E0.01662
G1 X101.994 Y101.054 E0.00520
G1 X102.333 Y101.545 E0.01871
G1 X102.531 Y102.056 E0.01720
G1 X102.627 Y102.786 E0.02308
G1 X102.663 Y103.215 F10800.000
G1 F8640
G1 X102.265 Y102.845 E-0.08481
G1 X102.230 Y103.014 E-0.03984
G1 X102.105 Y103.324 E-0.07708
G1 X101.982 Y103.538 E-0.05696
G1 X101.781 Y103.792 E-0.07488
G1 X101.566 Y103.984 E-0.06649
G1 X101.366 Y104.200 E-0.06786
