; generated by Slic3r Prusa Edition 1.41.2+linux64 on 2019-05-18 at 17:40:59

; 

; external perimeters extrusion width = 0.45mm
; perimeters extrusion width = 0.45mm
; infill extrusion width = 0.45mm
; solid infill extrusion width = 0.45mm
; top infill extrusion width = 0.40mm
; first layer extrusion width = 0.42mm

M73 P0 R47
M73 Q0 S47
M201 X1000 Y1000 Z1000 E5000 ; sets maximum accelerations, mm/sec^2
M203 X200 Y200 Z12 E120 ; sets maximum feedrates, mm/sec
M204 P1250 R1250 T1250 ; sets acceleration (P, T) and retract acceleration (R), mm/sec^2
M205 X8.00 Y8.00 Z0.40 E1.50 ; sets the jerk limits, mm/sec
M205 S0 T0 ; sets the minimum extruding and travel feed rate, mm/sec
M107
M115 U3.7.1 ; tell printer latest fw version
M83  ; extruder relative mode
M104 S240 ; set extruder temp
M140 S85 ; set bed temp
M190 S85 ; wait for bed temp
M109 S240 ; wait for extruder temp
G28 W ; home all without mesh bed level
G80 ; mesh bed leveling
G1 Y-3.0 F1000.0 ; go outside print area
G92 E0.0
G1 X60.0 E9.0  F1000.0 ; intro line
M73 Q0 S47
M73 P0 R47
G1 X100.0 E12.5  F1000.0 ; intro line
G92 E0.0
M221 S95
M900 K45; Filament gcode
G21 ; set units to millimeters
G90 ; use absolute coordinates
M83 ; use relative distances for extrusion
;BEFORE_LAYER_CHANGE
G92 E0.0
;0.2


G1 E-0.80000 F2100.00000
G1 Z0.600 F10800.000
;AFTER_LAYER_CHANGE
;0.2
G1 X103.052 Y86.401
G1 Z0.200
G1 E0.80000 F2100.00000
M204 S1000
G1 F1200
G1 X103.557 Y85.678 E0.02766
G1 X104.235 Y85.241 E0.02529
G1 X105.030 Y85.080 E0.02541
G1 X144.943 Y85.079 E1.25145
G1 X145.759 Y85.239 E0.02608
G1 X146.457 Y85.692 E0.02608
G1 X146.936 Y86.372 E0.02608
G1 X147.126 Y87.185 E0.02620
G1 X147.127 Y122.772 E1.11580
G1 X146.941 Y123.616 E0.02709
G1 X146.443 Y124.322 E0.02709
G1 X145.765 Y124.759 E0.02529
G1 X144.970 Y124.920 E0.02541
G1 X105.057 Y124.921 E1.25145
G1 X104.194 Y124.741 E0.02766
G1 X103.471 Y124.236 E0.02766
G1 X103.034 Y123.558 E0.02529
G1 X102.873 Y122.767 E0.02529
G1 X102.872 Y87.264 E1.11316
G1 X103.039 Y86.459 E0.02577
; PURGING FINISHED
G1 F8640
G1 X103.557 Y85.678 E-0.21646
G1 X104.235 Y85.241 E-0.18628
G1 X105.030 Y85.080 E-0.18711
G1 X105.766 Y85.080 E-0.17015
G1 E-0.04000 F2100.00000
G1 Z0.800 F10800.000
G1 X138.285 Y92.401
G1 Z0.200
G1 E0.80000 F2100.00000
G1 F1200
G1 X138.448 Y91.869 E0.01742
G1 X138.725 Y91.355 E0.01831
G1 X139.080 Y90.928 E0.01742
G1 X139.532 Y90.559 E0.01831
G1 X140.016 Y90.304 E0.01715
G1 X140.435 Y90.165 E0.01383
G1 X141.007 Y90.083 E0.01811
G1 X141.561 Y90.112 E0.01742
G1 X142.127 Y90.257 E0.01831
G1 X142.628 Y90.497 E0.01742
G1 X143.097 Y90.848 E0.01836
G1 X143.485 Y91.287 E0.01836
G1 X143.765 Y91.767 E0.01742
G1 X143.955 Y92.320 E0.01836
G1 X144.031 Y92.901 E0.01835
G1 X143.993 Y93.455 E0.01742
G1 X143.840 Y94.021 E0.01836
G1 X143.577 Y94.543 E0.01835
G1 X143.235 Y94.981 E0.01742
G1 X142.792 Y95.362 E0.01831
G1 X142.309 Y95.635 E0.01742
G1 X141.753 Y95.818 E0.01835
G1 X141.171 Y95.886 E0.01836
G1 X140.617 Y95.840 E0.01742
G1 X140.054 Y95.680 E0.01835
G1 X139.535 Y95.409 E0.01836
G1 X139.102 Y95.061 E0.01742
G1 X138.726 Y94.612 E0.01836
G1 X138.448 Y94.097 E0.01836
G1 X138.285 Y93.565 E0.01742
G1 X138.226 Y92.983 E0.01836
G1 X138.279 Y92.460 E0.01648
G1 X138.654 Y92.498 F10800.000
G1 F1200
G1 X138.798 Y92.016 E0.01580
G1 X139.039 Y91.567 E0.01597
G1 X139.346 Y91.196 E0.01509
G1 X139.741 Y90.875 E0.01597
G1 X140.164 Y90.652 E0.01499
G1 X140.522 Y90.533 E0.01180
G1 X141.023 Y90.462 E0.01590
G1 X141.504 Y90.487 E0.01509
G1 X141.998 Y90.613 E0.01597
G1 X142.432 Y90.821 E0.01509
G1 X142.840 Y91.127 E0.01599
G1 X143.178 Y91.509 E0.01599
G1 X143.420 Y91.925 E0.01509
G1 X143.586 Y92.407 E0.01599
G1 X143.652 Y92.912 E0.01599
G1 X143.620 Y93.393 E0.01509
G1 X143.486 Y93.885 E0.01599
G1 X143.257 Y94.340 E0.01599
G1 X142.961 Y94.720 E0.01509
G1 X142.575 Y95.052 E0.01597
G1 X142.155 Y95.289 E0.01509
G1 X141.671 Y95.448 E0.01599
G1 X141.165 Y95.507 E0.01599
G1 X140.685 Y95.467 E0.01509
G1 X140.194 Y95.328 E0.01599
G1 X139.742 Y95.092 E0.01599
G1 X139.367 Y94.790 E0.01509
G1 X139.040 Y94.399 E0.01599
G1 X138.798 Y93.950 E0.01599
G1 X138.657 Y93.490 E0.01509
G1 X138.605 Y92.983 E0.01599
G1 X138.648 Y92.558 E0.01339
G1 X138.352 Y92.236 F10800.000
G1 F8640
G1 X138.798 Y92.016 E-0.12996
G1 X139.039 Y91.567 E-0.11761
G1 X139.346 Y91.196 E-0.11113
G1 X139.741 Y90.875 E-0.11761
G1 X140.164 Y90.652 E-0.11043
G1 X140.522 Y90.533 E-0.08687
G1 X140.892 Y90.480 E-0.08639
G1 E-0.04000 F2100.00000
G1 Z0.800 F10800.000
G1 X139.037 Y89.541
G1 Z0.200
G1 E0.80000 F2100.00000
G1 F1200
G1 X139.037 Y88.986 E0.01739
G1 X140.685 Y88.986 E0.05167
G1 X140.175 Y89.059 E0.01617
G1 X139.572 Y89.259 E0.01992
G1 X139.090 Y89.513 E0.01706
G1 F8640
G1 X139.037 Y88.986 E-0.12219
G1 X140.685 Y88.986 E-0.38053
G1 X140.175 Y89.059 E-0.11906
G1 X139.607 Y89.248 E-0.13822
G1 E-0.04000 F2100.00000
G1 Z0.800 F10800.000
G1 X141.688 Y88.986
G1 Z0.200
G1 E0.80000 F2100.00000
G1 F1200
G1 X143.221 Y88.986 E0.04805
G1 X143.221 Y89.528 E0.01697
G1 X142.515 Y89.189 E0.02454
G1 X141.748 Y88.992 E0.02484
G1 F8640
G1 X143.221 Y88.986 E-0.34011
G1 X143.221 Y89.528 E-0.12499
G1 X142.515 Y89.189 E-0.18069
G1 X142.036 Y89.066 E-0.11420
G1 E-0.04000 F2100.00000
G1 Z0.800 F10800.000
G1 X143.598 Y90.282
G1 Z0.200
G1 E0.80000 F2100.00000
G1 F1200
G1 X143.021 Y89.849 E0.02260
G1 X142.386 Y89.545 E0.02208
G1 X141.676 Y89.363 E0.02298
G1 X140.973 Y89.326 E0.02208
G1 X140.262 Y89.428 E0.02252
G1 X139.720 Y89.607 E0.01789
G1 X139.114 Y89.927 E0.02147
G1 X138.660 Y90.296 E0.01836
G1 X138.660 Y88.609 E0.05290
G1 X143.598 Y88.609 E0.15481
G1 X143.598 Y90.222 E0.05055
G1 F8640
G1 X143.021 Y89.849 E-0.15854
G1 X142.386 Y89.545 E-0.16259
G1 X141.676 Y89.363 E-0.16923
G1 X140.973 Y89.326 E-0.16259
G1 X140.514 Y89.392 E-0.10705
G1 E-0.04000 F2100.00000
G1 Z0.800 F10800.000
G1 X143.975 Y91.379
G1 Z0.200
G1 E0.80000 F2100.00000
G1 F1200
G1 X143.792 Y91.065 E0.01140
G1 X143.354 Y90.570 E0.02072
G1 X142.825 Y90.173 E0.02073
G1 X142.256 Y89.901 E0.01975
G1 X141.619 Y89.738 E0.02064
G1 X140.990 Y89.705 E0.01975
G1 X140.348 Y89.796 E0.02032
G1 X139.868 Y89.955 E0.01586
G1 X139.323 Y90.243 E0.01931
G1 X138.813 Y90.659 E0.02064
G1 X138.411 Y91.144 E0.01975
G1 X138.283 Y91.381 E0.00845
G1 X138.283 Y88.232 E0.09873
G1 X143.975 Y88.232 E0.17846
G1 X143.975 Y91.319 E0.09677
G1 F8640
G1 X143.792 Y91.065 E-0.07232
G1 X143.354 Y90.570 E-0.15261
G1 X142.825 Y90.173 E-0.15266
G1 X142.256 Y89.901 E-0.14544
G1 X141.619 Y89.738 E-0.15202
G1 X141.251 Y89.718 E-0.08495
G1 E-0.04000 F2100.00000
G1 Z0.800 F10800.000
G1 X110.586 Y89.378
G1 Z0.200
G1 E0.80000 F2100.00000
G1 F1200
G1 X110.574 Y89.372 E0.00042
G1 X110.890 Y89.965 F10800.000
G1 F1200
G1 X110.199 Y89.600 E0.02450
G1 X109.443 Y89.397 E0.02455
G1 X108.832 Y89.353 E0.01919
G1 X108.062 Y89.440 E0.02431
G1 X107.323 Y89.698 E0.02452
G1 X106.779 Y90.018 E0.01978
G1 X106.779 Y88.986 E0.03235
G1 X110.963 Y88.986 E0.13117
G1 X110.963 Y90.023 E0.03252
G1 X110.936 Y90.003 E0.00105
G1 X111.340 Y90.893 F10800.000
G1 F1200
G1 X111.101 Y90.616 E0.01146
G1 X110.682 Y90.282 E0.01681
G1 X110.060 Y89.953 E0.02206
G1 X109.379 Y89.771 E0.02209
G1 X108.840 Y89.731 E0.01697
G1 X108.146 Y89.810 E0.02188
G1 X107.482 Y90.043 E0.02208
G1 X107.013 Y90.314 E0.01697
G1 X106.485 Y90.770 E0.02188
G1 X106.402 Y90.882 E0.00436
G1 X106.402 Y88.609 E0.07125
G1 X111.340 Y88.609 E0.15481
G1 X111.340 Y90.833 E0.06974
G1 F8640
G1 X111.101 Y90.616 E-0.07446
G1 X110.682 Y90.282 E-0.12383
G1 X110.060 Y89.953 E-0.16244
G1 X109.379 Y89.771 E-0.16271
G1 X108.840 Y89.731 E-0.12498
G1 X108.359 Y89.786 E-0.11159
G1 E-0.04000 F2100.00000
G1 Z0.800 F10800.000
G1 X111.717 Y92.722
G1 Z0.200
G1 E0.80000 F2100.00000
G1 F1200
G1 X111.674 Y92.343 E0.01195
G1 X111.468 Y91.753 E0.01962
G1 X111.235 Y91.349 E0.01460
G1 X110.839 Y90.889 E0.01904
G1 X110.475 Y90.599 E0.01460
G1 X109.921 Y90.306 E0.01962
G1 X109.316 Y90.144 E0.01964
G1 X108.847 Y90.110 E0.01475
G1 X108.231 Y90.180 E0.01945
G1 X107.640 Y90.387 E0.01963
G1 X107.233 Y90.623 E0.01475
G1 X106.763 Y91.028 E0.01945
G1 X106.392 Y91.531 E0.01960
G1 X106.197 Y91.935 E0.01405
G1 X106.065 Y92.367 E0.01418
G1 X106.025 Y92.721 E0.01117
G1 X106.025 Y88.232 E0.14074
G1 X111.717 Y88.232 E0.17846
G1 X111.717 Y92.662 E0.13889
G1 X111.304 Y92.428 F10800.000
G1 F1200
G1 X111.367 Y92.983 E0.01752
G1 X111.305 Y93.527 E0.01718
G1 X111.189 Y93.905 E0.01238
G1 X110.938 Y94.379 E0.01683
G1 X110.692 Y94.688 E0.01238
G1 X110.277 Y95.045 E0.01717
G1 X109.797 Y95.299 E0.01702
G1 X109.416 Y95.417 E0.01253
G1 X108.871 Y95.479 E0.01719
G1 X108.316 Y95.416 E0.01752
G1 X107.799 Y95.235 E0.01718
G1 X107.457 Y95.038 E0.01238
G1 X107.041 Y94.681 E0.01718
G1 X106.716 Y94.240 E0.01718
G1 X106.545 Y93.884 E0.01238
G1 X106.406 Y93.366 E0.01683
G1 X106.376 Y92.972 E0.01237
G1 X106.436 Y92.444 E0.01667
G1 X106.549 Y92.072 E0.01218
G1 X106.716 Y91.726 E0.01205
G1 X107.041 Y91.286 E0.01717
G1 X107.452 Y90.931 E0.01702
G1 X107.798 Y90.731 E0.01253
G1 X108.315 Y90.550 E0.01718
G1 X108.855 Y90.489 E0.01702
G1 X109.253 Y90.518 E0.01253
G1 X109.783 Y90.660 E0.01719
G1 X110.267 Y90.916 E0.01718
G1 X110.576 Y91.162 E0.01238
G1 X110.926 Y91.569 E0.01683
G1 X111.123 Y91.911 E0.01238
G1 X111.284 Y92.371 E0.01529
G1 X110.928 Y92.496 F10800.000
G1 F1200
G1 X110.987 Y92.983 E0.01539
G1 X110.935 Y93.450 E0.01473
G1 X110.839 Y93.760 E0.01016
G1 X110.621 Y94.172 E0.01461
G1 X110.419 Y94.425 E0.01016
G1 X110.063 Y94.732 E0.01473
G1 X109.652 Y94.949 E0.01459
G1 X109.338 Y95.047 E0.01030
G1 X108.871 Y95.099 E0.01474
G1 X108.400 Y95.046 E0.01486
G1 X107.957 Y94.891 E0.01473
G1 X107.676 Y94.729 E0.01016
G1 X107.320 Y94.422 E0.01473
G1 X107.041 Y94.044 E0.01473
G1 X106.900 Y93.752 E0.01016
G1 X106.779 Y93.302 E0.01461
G1 X106.755 Y92.979 E0.01016
G1 X106.806 Y92.521 E0.01446
G1 X106.902 Y92.210 E0.01018
G1 X107.041 Y91.922 E0.01004
G1 X107.320 Y91.544 E0.01473
G1 X107.672 Y91.240 E0.01459
G1 X107.956 Y91.075 E0.01030
G1 X108.400 Y90.920 E0.01474
G1 X108.862 Y90.867 E0.01459
G1 X109.190 Y90.891 E0.01030
G1 X109.644 Y91.013 E0.01474
G1 X110.060 Y91.233 E0.01473
G1 X110.313 Y91.435 E0.01016
G1 X110.617 Y91.788 E0.01461
G1 X110.779 Y92.069 E0.01016
G1 X110.909 Y92.439 E0.01230
G1 X111.310 Y92.616 F10800.000
G1 F8640
G1 X110.987 Y92.983 E-0.12694
G1 X110.935 Y93.450 E-0.10851
G1 X110.839 Y93.760 E-0.07484
G1 X110.621 Y94.172 E-0.10759
G1 X110.419 Y94.425 E-0.07484
G1 X110.063 Y94.732 E-0.10849
G1 X109.652 Y94.949 E-0.10743
G1 X109.440 Y95.015 E-0.05136
G1 E-0.04000 F2100.00000
G1 Z0.800 F10800.000
G1 X139.414 Y97.047
G1 Z0.200
G1 E0.80000 F2100.00000
G1 F1200
G1 X139.493 Y97.088 E0.00278
G1 X140.346 Y97.331 E0.02782
G1 X141.196 Y97.401 E0.02674
G1 X142.079 Y97.299 E0.02785
G1 X142.844 Y97.047 E0.02526
G1 X142.844 Y99.905 E0.08960
G1 X139.414 Y99.905 E0.10752
G1 X139.414 Y97.107 E0.08771
G1 X139.037 Y96.425 F10800.000
G1 F1200
G1 X139.633 Y96.736 E0.02107
G1 X140.414 Y96.959 E0.02545
G1 X141.190 Y97.022 E0.02441
G1 X141.997 Y96.929 E0.02548
G1 X142.768 Y96.675 E0.02545
G1 X143.221 Y96.419 E0.01630
G1 X143.221 Y100.282 E0.12110
G1 X139.037 Y100.282 E0.13117
G1 X139.037 Y96.485 E0.11903
G1 F8640
G1 X139.633 Y96.736 E-0.14930
G1 X140.414 Y96.959 E-0.18746
G1 X141.190 Y97.022 E-0.17975
G1 X141.997 Y96.929 E-0.18762
G1 X142.227 Y96.853 E-0.05587
G1 E-0.04000 F2100.00000
G1 Z0.800 F10800.000
G1 X110.586 Y96.588
G1 Z0.200
G1 E0.80000 F2100.00000
G1 F1200
G1 X110.586 Y99.905 E0.10398
G1 X107.156 Y99.905 E0.10752
G1 X107.156 Y96.606 E0.10342
G1 X107.978 Y96.896 E0.02731
G1 X108.871 Y96.997 E0.02818
G1 X109.727 Y96.900 E0.02700
G1 X110.379 Y96.698 E0.02141
G1 X110.533 Y96.616 E0.00545
G1 X110.919 Y95.985 F10800.000
G1 F1200
G1 X110.963 Y95.947 E0.00182
G1 X110.963 Y100.282 E0.13590
G1 X106.779 Y100.282 E0.13117
G1 X106.779 Y95.947 E0.13590
G1 X107.325 Y96.268 E0.01984
G1 X108.062 Y96.526 E0.02450
G1 X108.871 Y96.617 E0.02552
G1 X109.649 Y96.530 E0.02455
G1 X110.234 Y96.348 E0.01919
G1 X110.866 Y96.013 E0.02243
G1 F8640
G1 X110.963 Y95.947 E-0.02707
G1 X110.963 Y99.122 E-0.73293
G1 E-0.04000 F2100.00000
G1 Z0.800 F10800.000
G1 X111.340 Y100.166
G1 Z0.200
G1 E0.80000 F2100.00000
G1 F1200
G1 X138.660 Y100.166 E0.85661
G1 X138.660 Y95.673 E0.14087
G1 X139.120 Y96.043 E0.01851
G1 X139.774 Y96.384 E0.02310
G1 X140.482 Y96.586 E0.02309
G1 X141.184 Y96.643 E0.02208
G1 X141.916 Y96.559 E0.02311
G1 X142.615 Y96.328 E0.02308
G1 X143.228 Y95.982 E0.02208
G1 X143.598 Y95.664 E0.01530
G1 X143.598 Y100.659 E0.15661
G1 X106.402 Y100.659 E1.16624
G1 X106.402 Y95.084 E0.17478
G1 X106.485 Y95.197 E0.00438
G1 X107.018 Y95.656 E0.02206
G1 X107.483 Y95.924 E0.01681
G1 X108.147 Y96.156 E0.02206
G1 X108.871 Y96.238 E0.02285
G1 X109.571 Y96.159 E0.02209
G1 X110.088 Y95.998 E0.01697
G1 X110.705 Y95.672 E0.02188
G1 X111.238 Y95.213 E0.02204
G1 X111.340 Y95.085 E0.00513
G1 X111.340 Y100.106 E0.15743
G1 X111.717 Y99.789 F10800.000
G1 F1200
G1 X138.283 Y99.789 E0.83297
G1 X138.283 Y94.585 E0.16317
G1 X138.412 Y94.825 E0.00854
G1 X138.837 Y95.331 E0.02072
G1 X139.328 Y95.726 E0.01975
G1 X139.914 Y96.032 E0.02073
G1 X140.549 Y96.213 E0.02072
G1 X141.177 Y96.264 E0.01975
G1 X141.834 Y96.188 E0.02073
G1 X142.462 Y95.982 E0.02072
G1 X143.010 Y95.672 E0.01975
G1 X143.509 Y95.242 E0.02064
G1 X143.897 Y94.746 E0.01975
G1 X143.975 Y94.591 E0.00543
G1 X143.975 Y101.036 E0.20207
G1 X106.025 Y101.036 E1.18989
G1 X106.025 Y93.330 E0.24161
G1 X106.033 Y93.429 E0.00311
G1 X106.190 Y94.016 E0.01904
G1 X106.392 Y94.435 E0.01460
G1 X106.763 Y94.939 E0.01962
G1 X107.238 Y95.347 E0.01962
G1 X107.641 Y95.580 E0.01460
G1 X108.231 Y95.786 E0.01962
G1 X108.871 Y95.858 E0.02019
G1 X109.494 Y95.788 E0.01964
G1 X109.943 Y95.649 E0.01475
G1 X110.491 Y95.358 E0.01945
G1 X110.965 Y94.951 E0.01960
G1 X111.255 Y94.587 E0.01460
G1 X111.539 Y94.050 E0.01904
G1 X111.676 Y93.605 E0.01460
G1 X111.717 Y93.244 E0.01138
G1 X111.717 Y99.729 E0.20334
G1 X112.094 Y99.412 F10800.000
G1 F1200
G1 X137.906 Y99.412 E0.80932
G1 X137.906 Y87.855 E0.36236
G1 X144.352 Y87.855 E0.20211
G1 X144.352 Y101.413 E0.42510
G1 X105.648 Y101.413 E1.21353
G1 X105.648 Y87.855 E0.42510
G1 X112.094 Y87.855 E0.20210
G1 X112.094 Y99.352 E0.36048
G1 X112.471 Y99.035 F10800.000
G1 F1200
G1 X137.529 Y99.035 E0.78568
G1 X137.529 Y87.478 E0.36236
G1 X144.729 Y87.478 E0.22575
G1 X144.729 Y101.790 E0.44874
G1 X105.271 Y101.790 E1.23718
G1 X105.271 Y87.478 E0.44874
G1 X112.471 Y87.478 E0.22575
G1 X112.471 Y98.975 E0.36048
G1 X112.545 Y99.428 F10800.000
G1 F8640
G1 X115.762 Y98.983 E-0.76000
G1 E-0.04000 F2100.00000
G1 Z0.800 F10800.000
G1 X111.151 Y100.412
G1 Z0.200
G1 E0.80000 F2100.00000
G1 F1200
G1 X138.849 Y100.412 E0.26588
G1 F8640
G1 X135.557 Y100.412 E-0.76000
G1 E-0.04000 F2100.00000
G1 Z0.800 F10800.000
G1 X139.527 Y99.028
G1 Z0.200
G1 E0.80000 F2100.00000
G1 F1200
G1 X140.121 Y99.622 E0.02635
G1 X140.655 Y99.622 E0.01676
G1 X139.697 Y98.664 E0.04253
G1 X139.697 Y98.130 E0.01676
G1 X141.189 Y99.622 E0.06624
G1 X141.723 Y99.622 E0.01676
G1 X139.697 Y97.596 E0.08995
G1 X139.697 Y97.440 E0.00488
G1 X140.226 Y97.591 E0.01728
G1 X142.257 Y99.622 E0.09015
G1 X142.561 Y99.622 E0.00954
G1 X142.561 Y99.392 E0.00722
G1 X140.823 Y97.654 E0.07715
G1 X141.201 Y97.685 E0.01190
G1 X141.369 Y97.666 E0.00530
G1 X142.561 Y98.858 E0.05293
G1 X142.561 Y98.324 E0.01676
G1 X141.847 Y97.610 E0.03167
G1 X142.140 Y97.577 E0.00924
G1 X142.296 Y97.525 E0.00517
G1 X142.731 Y97.959 E0.01929
G1 F8640
G1 X142.296 Y97.525 E-0.14185
G1 X142.140 Y97.577 E-0.03803
G1 X141.847 Y97.610 E-0.06792
G1 X142.561 Y98.324 E-0.23295
G1 X142.561 Y98.858 E-0.12330
G1 X142.083 Y98.380 E-0.15595
G1 E-0.04000 F2100.00000
G1 Z0.800 F10800.000
G1 X144.033 Y94.411
G1 Z0.200
G1 E0.80000 F2100.00000
G1 F1200
G1 X144.115 Y93.910 E0.00651
G1 X144.142 Y93.713 E0.00165
G1 F8640
G1 X144.115 Y93.910 E-0.04597
G1 E-0.75403 F2100.00000
G1 Z0.800 F10800.000
G1 X144.142 Y92.219
G1 Z0.200
G1 E0.80000 F2100.00000
G1 F1200
G1 X144.073 Y91.808 E0.00327
G1 X144.050 Y91.670 E0.00261
G1 X144.025 Y91.657 E0.00053
G1 X143.895 Y91.596 E0.00225
G1 X143.786 Y90.711 F10800.000
G1 F1200
