; generated by PrusaSlicer 2.3.0+linux-x64 on 2022-08-13 at 19:42:33 UTC

; 

; external perimeters extrusion width = 0.45mm
; perimeters extrusion width = 0.45mm
; infill extrusion width = 0.45mm
; solid infill extrusion width = 0.45mm
; top infill extrusion width = 0.40mm
; first layer extrusion width = 0.42mm

M73 P0 R79
M73 Q0 S80
M201 X1000 Y1000 Z200 E5000 ; sets maximum accelerations, mm/sec^2
M203 X200 Y200 Z12 E120 ; sets maximum feedrates, mm/sec
M204 P1250 R1250 T1250 ; sets acceleration (P, T) and retract acceleration (R), mm/sec^2
M205 X8.00 Y8.00 Z0.40 E4.50 ; sets the jerk limits, mm/sec
M205 S0 T0 ; sets the minimum extruding and travel feed rate, mm/sec
M107
;TYPE:Custom
M862.3 P "MK3S" ; printer model check
M862.1 P0.4 ; nozzle diameter check
M115 U3.9.2 ; tell printer latest fw version
G90 ; use absolute coordinates
M83 ; extruder relative mode
M104 S230 ; set extruder temp
M140 S85 ; set bed temp
M190 S85 ; wait for bed temp
M109 S230 ; wait for extruder temp
G28 W ; home all without mesh bed level
G80 ; mesh bed leveling
G1 Y-3.0 F1000.0 ; go outside print area
G92 E0.0
G1 X60.0 E9.0 F1000.0 ; intro line
G1 X100.0 E12.5 F1000.0 ; intro line
G92 E0.0
M221 S95

; Don't change E values below. Excessive value can damage the printer.

M907 E538 ; set extruder motor current
G21 ; set units to millimeters
G90 ; use absolute coordinates
M83 ; use relative distances for extrusion
M900 K0.08 ; Filament gcode LA 1.5
M900 K45 ; Filament gcode LA 1.0
;LAYER_CHANGE
;Z:0.2
;HEIGHT:0.2
;BEFORE_LAYER_CHANGE
G92 E0.0
;0.2


G1 E-1.40000 F2100.000
G1 Z0.200 F10800.000
;AFTER_LAYER_CHANGE
;0.2
G1 Z0.400
G1 X80.354 Y85.156
G1 Z0.200
G1 E1.40000 F2100.000
M204 S1000
;TYPE:Skirt
;WIDTH:0.42
G1 F1200.000
G1 X81.003 Y84.752 E0.02396
G1 X81.543 Y84.575 E0.01784
G1 X82.113 Y84.514 E0.01796
G1 X167.882 Y84.514 E2.68923
G1 X168.408 Y84.565 E0.01656
G1 X168.918 Y84.718 E0.01669
G1 X169.389 Y84.965 E0.01669
G1 X169.800 Y85.296 E0.01656
G1 X170.142 Y85.699 E0.01656
G1 X170.401 Y86.164 E0.01669
G1 X170.566 Y86.669 E0.01669
G1 X170.631 Y87.193 E0.01656
G1 X170.630 Y122.851 E1.11801
G1 X170.492 Y123.599 E0.02383
G1 X170.156 Y124.280 E0.02383
G1 X169.646 Y124.844 E0.02383
G1 X168.997 Y125.248 E0.02396
G1 X168.457 Y125.425 E0.01784
G1 X167.887 Y125.486 E0.01796
G1 X82.081 Y125.486 E2.69038
G1 X81.310 Y125.364 E0.02447
G1 X80.604 Y125.030 E0.02447
G1 X80.021 Y124.512 E0.02447
G1 X79.606 Y123.851 E0.02447
G1 X79.429 Y123.311 E0.01784
G1 X79.368 Y122.749 E0.01771
G1 X79.370 Y87.170 E1.11557
G1 X79.503 Y86.417 E0.02396
G1 X79.840 Y85.727 E0.02409
G1 X80.314 Y85.201 E0.02221
G1 X80.591 Y85.451 F10800.000
G1 F1200.000
G1 X81.163 Y85.093 E0.02113
G1 X81.629 Y84.943 E0.01538
G1 X82.117 Y84.891 E0.01538
G1 X167.882 Y84.891 E2.68909
G1 X168.777 Y85.067 E0.02860
G1 X169.540 Y85.568 E0.02860
G1 X170.057 Y86.319 E0.02860
G1 X170.254 Y87.214 E0.02872
G1 X170.253 Y122.823 E1.11652
G1 X170.136 Y123.474 E0.02071
G1 X169.845 Y124.067 E0.02071
G1 X169.402 Y124.556 E0.02071
G1 X168.837 Y124.907 E0.02083
G1 X168.371 Y125.057 E0.01538
G1 X167.883 Y125.109 E0.01538
G1 X82.088 Y125.109 E2.69005
G1 X81.420 Y125.003 E0.02119
G1 X80.810 Y124.714 E0.02119
G1 X80.305 Y124.265 E0.02119
G1 X79.947 Y123.691 E0.02119
G1 X79.745 Y122.745 E0.03036
G1 X79.746 Y87.192 E1.11473
G1 X79.860 Y86.537 E0.02083
G1 X80.151 Y85.940 E0.02083
G1 X80.551 Y85.496 E0.01876
; printing object encoder-bracket-thread.stl id:0 copy 2
;WIPE_START
G1 F8640.000
G1 X81.163 Y85.093 E-0.16898
G1 X81.629 Y84.943 E-0.11326
G1 X82.117 Y84.891 E-0.11325
G1 X86.164 Y84.891 E-0.93451
;WIPE_END
G1 E-0.07000 F2100.000
G1 Z0.400 F10800.000
G1 X128.787 Y88.055
G1 Z0.200
G1 E1.40000 F2100.000
;TYPE:Perimeter
G1 F1200.000
G1 X134.833 Y88.055 E0.18956
G1 X134.833 Y92.304 E0.13322
G1 X134.750 Y91.998 E0.00993
G1 X134.652 Y91.742 E0.00860
G1 X134.378 Y91.240 E0.01794
G1 X133.975 Y90.761 E0.01962
G1 X133.515 Y90.390 E0.01853
G1 X132.959 Y90.100 E0.01966
G1 X132.365 Y89.931 E0.01937
G1 X131.983 Y89.887 E0.01204
G1 X131.709 Y89.884 E0.00860
G1 X131.141 Y89.953 E0.01793
G1 X130.547 Y90.149 E0.01963
G1 X130.032 Y90.440 E0.01853
G1 X129.559 Y90.848 E0.01960
G1 X129.195 Y91.313 E0.01853
G1 X128.912 Y91.874 E0.01968
G1 X128.787 Y92.335 E0.01500
G1 X128.787 Y88.115 E0.13232
;WIPE_START
G1 F8640.000
G1 X134.547 Y88.058 E-1.33000
;WIPE_END
G1 E-0.07000 F2100.000
G1 Z0.400 F10800.000
G1 X130.269 Y90.739
G1 Z0.200
G1 E1.40000 F2100.000
;TYPE:External perimeter
G1 F1200.000
G1 X130.700 Y90.495 E0.01552
G1 X131.224 Y90.323 E0.01729
G1 X131.730 Y90.261 E0.01597
G1 X131.959 Y90.264 E0.00720
G1 X132.291 Y90.302 E0.01047
G1 X132.819 Y90.452 E0.01721
G1 X133.307 Y90.707 E0.01728
G1 X133.710 Y91.031 E0.01621
G1 X134.065 Y91.454 E0.01729
G1 X134.309 Y91.901 E0.01598
G1 X134.391 Y92.116 E0.00720
G1 X134.478 Y92.435 E0.01038
G1 X134.529 Y92.839 E0.01276
G1 X134.509 Y93.351 E0.01609
G1 X134.379 Y93.887 E0.01729
G1 X134.162 Y94.357 E0.01621
G1 X133.838 Y94.802 E0.01726
G1 X133.458 Y95.152 E0.01621
G1 X132.987 Y95.440 E0.01731
G1 X132.471 Y95.625 E0.01718
G1 X132.143 Y95.686 E0.01046
G1 X131.914 Y95.704 E0.00720
G1 X131.405 Y95.677 E0.01598
G1 X130.871 Y95.540 E0.01728
G1 X130.405 Y95.317 E0.01621
G1 X129.964 Y94.986 E0.01729
G1 X129.598 Y94.573 E0.01731
G1 X129.337 Y94.126 E0.01621
G1 X129.158 Y93.605 E0.01728
G1 X129.087 Y93.057 E0.01732
G1 X129.122 Y92.542 E0.01621
G1 X129.266 Y92.009 E0.01729
G1 X129.515 Y91.516 E0.01731
G1 X129.833 Y91.109 E0.01621
G1 X130.221 Y90.775 E0.01607
G1 X130.235 Y90.340 F10800.000
;WIPE_START
G1 F8640.000
G1 X130.700 Y90.495 E-0.12801
G1 X131.224 Y90.323 E-0.12735
G1 X131.730 Y90.261 E-0.11762
G1 X131.959 Y90.264 E-0.05304
G1 X132.291 Y90.302 E-0.07707
G1 X132.819 Y90.452 E-0.12671
G1 X133.307 Y90.707 E-0.12728
G1 X133.710 Y91.031 E-0.11935
G1 X134.065 Y91.454 E-0.12733
G1 X134.309 Y91.901 E-0.11767
G1 X134.391 Y92.116 E-0.05303
G1 X134.478 Y92.435 E-0.07644
G1 X134.521 Y92.775 E-0.07911
;WIPE_END
G1 E-0.07000 F2100.000
G1 Z0.400 F10800.000
G1 X128.787 Y93.679
G1 Z0.200
G1 E1.40000 F2100.000
;TYPE:Perimeter
G1 F1200.000
G1 X128.993 Y94.284 E0.02005
G1 X129.291 Y94.795 E0.01853
G1 X129.707 Y95.265 E0.01968
G1 X130.209 Y95.641 E0.01966
G1 X130.742 Y95.896 E0.01853
G1 X131.348 Y96.051 E0.01962
G1 X131.919 Y96.082 E0.01795
G1 X132.193 Y96.060 E0.00860
G1 X132.570 Y95.990 E0.01203
G1 X133.151 Y95.782 E0.01935
G1 X133.686 Y95.454 E0.01968
G1 X134.121 Y95.054 E0.01853
G1 X134.489 Y94.549 E0.01960
G1 X134.737 Y94.012 E0.01854
G1 X134.833 Y93.616 E0.01277
G1 X134.833 Y99.612 E0.18800
G1 X161.045 Y99.612 E0.82186
G1 X161.045 Y93.661 E0.18660
M73 Q0 S79
G1 X161.202 Y94.172 E0.01677
G1 X161.499 Y94.724 E0.01966
G1 X161.903 Y95.205 E0.01968
G1 X162.363 Y95.576 E0.01853
G1 X162.919 Y95.866 E0.01966
G1 X163.523 Y96.038 E0.01969
G1 X164.112 Y96.086 E0.01853
G1 X164.735 Y96.014 E0.01966
G1 X165.331 Y95.817 E0.01968
G1 X165.846 Y95.526 E0.01853
G1 X166.319 Y95.118 E0.01960
G1 X166.683 Y94.653 E0.01853
G1 X166.966 Y94.092 E0.01968
G1 X167.091 Y93.631 E0.01500
G1 X167.091 Y101.213 E0.23774
G1 X128.787 Y101.213 E1.20099
G1 X128.787 Y93.739 E0.23435
;WIPE_START
G1 F8640.000
G1 X128.993 Y94.284 E-0.13462
G1 X129.291 Y94.795 E-0.13647
G1 X129.707 Y95.265 E-0.14495
G1 X130.209 Y95.641 E-0.14479
G1 X130.742 Y95.896 E-0.13647
G1 X131.348 Y96.051 E-0.14448
G1 X131.919 Y96.082 E-0.13216
G1 X132.193 Y96.060 E-0.06330
G1 X132.570 Y95.990 E-0.08859
G1 X133.151 Y95.782 E-0.14252
G1 X133.379 Y95.642 E-0.06165
;WIPE_END
G1 E-0.07000 F2100.000
G1 Z0.400 F10800.000
G1 X161.344 Y92.983
G1 Z0.200
G1 E1.40000 F2100.000
;TYPE:External perimeter
G1 F1200.000
G1 X161.400 Y92.434 E0.01730
G1 X161.552 Y91.940 E0.01621
G1 X161.813 Y91.455 E0.01727
G1 X162.142 Y91.057 E0.01620
G1 X162.569 Y90.708 E0.01729
G1 X163.023 Y90.469 E0.01609
G1 X163.409 Y90.340 E0.01276
G1 X163.735 Y90.280 E0.01038
G1 X163.964 Y90.262 E0.00720
G1 X164.473 Y90.289 E0.01599
G1 X165.007 Y90.426 E0.01728
G1 X165.473 Y90.649 E0.01621
G1 X165.914 Y90.980 E0.01729
G1 X166.280 Y91.393 E0.01731
G1 X166.541 Y91.840 E0.01621
G1 X166.720 Y92.361 E0.01728
G1 X166.791 Y92.909 E0.01732
G1 X166.756 Y93.424 E0.01621
G1 X166.612 Y93.957 E0.01729
G1 X166.363 Y94.450 E0.01731
G1 X166.045 Y94.857 E0.01621
G1 X165.628 Y95.216 E0.01727
G1 X165.178 Y95.471 E0.01621
G1 X164.653 Y95.644 E0.01731
G1 X164.106 Y95.707 E0.01729
G1 X163.590 Y95.665 E0.01621
G1 X163.059 Y95.514 E0.01732
G1 X162.571 Y95.259 E0.01728
G1 X162.168 Y94.935 E0.01621
G1 X161.813 Y94.512 E0.01731
G1 X161.552 Y94.026 E0.01729
G1 X161.400 Y93.532 E0.01621
G1 X161.350 Y93.043 E0.01542
G1 X160.998 Y92.782 F10800.000
G1 X161.045 Y92.305
;TYPE:Perimeter
G1 F1200.000
G1 X161.045 Y88.055 E0.13326
G1 X167.091 Y88.055 E0.18956
G1 X167.091 Y92.287 E0.13270
G1 X166.885 Y91.682 E0.02005
G1 X166.587 Y91.171 E0.01853
G1 X166.171 Y90.701 E0.01968
G1 X165.669 Y90.325 E0.01966
G1 X165.136 Y90.070 E0.01853
G1 X164.530 Y89.915 E0.01962
G1 X163.959 Y89.884 E0.01795
G1 X163.685 Y89.906 E0.00860
G1 X163.315 Y89.974 E0.01180
G1 X162.875 Y90.121 E0.01455
G1 X162.360 Y90.392 E0.01824
G1 X161.875 Y90.788 E0.01962
G1 X161.498 Y91.243 E0.01853
G1 X161.202 Y91.794 E0.01960
G1 X161.063 Y92.248 E0.01489
;WIPE_START
G1 F8640.000
G1 X161.045 Y88.055 E-0.96811
G1 X162.612 Y88.055 E-0.36189
;WIPE_END
G1 E-0.07000 F2100.000
G1 Z0.400 F10800.000
G1 X135.210 Y99.235
G1 Z0.200
G1 E1.40000 F2100.000
;TYPE:External perimeter
G1 F1200.000
G1 X160.668 Y99.235 E0.79822
G1 X160.668 Y87.678 E0.36236
G1 X167.468 Y87.678 E0.21321
M73 P1 R79
M73 Q1 S79
G1 X167.468 Y101.590 E0.43620
G1 X128.410 Y101.590 E1.22464
M73 P1 R78
G1 X128.410 Y87.678 E0.43620
G1 X135.210 Y87.678 E0.21321
G1 X135.210 Y99.175 E0.36048
G1 X135.281 Y99.629 F10800.000
;WIPE_START
G1 F8640.000
G1 X140.970 Y99.189 E-1.33000
;WIPE_END
G1 E-0.07000 F2100.000
G1 Z0.400 F10800.000
G1 X134.858 Y93.429
G1 Z0.200
G1 E1.40000 F2100.000
;TYPE:Gap fill
;WIDTH:0.363263
G1 F1200.000
G1 X134.870 Y92.836 E0.01579
;WIDTH:0.34743
G1 X134.849 Y92.492 E0.00873
;WIPE_START
G1 F8640.000
G1 X134.870 Y92.836 E-0.07963
;WIPE_END
G1 E-1.32037 F2100.000
G1 Z0.400 F10800.000
G1 X133.911 Y88.168
G1 Z0.200
G1 E1.40000 F2100.000
;TYPE:Solid infill
;WIDTH:0.441869
G1 F1200.000
G1 X134.550 Y88.807 E0.02998
G1 X134.550 Y89.371 E0.01872
G1 X133.517 Y88.338 E0.04848
G1 X132.952 Y88.338 E0.01872
G1 X134.550 Y89.936 E0.07495
G1 X134.550 Y90.500 E0.01872
G1 X132.388 Y88.338 E0.10142
G1 X131.824 Y88.338 E0.01872
G1 X133.604 Y90.118 E0.08351
G1 X133.064 Y89.836 E0.02021
G1 X132.637 Y89.715 E0.01475
G1 X131.260 Y88.338 E0.06459
G1 X130.696 Y88.338 E0.01872
G1 X131.962 Y89.604 E0.05940
G1 X131.693 Y89.601 E0.00890
G1 X131.427 Y89.633 E0.00891
G1 X130.131 Y88.338 E0.06078
G1 X129.567 Y88.338 E0.01872
G1 X130.948 Y89.719 E0.06478
G1 X130.524 Y89.859 E0.01482
G1 X129.070 Y88.405 E0.06822
G1 X129.070 Y88.969 E0.01872
G1 X130.150 Y90.049 E0.05066
G1 X129.869 Y90.207 E0.01069
G1 X129.802 Y90.265 E0.00294
G1 X129.070 Y89.533 E0.03434
G1 X129.070 Y90.097 E0.01872
G1 X129.619 Y90.646 E0.02576
G1 X129.090 Y90.914 F10800.000
;TYPE:Gap fill
;WIDTH:0.109182
G1 F1200.000
G1 X128.995 Y91.248 E0.00191
;WIPE_START
G1 F8640.000
G1 X129.090 Y90.914 E-0.08018
;WIPE_END
G1 E-1.31982 F2100.000
G1 Z0.400 F10800.000
G1 X128.766 Y92.523
G1 Z0.200
G1 E1.40000 F2100.000
;WIDTH:0.367279
G1 F1200.000
G1 X128.748 Y93.053 E0.01431
;WIDTH:0.34341
G1 X128.775 Y93.491 E0.01096
;WIPE_START
G1 F8640.000
G1 X128.748 Y93.053 E-0.10124
;WIPE_END
G1 E-1.29876 F2100.000
G1 Z0.400 F10800.000
G1 X161.006 Y92.968
G1 Z0.200
G1 E1.40000 F2100.000
;WIDTH:0.372917
G1 F1200.000
G1 X161.030 Y92.494 E0.01303
G1 X161.006 Y92.968 F10800.000
;WIDTH:0.341425
G1 F1200.000
G1 X161.030 Y93.472 E0.01254
;WIPE_START
G1 F8640.000
G1 X161.006 Y92.968 E-0.11667
;WIPE_END
G1 E-1.28333 F2100.000
G1 Z0.400 F10800.000
G1 X166.788 Y95.052
G1 Z0.200
G1 E1.40000 F2100.000
;WIDTH:0.10918
G1 F1200.000
G1 X166.883 Y94.718 E0.00191
;WIPE_START
G1 F8640.000
G1 X166.788 Y95.052 E-0.08018
;WIPE_END
G1 E-1.31982 F2100.000
G1 Z0.400 F10800.000
G1 X166.978 Y95.998
G1 Z0.200
G1 E1.40000 F2100.000
;TYPE:Solid infill
;WIDTH:0.422541
G1 F1200.000
G1 X166.401 Y95.421 E0.02574
G1 X166.113 Y95.669 E0.01202
G1 X166.808 Y96.365 E0.03104
G1 X166.808 Y96.902 E0.01695
G1 X165.789 Y95.883 E0.04548
G1 X165.446 Y96.077 E0.01244
G1 X166.808 Y97.438 E0.06079
G1 X166.808 Y97.975 E0.01695
G1 X165.043 Y96.210 E0.07881
G1 X164.796 Y96.291 E0.00820
G1 X164.609 Y96.313 E0.00595
G1 X166.808 Y98.512 E0.09818
G1 X166.808 Y99.049 E0.01695
G1 X164.128 Y96.369 E0.11966
G1 X163.545 Y96.323 E0.01844
G1 X166.808 Y99.586 E0.14565
G1 X166.808 Y100.123 E0.01695
G1 X162.816 Y96.130 E0.17823
G1 X162.208 Y95.813 E0.02164
G1 X161.704 Y95.408 E0.02041
G1 X161.328 Y94.960 E0.01847
G1 X161.328 Y95.179 E0.00693
G1 X166.808 Y100.660 E0.24464
G1 X166.808 Y100.930 E0.00854
G1 X166.542 Y100.930 E0.00841
G1 X161.328 Y95.716 E0.23275
G1 X161.328 Y96.253 E0.01695
G1 X166.005 Y100.930 E0.20879
G1 X165.468 Y100.930 E0.01695
G1 X161.328 Y96.790 E0.18482
G1 X161.328 Y97.327 E0.01695
G1 X164.931 Y100.930 E0.16085
G1 X164.394 Y100.930 E0.01695
G1 X161.328 Y97.864 E0.13689
G1 X161.328 Y98.401 E0.01695
G1 X163.857 Y100.930 E0.11292
G1 X163.321 Y100.930 E0.01695
G1 X161.328 Y98.937 E0.08896
G1 X161.328 Y99.474 E0.01695
G1 X162.784 Y100.930 E0.06499
G1 X162.247 Y100.930 E0.01695
G1 X161.212 Y99.895 E0.04621
G1 X160.675 Y99.895 E0.01695
G1 X161.710 Y100.930 E0.04621
G1 X161.173 Y100.930 E0.01695
G1 X160.138 Y99.895 E0.04621
G1 X159.601 Y99.895 E0.01695
G1 X160.636 Y100.930 E0.04621
G1 X160.099 Y100.930 E0.01695
G1 X159.064 Y99.895 E0.04621
G1 X158.527 Y99.895 E0.01695
G1 X159.563 Y100.930 E0.04621
G1 X159.026 Y100.930 E0.01695
G1 X157.990 Y99.895 E0.04621
G1 X157.454 Y99.895 E0.01695
G1 X158.489 Y100.930 E0.04621
G1 X157.952 Y100.930 E0.01695
G1 X156.917 Y99.895 E0.04621
G1 X156.380 Y99.895 E0.01695
G1 X157.415 Y100.930 E0.04621
G1 X156.878 Y100.930 E0.01695
G1 X155.843 Y99.895 E0.04621
G1 X155.306 Y99.895 E0.01695
G1 X156.341 Y100.930 E0.04621
G1 X155.804 Y100.930 E0.01695
G1 X154.769 Y99.895 E0.04621
G1 X154.232 Y99.895 E0.01695
G1 X155.268 Y100.930 E0.04621
G1 X154.731 Y100.930 E0.01695
G1 X153.695 Y99.895 E0.04621
G1 X153.159 Y99.895 E0.01695
G1 X154.194 Y100.930 E0.04621
G1 X153.657 Y100.930 E0.01695
G1 X152.622 Y99.895 E0.04621
G1 X152.085 Y99.895 E0.01695
G1 X153.120 Y100.930 E0.04621
G1 X152.583 Y100.930 E0.01695
G1 X151.548 Y99.895 E0.04621
G1 X151.011 Y99.895 E0.01695
G1 X152.046 Y100.930 E0.04621
G1 X151.510 Y100.930 E0.01695
G1 X150.474 Y99.895 E0.04621
G1 X149.937 Y99.895 E0.01695
G1 X150.973 Y100.930 E0.04621
G1 X150.436 Y100.930 E0.01695
G1 X149.401 Y99.895 E0.04621
G1 X148.864 Y99.895 E0.01695
G1 X149.899 Y100.930 E0.04621
G1 X149.362 Y100.930 E0.01695
G1 X148.327 Y99.895 E0.04621
G1 X147.790 Y99.895 E0.01695
G1 X148.825 Y100.930 E0.04621
G1 X148.288 Y100.930 E0.01695
G1 X147.253 Y99.895 E0.04621
G1 X146.716 Y99.895 E0.01695
G1 X147.751 Y100.930 E0.04621
G1 X147.215 Y100.930 E0.01695
G1 X146.179 Y99.895 E0.04621
G1 X145.642 Y99.895 E0.01695
G1 X146.678 Y100.930 E0.04621
G1 X146.141 Y100.930 E0.01695
G1 X145.106 Y99.895 E0.04621
G1 X144.569 Y99.895 E0.01695
G1 X145.604 Y100.930 E0.04621
G1 X145.067 Y100.930 E0.01695
G1 X144.032 Y99.895 E0.04621
G1 X143.495 Y99.895 E0.01695
G1 X144.530 Y100.930 E0.04621
G1 X143.993 Y100.930 E0.01695
G1 X142.958 Y99.895 E0.04621
G1 X142.421 Y99.895 E0.01695
G1 X143.457 Y100.930 E0.04621
G1 X142.920 Y100.930 E0.01695
G1 X141.884 Y99.895 E0.04621
G1 X141.348 Y99.895 E0.01695
G1 X142.383 Y100.930 E0.04621
G1 X141.846 Y100.930 E0.01695
G1 X140.811 Y99.895 E0.04621
G1 X140.274 Y99.895 E0.01695
G1 X141.309 Y100.930 E0.04621
G1 X140.772 Y100.930 E0.01695
G1 X139.737 Y99.895 E0.04621
G1 X139.200 Y99.895 E0.01695
G1 X140.235 Y100.930 E0.04621
G1 X139.699 Y100.930 E0.01695
G1 X138.663 Y99.895 E0.04621
G1 X138.126 Y99.895 E0.01695
G1 X139.162 Y100.930 E0.04621
G1 X138.625 Y100.930 E0.01695
G1 X137.590 Y99.895 E0.04621
G1 X137.053 Y99.895 E0.01695
G1 X138.088 Y100.930 E0.04621
G1 X137.551 Y100.930 E0.01695
