; generated by PrusaSlicer 2.2.0+linux-x64 on 2020-06-04 at 19:45:37 UTC

; 

; external perimeters extrusion width = 0.45mm
; perimeters extrusion width = 0.45mm
; infill extrusion width = 0.45mm
; solid infill extrusion width = 0.45mm
; top infill extrusion width = 0.40mm
; first layer extrusion width = 0.42mm

M73 P0 R92
M73 Q0 S93
M201 X1000 Y1000 Z1000 E5000 ; sets maximum accelerations, mm/sec^2
M203 X200 Y200 Z12 E120 ; sets maximum feedrates, mm/sec
M204 P1250 R1250 T1250 ; sets acceleration (P, T) and retract acceleration (R), mm/sec^2
M205 X8.00 Y8.00 Z0.40 E4.50 ; sets the jerk limits, mm/sec
M205 S0 T0 ; sets the minimum extruding and travel feed rate, mm/sec
M107
M862.3 P "MK3S" ; printer model check
M862.1 P0.4 ; nozzle diameter check
M115 U3.8.1 ; tell printer latest fw version
G90 ; use absolute coordinates
M83 ; extruder relative mode
M104 S240 ; set extruder temp
M140 S85 ; set bed temp
M190 S85 ; wait for bed temp
M109 S240 ; wait for extruder temp
G28 W ; home all without mesh bed level
G80 ; mesh bed leveling
G1 Y-3.0 F1000.0 ; go outside print area
G92 E0.0
G1 X60.0 E9.0 F1000.0 ; intro line
M73 Q0 S93
M73 P0 R92
G1 X100.0 E12.5 F1000.0 ; intro line
G92 E0.0
M221 S95
G21 ; set units to millimeters
G90 ; use absolute coordinates
M83 ; use relative distances for extrusion
M900 K45 ; Filament gcode
;BEFORE_LAYER_CHANGE
G92 E0.0
;0.2


G1 E-1.40000 F2100.00000
G1 Z0.200 F10800.000
;AFTER_LAYER_CHANGE
;0.2
G1 Z0.400
G1 X80.598 Y85.444
G1 Z0.200
G1 E1.40000 F2100.00000
M204 S1000
G1 F1200.000
G1 X81.163 Y85.093 E0.02083
G1 X81.629 Y84.943 E0.01538
G1 X82.117 Y84.891 E0.01538
G1 X167.882 Y84.891 E2.68909
G1 X168.777 Y85.067 E0.02860
G1 X169.540 Y85.568 E0.02860
G1 X170.057 Y86.319 E0.02860
G1 X170.254 Y87.214 E0.02872
G1 X170.253 Y122.823 E1.11652
G1 X170.136 Y123.474 E0.02071
G1 X169.845 Y124.067 E0.02071
G1 X169.402 Y124.556 E0.02071
G1 X168.837 Y124.907 E0.02083
G1 X168.371 Y125.057 E0.01538
G1 X167.883 Y125.109 E0.01538
G1 X82.088 Y125.109 E2.69005
G1 X81.420 Y125.003 E0.02119
G1 X80.810 Y124.714 E0.02119
G1 X80.305 Y124.265 E0.02119
G1 X79.947 Y123.691 E0.02119
G1 X79.745 Y122.745 E0.03036
G1 X79.746 Y87.192 E1.11473
G1 X79.860 Y86.537 E0.02083
G1 X80.151 Y85.940 E0.02083
G1 X80.558 Y85.488 E0.01907
G1 F8640.000
G1 X81.163 Y85.093 E-0.16676
G1 X81.629 Y84.943 E-0.11326
G1 X82.117 Y84.891 E-0.11325
G1 X86.174 Y84.891 E-0.93673
G1 E-0.07000 F2100.00000
G1 Z0.400 F10800.000
G1 X87.775 Y89.186
G1 Z0.200
G1 E1.40000 F2100.00000
G1 F1200.000
G1 X87.824 Y89.186 E0.00154
G1 X87.824 Y89.207 E0.00065
G1 F8640.000
G1 X87.824 Y89.186 E-0.00480
G1 X87.824 Y89.207 E-0.00480
G1 E-1.39039 F2100.00000
G1 Z0.400 F10800.000
G1 X84.073 Y89.186
G1 Z0.200
G1 E1.40000 F2100.00000
G1 F1200.000
G1 X84.048 Y89.201 E0.00091
G1 X83.719 Y89.820 F10800.000
G1 F1200.000
G1 X83.663 Y89.867 E0.00229
G1 X83.663 Y88.809 E0.03318
G1 X88.201 Y88.809 E0.14227
G1 X88.201 Y89.876 E0.03345
G1 X88.052 Y89.756 E0.00600
G1 X87.362 Y89.396 E0.02440
G1 X86.634 Y89.189 E0.02371
G1 X86.153 Y89.133 E0.01520
G1 X85.790 Y89.129 E0.01139
G1 X85.098 Y89.213 E0.02183
G1 X84.362 Y89.456 E0.02429
G1 X83.771 Y89.790 E0.02130
G1 X83.406 Y90.586 F10800.000
G1 F1200.000
G1 X83.286 Y90.740 E0.00612
G1 X83.286 Y88.432 E0.07236
G1 X88.578 Y88.432 E0.16592
G1 X88.578 Y90.747 E0.07258
G1 X88.363 Y90.490 E0.01051
G1 X87.844 Y90.073 E0.02086
G1 X87.221 Y89.748 E0.02203
G1 X86.560 Y89.560 E0.02154
G1 X86.129 Y89.510 E0.01362
G1 X85.810 Y89.507 E0.01000
G1 X85.181 Y89.583 E0.01988
G1 X84.516 Y89.802 E0.02196
G1 X83.936 Y90.130 E0.02086
G1 X83.452 Y90.547 E0.02005
G1 F8640.000
G1 X83.286 Y90.740 E-0.05875
G1 X83.286 Y88.432 E-0.53291
G1 X86.484 Y88.432 E-0.73834
G1 E-0.07000 F2100.00000
G1 Z0.400 F10800.000
G1 X82.909 Y92.335
G1 Z0.200
G1 E1.40000 F2100.00000
G1 F1200.000
G1 X82.909 Y88.055 E0.13420
G1 X88.955 Y88.055 E0.18956
G1 X88.955 Y92.304 E0.13322
G1 X88.872 Y91.998 E0.00993
G1 X88.774 Y91.742 E0.00860
G1 X88.500 Y91.240 E0.01794
G1 X88.097 Y90.761 E0.01962
G1 X87.637 Y90.390 E0.01853
G1 X87.081 Y90.100 E0.01966
G1 X86.487 Y89.931 E0.01937
G1 X86.105 Y89.887 E0.01204
G1 X85.831 Y89.884 E0.00860
G1 X85.263 Y89.953 E0.01793
G1 X84.669 Y90.149 E0.01963
G1 X84.154 Y90.440 E0.01853
G1 X83.681 Y90.848 E0.01960
G1 X83.317 Y91.313 E0.01853
G1 X83.034 Y91.874 E0.01968
G1 X82.925 Y92.277 E0.01312
G1 X83.388 Y92.009 F10800.000
G1 F1200.000
G1 X83.637 Y91.516 E0.01731
G1 X83.955 Y91.109 E0.01621
G1 X84.372 Y90.750 E0.01727
G1 X84.822 Y90.495 E0.01621
G1 X85.346 Y90.323 E0.01729
G1 X85.852 Y90.261 E0.01597
G1 X86.081 Y90.264 E0.00720
G1 X86.413 Y90.302 E0.01047
G1 X86.941 Y90.452 E0.01721
G1 X87.429 Y90.707 E0.01728
G1 X87.832 Y91.031 E0.01621
G1 X88.187 Y91.454 E0.01729
G1 X88.431 Y91.901 E0.01598
G1 X88.513 Y92.116 E0.00720
G1 X88.600 Y92.435 E0.01038
G1 X88.651 Y92.839 E0.01276
G1 X88.631 Y93.351 E0.01609
G1 X88.501 Y93.887 E0.01729
G1 X88.284 Y94.357 E0.01621
G1 X87.960 Y94.802 E0.01726
G1 X87.580 Y95.152 E0.01621
G1 X87.109 Y95.440 E0.01731
G1 X86.593 Y95.625 E0.01718
G1 X86.265 Y95.686 E0.01046
G1 X86.036 Y95.704 E0.00720
G1 X85.527 Y95.677 E0.01598
G1 X84.993 Y95.540 E0.01728
G1 X84.527 Y95.317 E0.01621
G1 X84.086 Y94.986 E0.01729
G1 X83.720 Y94.573 E0.01731
G1 X83.459 Y94.126 E0.01621
G1 X83.280 Y93.605 E0.01728
G1 X83.209 Y93.057 E0.01732
G1 X83.244 Y92.542 E0.01621
G1 X83.372 Y92.067 E0.01541
G1 X83.137 Y91.698 F10800.000
G1 F8640.000
G1 X83.637 Y91.516 E-0.14108
G1 X83.955 Y91.109 E-0.11935
G1 X84.372 Y90.750 E-0.12716
G1 X84.822 Y90.495 E-0.11935
G1 X85.346 Y90.323 E-0.12735
G1 X85.852 Y90.261 E-0.11762
G1 X86.081 Y90.264 E-0.05304
G1 X86.413 Y90.302 E-0.07707
G1 X86.941 Y90.452 E-0.12671
G1 X87.429 Y90.707 E-0.12728
G1 X87.832 Y91.031 E-0.11935
G1 X88.040 Y91.279 E-0.07465
G1 E-0.07000 F2100.00000
G1 Z0.400 F10800.000
G1 X116.675 Y97.330
G1 Z0.200
G1 E1.40000 F2100.00000
G1 F1200.000
G1 X117.375 Y97.529 E0.02279
G1 X118.259 Y97.601 E0.02784
G1 X119.183 Y97.494 E0.02916
G1 X119.705 Y97.322 E0.01722
G1 X119.705 Y99.705 E0.07470
G1 X116.675 Y99.705 E0.09498
G1 X116.675 Y97.390 E0.07258
G1 X116.298 Y96.754 F10800.000
G1 F1200.000
G1 X116.620 Y96.922 E0.01138
G1 X117.442 Y97.156 E0.02680
G1 X118.253 Y97.222 E0.02551
G1 X119.102 Y97.124 E0.02678
G1 X119.913 Y96.857 E0.02678
G1 X120.082 Y96.761 E0.00608
G1 X120.082 Y100.082 E0.10411
G1 X116.298 Y100.082 E0.11862
G1 X116.298 Y96.814 E0.10245
G1 F8640.000
G1 X116.620 Y96.922 E-0.07838
G1 X117.442 Y97.156 E-0.19733
G1 X118.253 Y97.222 E-0.18786
G1 X119.102 Y97.124 E-0.19725
G1 X119.913 Y96.857 E-0.19724
G1 X120.082 Y96.761 E-0.04478
G1 X120.082 Y98.611 E-0.42716
G1 E-0.07000 F2100.00000
G1 Z0.400 F10800.000
G1 X87.447 Y97.322
G1 Z0.200
G1 E1.40000 F2100.00000
G1 F1200.000
G1 X87.447 Y99.705 E0.07471
G1 X84.417 Y99.705 E0.09498
G1 X84.417 Y97.339 E0.07418
G1 X85.240 Y97.550 E0.02663
G1 X86.062 Y97.593 E0.02579
G1 X86.512 Y97.557 E0.01418
G1 X87.086 Y97.451 E0.01831
G1 X87.390 Y97.342 E0.01012
G1 X87.764 Y96.807 F10800.000
G1 F1200.000
G1 X87.824 Y96.771 E0.00218
G1 X87.824 Y100.082 E0.10381
G1 X84.040 Y100.082 E0.11862
G1 X84.040 Y96.756 E0.10427
G1 X84.475 Y96.964 E0.01512
G1 X85.298 Y97.175 E0.02662
G1 X86.057 Y97.216 E0.02383
G1 X86.463 Y97.183 E0.01278
G1 X86.988 Y97.086 E0.01674
G1 X87.708 Y96.827 E0.02399
G1 F8640.000
G1 X87.824 Y96.771 E-0.02978
G1 X87.824 Y100.082 E-0.76450
G1 X85.504 Y100.082 E-0.53572
G1 E-0.07000 F2100.00000
G1 Z0.400 F10800.000
G1 X88.201 Y100.366
G1 Z0.200
G1 E1.40000 F2100.00000
G1 F1200.000
G1 X115.921 Y100.366 E0.86916
G1 X115.921 Y96.090 E0.13408
G1 X116.070 Y96.210 E0.00600
G1 X116.760 Y96.570 E0.02440
G1 X117.510 Y96.783 E0.02443
G1 X118.247 Y96.843 E0.02318
G1 X119.020 Y96.754 E0.02441
G1 X119.760 Y96.510 E0.02442
G1 X120.403 Y96.146 E0.02318
G1 X120.459 Y96.099 E0.00229
G1 X120.459 Y100.459 E0.13671
G1 X83.663 Y100.459 E1.15370
G1 X83.663 Y96.083 E0.13720
G1 X83.938 Y96.289 E0.01076
G1 X84.605 Y96.608 E0.02318
G1 X85.355 Y96.801 E0.02429
G1 X86.052 Y96.838 E0.02187
G1 X86.413 Y96.809 E0.01139
G1 X86.889 Y96.721 E0.01517
G1 X87.600 Y96.465 E0.02370
G1 X88.201 Y96.098 E0.02206
G1 X88.201 Y100.306 E0.13194
G1 X88.578 Y99.989 F10800.000
G1 F1200.000
G1 X115.544 Y99.989 E0.84551
G1 X115.544 Y95.219 E0.14956
G1 X115.759 Y95.476 E0.01051
G1 X116.278 Y95.893 E0.02086
G1 X116.901 Y96.218 E0.02203
G1 X117.577 Y96.410 E0.02206
G1 X118.240 Y96.464 E0.02086
G1 X118.939 Y96.384 E0.02204
G1 X119.606 Y96.164 E0.02205
G1 X120.186 Y95.836 E0.02086
G1 X120.716 Y95.380 E0.02193
G1 X120.836 Y95.226 E0.00612
G1 X120.836 Y100.836 E0.17590
G1 X83.286 Y100.836 E1.17734
G1 X83.286 Y95.220 E0.17607
G1 X83.572 Y95.544 E0.01352
G1 X84.134 Y95.965 E0.02203
G1 X84.734 Y96.252 E0.02086
G1 X85.412 Y96.426 E0.02195
G1 X86.046 Y96.460 E0.01991
G1 X86.364 Y96.434 E0.00999
G1 X86.791 Y96.356 E0.01360
G1 X87.437 Y96.123 E0.02152
G1 X88.037 Y95.757 E0.02205
G1 X88.526 Y95.306 E0.02086
G1 X88.578 Y95.234 E0.00277
G1 X88.578 Y99.929 E0.14720
G1 X88.955 Y99.612 F10800.000
G1 F1200.000
G1 X115.167 Y99.612 E0.82186
G1 X115.167 Y93.661 E0.18660
G1 X115.324 Y94.172 E0.01677
G1 X115.621 Y94.724 E0.01966
G1 X116.025 Y95.205 E0.01968
G1 X116.485 Y95.576 E0.01853
G1 X117.041 Y95.866 E0.01966
G1 X117.645 Y96.038 E0.01969
G1 X118.234 Y96.086 E0.01853
G1 X118.857 Y96.014 E0.01966
G1 X119.453 Y95.817 E0.01968
G1 X119.968 Y95.526 E0.01853
G1 X120.441 Y95.118 E0.01960
G1 X120.805 Y94.653 E0.01853
G1 X121.088 Y94.092 E0.01968
G1 X121.213 Y93.631 E0.01500
G1 X121.213 Y101.213 E0.23774
G1 X82.909 Y101.213 E1.20099
G1 X82.909 Y93.679 E0.23623
G1 X83.115 Y94.284 E0.02005
G1 X83.413 Y94.795 E0.01853
G1 X83.829 Y95.265 E0.01968
G1 X84.331 Y95.641 E0.01966
G1 X84.864 Y95.896 E0.01853
G1 X85.470 Y96.051 E0.01962
G1 X86.041 Y96.082 E0.01795
G1 X86.315 Y96.060 E0.00860
G1 X86.692 Y95.990 E0.01203
G1 X87.273 Y95.782 E0.01935
G1 X87.808 Y95.454 E0.01968
G1 X88.243 Y95.054 E0.01853
G1 X88.611 Y94.549 E0.01960
G1 X88.859 Y94.012 E0.01854
G1 X88.955 Y93.616 E0.01277
G1 X88.955 Y99.552 E0.18612
G1 F8640.000
G1 X94.715 Y99.565 E-1.33000
G1 E-0.07000 F2100.00000
G1 Z0.400 F10800.000
G1 X115.522 Y93.532
G1 Z0.200
G1 E1.40000 F2100.00000
G1 F1200.000
G1 X115.466 Y92.983 E0.01730
G1 X115.522 Y92.434 E0.01730
G1 X115.674 Y91.940 E0.01621
G1 X115.935 Y91.455 E0.01727
G1 X116.264 Y91.057 E0.01620
G1 X116.691 Y90.708 E0.01729
G1 X117.145 Y90.469 E0.01609
G1 X117.531 Y90.340 E0.01276
G1 X117.857 Y90.280 E0.01038
G1 X118.086 Y90.262 E0.00720
G1 X118.595 Y90.289 E0.01599
G1 X119.129 Y90.426 E0.01728
G1 X119.595 Y90.649 E0.01621
G1 X120.036 Y90.980 E0.01729
G1 X120.402 Y91.393 E0.01731
G1 X120.663 Y91.840 E0.01621
G1 X120.842 Y92.361 E0.01728
G1 X120.913 Y92.909 E0.01732
G1 X120.878 Y93.424 E0.01621
G1 X120.734 Y93.957 E0.01729
G1 X120.485 Y94.450 E0.01731
G1 X120.167 Y94.857 E0.01621
G1 X119.750 Y95.216 E0.01727
G1 X119.300 Y95.471 E0.01621
G1 X118.775 Y95.644 E0.01731
G1 X118.228 Y95.707 E0.01729
G1 X117.712 Y95.665 E0.01621
G1 X117.181 Y95.514 E0.01732
G1 X116.693 Y95.259 E0.01728
G1 X116.290 Y94.935 E0.01621
G1 X115.935 Y94.512 E0.01731
G1 X115.674 Y94.026 E0.01729
G1 X115.540 Y93.589 E0.01432
G1 X115.143 Y93.405 F10800.000
G1 F8640.000
G1 X115.466 Y92.983 E-0.14102
G1 X115.522 Y92.434 E-0.12741
G1 X115.674 Y91.940 E-0.11935
G1 X115.935 Y91.455 E-0.12718
G1 X116.264 Y91.057 E-0.11933
G1 X116.691 Y90.708 E-0.12734
G1 X117.145 Y90.469 E-0.11846
G1 X117.531 Y90.340 E-0.09394
G1 X117.857 Y90.280 E-0.07644
G1 X118.086 Y90.262 E-0.05303
G1 X118.595 Y90.289 E-0.11772
G1 X119.051 Y90.406 E-0.10880
G1 E-0.07000 F2100.00000
G1 Z0.400 F10800.000
G1 X116.298 Y89.210
G1 Z0.200
G1 E1.40000 F2100.00000
G1 F1200.000
G1 X116.298 Y89.186 E0.00074
G1 X116.334 Y89.186 E0.00112
G1 F8640.000
G1 X116.298 Y89.186 E-0.00822
G1 X116.334 Y89.186 E-0.00822
G1 E-1.38355 F2100.00000
G1 Z0.400 F10800.000
G1 X120.032 Y89.186
G1 Z0.200
G1 E1.40000 F2100.00000
G1 F1200.000
G1 X120.082 Y89.186 E0.00155
G1 X120.082 Y89.205 E0.00058
G1 X120.459 Y88.809 F10800.000
G1 F1200.000
G1 X120.459 Y89.883 E0.03366
G1 X120.184 Y89.677 E0.01076
G1 X119.517 Y89.358 E0.02318
G1 X118.767 Y89.165 E0.02429
G1 X118.070 Y89.128 E0.02187
G1 X117.709 Y89.157 E0.01139
G1 X117.249 Y89.242 E0.01465
G1 X116.700 Y89.424 E0.01815
G1 X116.063 Y89.761 E0.02256
G1 X115.921 Y89.877 E0.00576
G1 X115.921 Y88.809 E0.03347
G1 X120.399 Y88.809 E0.14039
G1 X120.836 Y88.432 F10800.000
G1 F1200.000
G1 X120.836 Y90.746 E0.07254
G1 X120.550 Y90.422 E0.01352
G1 X119.988 Y90.001 E0.02203
G1 X119.388 Y89.714 E0.02086
G1 X118.710 Y89.540 E0.02195
G1 X118.076 Y89.506 E0.01991
G1 X117.758 Y89.532 E0.00999
G1 X117.343 Y89.608 E0.01323
G1 X116.848 Y89.772 E0.01635
G1 X116.273 Y90.076 E0.02040
G1 X115.730 Y90.519 E0.02196
G1 X115.544 Y90.744 E0.00915
G1 X115.544 Y88.432 E0.07249
G1 X120.776 Y88.432 E0.16404
G1 X121.213 Y88.055 F10800.000
G1 F1200.000
G1 X121.213 Y92.287 E0.13270
G1 X121.007 Y91.682 E0.02005
G1 X120.709 Y91.171 E0.01853
G1 X120.293 Y90.701 E0.01968
G1 X119.791 Y90.325 E0.01966
G1 X119.258 Y90.070 E0.01853
G1 X118.652 Y89.915 E0.01962
G1 X118.081 Y89.884 E0.01795
G1 X117.807 Y89.906 E0.00860
G1 X117.437 Y89.974 E0.01180
G1 X116.997 Y90.121 E0.01455
G1 X116.482 Y90.392 E0.01824
G1 X115.997 Y90.788 E0.01962
G1 X115.620 Y91.243 E0.01853
G1 X115.324 Y91.794 E0.01960
G1 X115.167 Y92.305 E0.01677
G1 X115.167 Y88.055 E0.13326
G1 X121.153 Y88.055 E0.18768
G1 F8640.000
G1 X121.213 Y92.287 E-0.97733
G1 X121.007 Y91.682 E-0.14766
G1 X120.709 Y91.171 E-0.13647
G1 X120.512 Y90.949 E-0.06854
G1 E-0.07000 F2100.00000
G1 Z0.400 F10800.000
G1 X89.332 Y99.235
G1 Z0.200
G1 E1.40000 F2100.00000
G1 F1200.000
G1 X114.790 Y99.235 E0.79822
G1 X114.790 Y87.678 E0.36236
G1 X121.590 Y87.678 E0.21321
G1 X121.590 Y101.590 E0.43620
G1 X82.532 Y101.590 E1.22464
G1 X82.532 Y87.678 E0.43620
G1 X89.332 Y87.678 E0.21321
G1 X89.332 Y99.175 E0.36048
G1 X89.403 Y99.629 F10800.000
G1 F8640.000
G1 X95.092 Y99.189 E-1.33000
G1 E-0.07000 F2100.00000
G1 Z0.400 F10800.000
G1 X87.334 Y98.270
G1 Z0.200
G1 E1.40000 F2100.00000
G1 F1200.000
G1 X86.847 Y97.783 E0.02246
G1 X86.362 Y97.853 E0.01599
G1 X87.164 Y98.655 E0.03701
G1 X87.164 Y99.210 E0.01811
G1 X85.817 Y97.864 E0.06214
G1 X85.231 Y97.832 E0.01916
G1 X86.821 Y99.422 E0.07335
G1 X86.266 Y99.422 E0.01811
G1 X84.700 Y97.856 E0.07224
G1 X84.700 Y98.411 E0.01811
G1 X85.711 Y99.422 E0.04663
G1 X85.156 Y99.422 E0.01811
G1 X84.530 Y98.797 E0.02885
G1 F8640.000
G1 X85.156 Y99.422 E-0.20411
G1 X85.711 Y99.422 E-0.12815
G1 X84.700 Y98.411 E-0.32994
G1 X84.700 Y97.856 E-0.12815
G1 X86.266 Y99.422 E-0.51118
G1 X86.389 Y99.422 E-0.02846
G1 E-0.07000 F2100.00000
G1 Z0.400 F10800.000
G1 X82.897 Y93.491
G1 Z0.200
G1 E1.40000 F2100.00000
G1 F1200.000
G1 X82.870 Y93.053 E0.01096
G1 X82.888 Y92.523 E0.01431
G1 F8640.000
G1 X82.870 Y93.053 E-0.12248
G1 E-1.27752 F2100.00000
G1 Z0.400 F10800.000
G1 X83.117 Y91.248
G1 Z0.200
G1 E1.40000 F2100.00000
G1 F1200.000
G1 X83.212 Y90.914 E0.00191
G1 F8640.000
G1 X83.117 Y91.248 E-0.08018
G1 E-1.31982 F2100.00000
G1 Z0.400 F10800.000
G1 X84.256 Y89.141
G1 Z0.200
G1 E1.40000 F2100.00000
G1 F1200.000
G1 X84.637 Y89.080 E0.00636
G1 X85.017 Y89.019 E0.00320
G1 F8640.000
G1 X84.637 Y89.080 E-0.08901
G1 E-1.31099 F2100.00000
G1 Z0.400 F10800.000
G1 X86.806 Y89.019
G1 Z0.200
G1 E1.40000 F2100.00000
G1 F1200.000
G1 X86.970 Y89.042 E0.00130
G1 X87.135 Y89.065 E0.00191
G1 X87.299 Y89.088 E0.00251
G1 X87.479 Y89.114 E0.00351
G1 X87.557 Y89.281 E0.00356
G1 F8640.000
G1 X87.479 Y89.114 E-0.04257
G1 X87.299 Y89.088 E-0.04202
G1 E-1.31541 F2100.00000
G1 Z0.400 F10800.000
G1 X88.971 Y92.492
G1 Z0.200
G1 E1.40000 F2100.00000
G1 F1200.000
G1 X88.992 Y92.836 E0.00873
G1 X88.980 Y93.429 E0.01579
G1 F8640.000
G1 X88.992 Y92.836 E-0.13689
G1 E-1.26311 F2100.00000
G1 Z0.400 F10800.000
G1 X115.152 Y93.472
G1 Z0.200
G1 E1.40000 F2100.00000
G1 F1200.000
G1 X115.128 Y92.968 E0.01254
G1 X115.152 Y92.494 E0.01303
G1 F8640.000
G1 X115.128 Y92.968 E-0.10966
G1 E-1.29034 F2100.00000
G1 Z0.400 F10800.000
G1 X116.525 Y89.137
G1 Z0.200
G1 E1.40000 F2100.00000
G1 F1200.000
G1 X116.859 Y89.083 E0.00550
